; generated by Slic3r Prusa Edition 1.41.0 on 2018-10-28 at 18:47:01

; 

; external perimeters extrusion width = 0.45mm
; perimeters extrusion width = 0.45mm
; infill extrusion width = 0.45mm
; solid infill extrusion width = 0.45mm
; top infill extrusion width = 0.40mm
; first layer extrusion width = 0.42mm

M201 X1000 Y1000 Z1000 E5000 ; sets maximum accelerations, mm/sec^2
M203 X200 Y200 Z12 E120 ; sets maximum feedrates, mm/sec
M204 P1250 R1250 T1250 ; sets acceleration (P, T) and retract acceleration (R), mm/sec^2
M205 X8.00 Y8.00 Z0.40 E1.50 ; sets the jerk limits, mm/sec
M205 S0 T0 ; sets the minimum extruding and travel feed rate, mm/sec
M107
M115 U3.4.0 ; tell printer latest fw version
M83  ; extruder relative mode
M104 S140 ; set extruder to warm-up temp
M140 S80 ; set bed temp
M190 S80 ; wait for bed temp
G28 W ; home all without mesh bed level
G80 ; mesh bed leveling
M104 S245 ; set extruder temp
M109 S245 ; wait for extruder temp
G1 Y-3.0 F1000.0 ; go outside print area
G92 E0.0
G1 X60.0 E9.0  F1000.0 ; intro line
M73 Q0 S161
M73 P0 R159
G1 X100.0 E12.5  F1000.0 ; intro line
G92 E0.0
M221 S95
M900 K45; Filament gcode
G21 ; set units to millimeters
G90 ; use absolute coordinates
M83 ; use relative distances for extrusion
;BEFORE_LAYER_CHANGE
G92 E0.0
;0.2


G1 E-0.80000 F2100.00000
G1 Z0.600 F10800.000
;AFTER_LAYER_CHANGE
;0.2
G1 X59.832 Y42.842
G1 Z0.200
G1 E0.80000 F2100.00000
M204 S20
G1 F1800
G1 X60.774 Y41.540 E0.05039
G1 X62.571 Y39.796 E0.07852
G1 X63.539 Y39.117 E0.03707
G1 X65.249 Y38.233 E0.06034
G1 X66.919 Y37.668 E0.05527
G1 X69.597 Y37.290 E0.08480
G1 X179.776 Y36.880 E3.45464
G1 X180.685 Y36.941 E0.02856
G1 X182.491 Y37.221 E0.05729
G1 X183.914 Y37.644 E0.04655
G1 X186.048 Y38.702 E0.07468
G1 X187.448 Y39.748 E0.05481
G1 X188.772 Y41.072 E0.05869
G1 X189.479 Y41.997 E0.03653
G1 X190.619 Y44.099 E0.07497
G1 X191.177 Y45.741 E0.05436
G1 X191.552 Y48.284 E0.08059
G1 X191.970 Y158.707 E3.46229
G1 X191.628 Y161.348 E0.08348
G1 X191.214 Y162.741 E0.04556
G1 X190.172 Y164.855 E0.07390
G1 X189.231 Y166.157 E0.05038
G1 X187.434 Y167.901 E0.07850
G1 X186.465 Y168.580 E0.03713
G1 X184.738 Y169.473 E0.06093
G1 X183.067 Y170.033 E0.05527
G1 X181.191 Y170.341 E0.05959
G1 X180.301 Y170.410 E0.02801
G1 X70.143 Y170.816 E3.45393
G1 X67.504 Y170.474 E0.08345
G1 X66.112 Y170.062 E0.04552
G1 X63.996 Y169.018 E0.07398
G1 X62.692 Y168.075 E0.05047
G1 X60.950 Y166.280 E0.07843
G1 X60.280 Y165.324 E0.03660
G1 X59.378 Y163.584 E0.06143
G1 X58.817 Y161.909 E0.05541
G1 X58.510 Y160.038 E0.05945
G1 X58.440 Y159.147 E0.02801
G1 X58.035 Y48.990 E3.45392
G1 X58.377 Y46.349 E0.08351
G1 X58.789 Y44.959 E0.04546
G1 X59.806 Y42.896 E0.07211
M204 S1000
G1 X60.143 Y43.062 F10800.000
M204 S20
G1 F1800
G1 X61.062 Y41.784 E0.04935
G1 X62.797 Y40.097 E0.07590
G1 X63.728 Y39.443 E0.03567
G1 X65.412 Y38.573 E0.05942
G1 X67.003 Y38.036 E0.05263
G1 X69.614 Y37.666 E0.08270
G1 X179.777 Y37.257 E3.45411
G1 X180.643 Y37.316 E0.02720
G1 X182.423 Y37.592 E0.05648
G1 X183.781 Y37.997 E0.04443
G1 X185.853 Y39.024 E0.07254
G1 X187.191 Y40.023 E0.05234
G1 X188.492 Y41.324 E0.05769
G1 X189.175 Y42.220 E0.03530
G1 X190.279 Y44.262 E0.07281
G1 X190.809 Y45.826 E0.05175
G1 X191.177 Y48.323 E0.07914
G1 X191.593 Y158.699 E3.46080
G1 X191.257 Y161.279 E0.08157
G1 X190.861 Y162.608 E0.04348
G1 X189.848 Y164.662 E0.07179
G1 X188.943 Y165.913 E0.04842
G1 X187.208 Y167.599 E0.07587
G1 X186.275 Y168.254 E0.03572
G1 X184.576 Y169.133 E0.06000
G1 X182.979 Y169.666 E0.05279
G1 X180.293 Y170.033 E0.08500
G1 X70.152 Y170.439 E3.45343
G1 X67.572 Y170.104 E0.08155
G1 X66.244 Y169.709 E0.04344
G1 X64.189 Y168.694 E0.07186
G1 X62.940 Y167.791 E0.04835
G1 X61.251 Y166.053 E0.07596
G1 X60.604 Y165.130 E0.03535
G1 X59.718 Y163.422 E0.06033
G1 X59.186 Y161.831 E0.05260
G1 X58.817 Y159.139 E0.08518
G1 X58.412 Y48.998 E3.45341
G1 X58.747 Y46.417 E0.08161
G1 X59.142 Y45.091 E0.04339
G1 X60.116 Y43.116 E0.06905
M204 S1000
; PURGING FINISHED
G1 F8640
G1 X61.062 Y41.784 E-0.37709
G1 X62.251 Y40.628 E-0.38291
G1 E-0.04000 F2100.00000
G1 Z0.800 F10800.000
G1 X186.558 Y115.406
G1 Z0.200
G1 E0.80000 F2100.00000
M204 S20
G1 F1800
G1 X185.934 Y115.848 E0.02399
G1 X185.686 Y48.576 E2.10929
G1 X185.409 Y46.845 E0.05498
G1 X184.577 Y45.198 E0.05783
G1 X183.214 Y43.844 E0.06025
G1 X181.637 Y43.048 E0.05537
G1 X179.830 Y42.758 E0.05739
G1 X69.725 Y43.165 E3.45228
G1 X67.920 Y43.468 E0.05739
G1 X66.352 Y44.274 E0.05528
G1 X65.046 Y45.571 E0.05772
G1 X64.202 Y47.211 E0.05783
G1 X63.912 Y49.023 E0.05751
G1 X64.319 Y159.125 E3.45220
G1 X64.622 Y160.934 E0.05750
G1 X65.478 Y162.567 E0.05782
G1 X66.795 Y163.856 E0.05779
G1 X68.446 Y164.674 E0.05776
G1 X70.178 Y164.939 E0.05494
G1 X116.727 Y164.767 E1.45951
G1 X116.778 Y164.923 E0.00515
G1 X116.134 Y165.395 E0.02503
G1 X70.257 Y165.564 E1.43846
G1 X69.966 Y165.542 E0.00913
G1 X68.500 Y165.316 E0.04651
G1 X67.948 Y165.139 E0.01819
G1 X66.648 Y164.482 E0.04566
G1 X66.178 Y164.143 E0.01819
G1 X65.144 Y163.117 E0.04566
G1 X64.801 Y162.649 E0.01819
G1 X64.135 Y161.354 E0.04566
G1 X63.954 Y160.803 E0.01819
G1 X63.717 Y159.339 E0.04651
G1 X63.693 Y159.048 E0.00913
G1 X63.287 Y49.104 E3.44727
G1 X63.309 Y48.812 E0.00915
G1 X63.535 Y47.347 E0.04649
G1 X63.713 Y46.794 E0.01820
G1 X64.369 Y45.494 E0.04566
G1 X64.708 Y45.024 E0.01817
G1 X65.734 Y43.990 E0.04568
G1 X66.202 Y43.647 E0.01818
G1 X67.497 Y42.982 E0.04565
G1 X68.049 Y42.800 E0.01820
G1 X69.512 Y42.563 E0.04649
G1 X69.802 Y42.539 E0.00913
G1 X179.748 Y42.133 E3.44730
M73 Q0 S160
M73 P0 R158
G1 X180.038 Y42.155 E0.00912
G1 X181.504 Y42.382 E0.04649
G1 X182.057 Y42.559 E0.01821
G1 X183.357 Y43.215 E0.04566
G1 X183.828 Y43.554 E0.01819
G1 X184.861 Y44.581 E0.04567
G1 X185.203 Y45.048 E0.01816
G1 X185.869 Y46.344 E0.04567
G1 X186.050 Y46.895 E0.01821
G1 X186.288 Y48.359 E0.04648
G1 X186.312 Y48.649 E0.00915
G1 X186.558 Y115.346 E2.09123
M204 S1000
G1 X186.936 Y115.600 F10800.000
M204 S20
G1 F1800
G1 X185.560 Y116.576 E0.05290
G1 X185.309 Y48.607 E2.13114
G1 X185.046 Y46.962 E0.05222
G1 X184.268 Y45.423 E0.05408
G1 X182.990 Y44.154 E0.05647
G1 X181.520 Y43.411 E0.05166
G1 X179.801 Y43.136 E0.05458
G1 X69.757 Y43.542 E3.45035
G1 X68.040 Y43.830 E0.05459
G1 X66.577 Y44.583 E0.05162
G1 X65.354 Y45.797 E0.05402
G1 X64.565 Y47.330 E0.05407
G1 X64.290 Y49.052 E0.05467
G1 X64.696 Y159.093 E3.45028
G1 X64.984 Y160.812 E0.05466
G1 X65.784 Y162.340 E0.05406
G1 X67.016 Y163.545 E0.05405
G1 X68.561 Y164.310 E0.05404
G1 X70.206 Y164.561 E0.05218
G1 X117.885 Y164.385 E1.49495
G1 X117.936 Y164.542 E0.00515
G1 X116.258 Y165.771 E0.06523
G1 X70.243 Y165.941 E1.44277
G1 X69.923 Y165.917 E0.01006
G1 X68.414 Y165.684 E0.04790
G1 X67.805 Y165.489 E0.02005
G1 X66.452 Y164.805 E0.04752
G1 X65.933 Y164.431 E0.02005
G1 X64.857 Y163.364 E0.04752
G1 X64.480 Y162.848 E0.02005
G1 X63.787 Y161.500 E0.04752
G1 X63.587 Y160.892 E0.02005
G1 X63.342 Y159.384 E0.04790
G1 X63.316 Y159.065 E0.01006
G1 X62.910 Y49.090 E3.44820
G1 X62.934 Y48.770 E0.01008
G1 X63.167 Y47.260 E0.04789
G1 X63.363 Y46.651 E0.02006
G1 X64.046 Y45.298 E0.04752
G1 X64.420 Y44.780 E0.02003
G1 X65.487 Y43.703 E0.04754
G1 X66.003 Y43.326 E0.02005
G1 X67.351 Y42.633 E0.04751
G1 X67.959 Y42.433 E0.02006
G1 X69.467 Y42.188 E0.04790
G1 X69.786 Y42.162 E0.01006
G1 X179.761 Y41.756 E3.44822
G1 X180.081 Y41.780 E0.01005
G1 X181.591 Y42.014 E0.04790
G1 X182.200 Y42.209 E0.02007
G1 X183.553 Y42.892 E0.04752
G1 X184.072 Y43.266 E0.02005
G1 X185.148 Y44.334 E0.04753
G1 X185.525 Y44.849 E0.02002
G1 X186.218 Y46.198 E0.04753
G1 X186.418 Y46.805 E0.02006
G1 X186.663 Y48.313 E0.04788
G1 X186.689 Y48.633 E0.01008
G1 X186.936 Y115.540 E2.09783
M204 S1000
G1 X186.539 Y115.556 F10800.000
G1 X186.245 Y115.397
M204 S20
G1 F1800
G1 X185.995 Y48.560 E1.38250
M204 S1000
M204 S20
G1 X185.746 Y46.970 E0.03223
G1 X185.697 Y46.769 E0.00414
M204 S1000
M204 S20
G1 X185.574 Y46.467 E0.00584
G1 X184.936 Y45.213 E0.02523
G1 X184.828 Y45.037 E0.00370
G1 X184.618 Y44.789 E0.00582
G1 X183.620 Y43.798 E0.02522
G1 X183.401 Y43.613 E0.00515
G1 X183.194 Y43.483 E0.00438
G1 X181.938 Y42.849 E0.02523
G1 X181.713 Y42.760 E0.00434
G1 X181.430 Y42.692 E0.00522
G1 X180.003 Y42.468 E0.02592
G1 X179.737 Y42.446 E0.00478
G1 X69.816 Y42.852 E1.97140
G1 X69.550 Y42.875 E0.00478
G1 X68.124 Y43.111 E0.02592
G1 X67.842 Y43.180 E0.00521
G1 X67.618 Y43.271 E0.00433
G1 X66.367 Y43.915 E0.02523
G1 X66.164 Y44.043 E0.00431
G1 X65.943 Y44.232 E0.00522
G1 X64.948 Y45.228 E0.02524
G1 X64.796 Y45.409 E0.00424
G1 X64.642 Y45.660 E0.00529
G1 X64.003 Y46.914 E0.02522
G1 X63.915 Y47.135 E0.00428
G1 X63.846 Y47.421 E0.00527
G1 X63.622 Y48.848 E0.02592
G1 X63.600 Y49.115 E0.00479
G1 X64.006 Y159.035 E1.97137
G1 X64.029 Y159.301 E0.00478
G1 X64.265 Y160.727 E0.02593
G1 X64.335 Y161.012 E0.00527
G1 X64.425 Y161.233 E0.00427
G1 X65.073 Y162.481 E0.02522
G1 X65.249 Y162.758 E0.00589
G1 X65.382 Y162.912 E0.00365
G1 X66.384 Y163.899 E0.02522
G1 X66.637 Y164.109 E0.00589
G1 X66.811 Y164.214 E0.00365
G1 X68.069 Y164.843 E0.02522
G1 X68.340 Y164.953 E0.00525
G1 X68.573 Y165.010 E0.00429
G1 X70.164 Y165.248 E0.02886
G1 X116.243 Y165.082 E0.82640
M204 S1000
;BEFORE_LAYER_CHANGE
G92 E0.0
;0.4


G1 F8640
G1 X112.951 Y165.093 E-0.76000
G1 E-0.04000 F2100.00000
G1 Z0.800 F10800.000
;AFTER_LAYER_CHANGE
;0.4
M140 S90 ; set bed temperature
G1 X116.263 Y170.646
G1 Z0.400
G1 E0.80000 F2100.00000
G1 F3000
G1 X70.143 Y170.816 E1.44606
G1 X67.504 Y170.474 E0.08345
G1 X66.112 Y170.062 E0.04552
G1 X63.996 Y169.018 E0.07398
G1 X62.692 Y168.075 E0.05047
G1 X60.950 Y166.280 E0.07843
G1 X60.280 Y165.324 E0.03660
G1 X59.378 Y163.584 E0.06143
G1 X58.817 Y161.909 E0.05541
G1 X58.510 Y160.038 E0.05945
G1 X58.440 Y159.147 E0.02801
G1 X58.035 Y48.990 E3.45392
G1 X58.377 Y46.349 E0.08351
G1 X58.789 Y44.959 E0.04546
G1 X59.832 Y42.842 E0.07399
G1 X60.774 Y41.540 E0.05039
G1 X62.571 Y39.796 E0.07852
G1 X63.539 Y39.117 E0.03707
G1 X65.249 Y38.233 E0.06034
G1 X66.919 Y37.668 E0.05527
G1 X69.597 Y37.290 E0.08480
G1 X179.776 Y36.880 E3.45464
G1 X180.685 Y36.941 E0.02856
G1 X182.491 Y37.221 E0.05729
G1 X183.914 Y37.644 E0.04655
G1 X186.048 Y38.702 E0.07468
G1 X187.448 Y39.748 E0.05481
G1 X188.772 Y41.072 E0.05869
G1 X189.479 Y41.997 E0.03653
G1 X190.619 Y44.099 E0.07497
G1 X191.177 Y45.741 E0.05436
G1 X191.552 Y48.284 E0.08059
G1 X191.970 Y158.707 E3.46229
G1 X191.628 Y161.348 E0.08348
G1 X191.214 Y162.741 E0.04556
G1 X190.172 Y164.855 E0.07390
G1 X189.231 Y166.157 E0.05038
G1 X187.434 Y167.901 E0.07850
G1 X186.465 Y168.580 E0.03713
G1 X184.738 Y169.473 E0.06093
G1 X183.067 Y170.033 E0.05527
G1 X181.191 Y170.341 E0.05959
G1 X180.301 Y170.410 E0.02801
G1 X116.323 Y170.646 E2.00599
G1 X116.322 Y170.269 F10800.000
G1 F3000
G1 X70.152 Y170.439 E1.44764
G1 X67.572 Y170.104 E0.08155
G1 X66.244 Y169.709 E0.04344
G1 X64.189 Y168.694 E0.07186
G1 X62.940 Y167.791 E0.04835
G1 X61.251 Y166.053 E0.07596
G1 X60.604 Y165.130 E0.03535
G1 X59.718 Y163.422 E0.06033
G1 X59.186 Y161.831 E0.05260
G1 X58.817 Y159.139 E0.08518
G1 X58.412 Y48.998 E3.45341
G1 X58.747 Y46.417 E0.08161
G1 X59.142 Y45.091 E0.04339
G1 X60.156 Y43.035 E0.07187
G1 X61.062 Y41.784 E0.04842
G1 X62.797 Y40.097 E0.07590
G1 X63.728 Y39.443 E0.03567
G1 X65.412 Y38.573 E0.05942
G1 X67.003 Y38.036 E0.05263
G1 X69.614 Y37.666 E0.08270
G1 X179.777 Y37.257 E3.45411
G1 X180.643 Y37.316 E0.02720
G1 X182.423 Y37.592 E0.05648
G1 X183.781 Y37.997 E0.04443
G1 X185.853 Y39.024 E0.07254
G1 X187.191 Y40.023 E0.05234
G1 X188.492 Y41.324 E0.05769
G1 X189.175 Y42.220 E0.03530
G1 X190.279 Y44.262 E0.07281
G1 X190.809 Y45.826 E0.05175
G1 X191.177 Y48.323 E0.07914
G1 X191.593 Y158.699 E3.46080
M73 Q1 S159
M73 P1 R157
G1 X191.257 Y161.279 E0.08157
G1 X190.861 Y162.608 E0.04348
G1 X189.848 Y164.662 E0.07179
G1 X188.943 Y165.913 E0.04842
G1 X187.208 Y167.599 E0.07587
G1 X186.275 Y168.254 E0.03572
G1 X184.576 Y169.133 E0.06000
G1 X182.979 Y169.666 E0.05279
G1 X180.293 Y170.033 E0.08500
G1 X116.382 Y170.269 E2.00390
; PURGING FINISHED
G1 F8640
G1 X113.090 Y170.281 E-0.76000
G1 E-0.04000 F2100.00000
G1 Z1.000 F10800.000
G1 X68.389 Y164.599
G1 Z0.400
G1 E0.80000 F2100.00000
M204 S800
G1 F2700
G1 X66.763 Y163.766 E0.06184
G1 X65.476 Y162.473 E0.06175
G1 X64.671 Y160.907 E0.05961
G1 X64.374 Y159.124 E0.06117
G1 X63.967 Y49.023 E3.72682
G1 X64.252 Y47.236 E0.06125
G1 X65.085 Y45.610 E0.06184
G1 X66.378 Y44.323 E0.06175
G1 X67.944 Y43.517 E0.05962
G1 X69.727 Y43.220 E0.06117
G1 X179.827 Y42.813 E3.72678
G1 X181.550 Y43.078 E0.05900
G1 X183.186 Y43.891 E0.06185
G1 X184.528 Y45.224 E0.06403
G1 X185.354 Y46.854 E0.06186
G1 X185.631 Y48.576 E0.05902
G1 X185.883 Y116.850 E2.31103
G1 F1200
G1 X186.037 Y158.673 E2.07579
G1 X185.773 Y160.399 E0.08664
G1 X184.920 Y162.086 E0.09385
G1 X183.627 Y163.375 E0.09062
G1 X182.060 Y164.180 E0.08742
G1 X180.278 Y164.477 E0.08970
G1 X118.406 Y164.706 E3.07087
G1 F2700
G1 X70.176 Y164.884 E1.63254
G1 X68.449 Y164.609 E0.05921
M204 S1000
G1 X68.517 Y164.207 F10800.000
M204 S800
G1 F2100
G1 X67.006 Y163.433 E0.05746
G1 X65.809 Y162.231 E0.05743
G1 X65.062 Y160.777 E0.05532
G1 X64.781 Y159.090 E0.05791
G1 X64.375 Y49.054 E3.72459
G1 X64.644 Y47.364 E0.05794
G1 X65.418 Y45.853 E0.05747
G1 X66.620 Y44.656 E0.05743
G1 X68.074 Y43.908 E0.05533
G1 X69.761 Y43.627 E0.05790
G1 X179.796 Y43.221 E3.72458
G1 X181.425 Y43.471 E0.05578
G1 X182.946 Y44.226 E0.05747
G1 X184.195 Y45.467 E0.05958
G1 X184.963 Y46.981 E0.05749
G1 X185.224 Y48.609 E0.05579
G1 X185.477 Y117.138 E2.31963
G1 F1200
G1 X185.630 Y158.643 E2.06003
G1 X185.381 Y160.273 E0.08184
G1 X184.587 Y161.844 E0.08737
G1 X183.384 Y163.041 E0.08422
G1 X181.931 Y163.789 E0.08113
G1 X180.243 Y164.070 E0.08491
G1 X118.964 Y164.296 E3.04146
G1 F2100
G1 X70.207 Y164.476 E1.65037
G1 X68.576 Y164.217 E0.05590
M204 S1000
G1 X68.219 Y164.474 F10800.000
G1 F8640
G1 X67.006 Y163.433 E-0.40518
G1 X65.922 Y162.344 E-0.35482
G1 E-0.04000 F2100.00000
G1 Z1.000 F10800.000
G1 X68.488 Y165.369
G1 Z0.400
G1 E0.80000 F2100.00000
M204 S800
G1 F2700
G1 X67.927 Y165.189 E0.01993
G1 X66.619 Y164.529 E0.04958
G1 X66.142 Y164.185 E0.01993
G1 X65.102 Y163.153 E0.04958
G1 X64.754 Y162.678 E0.01993
G1 X64.084 Y161.375 E0.04958
G1 X63.900 Y160.816 E0.01993
G1 X63.662 Y159.345 E0.05043
G1 X63.638 Y159.051 E0.01000
G1 X63.232 Y49.101 E3.72168
G1 X63.254 Y48.806 E0.01003
G1 X63.482 Y47.334 E0.05041
G1 X63.661 Y46.773 E0.01994
G1 X64.322 Y45.466 E0.04959
G1 X64.666 Y44.989 E0.01991
G1 X65.698 Y43.948 E0.04961
G1 X66.173 Y43.600 E0.01992
G1 X67.476 Y42.931 E0.04958
G1 X68.035 Y42.747 E0.01994
G1 X69.505 Y42.508 E0.05041
G1 X69.800 Y42.484 E0.01000
G1 X179.750 Y42.078 E3.72171
G1 X180.036 Y42.099 E0.00971
G1 X181.516 Y42.328 E0.05070
G1 X182.078 Y42.508 E0.01995
G1 X183.386 Y43.168 E0.04958
G1 X183.850 Y43.502 E0.01937
G1 X184.903 Y44.545 E0.05016
G1 X185.250 Y45.019 E0.01988
G1 X185.920 Y46.322 E0.04959
G1 X186.104 Y46.882 E0.01995
G1 X186.343 Y48.352 E0.05040
G1 X186.367 Y48.647 E0.01003
G1 X186.617 Y116.330 E2.29102
G1 F1200
G1 X186.773 Y158.596 E2.09778
G1 X186.751 Y158.891 E0.01467
G1 X186.523 Y160.363 E0.07393
G1 X186.343 Y160.924 E0.02923
G1 X185.682 Y162.232 E0.07272
G1 X185.339 Y162.709 E0.02921
G1 X184.307 Y163.749 E0.07269
G1 X183.832 Y164.097 E0.02923
G1 X182.529 Y164.766 E0.07271
G1 X181.969 Y164.951 E0.02924
G1 X180.499 Y165.189 E0.07394
G1 X180.204 Y165.213 E0.01466
G1 X117.397 Y165.445 E3.11731
G1 F2700
G1 X70.255 Y165.619 E1.59572
G1 X69.960 Y165.597 E0.01000
G1 X68.547 Y165.379 E0.04840
M204 S1000
G1 X68.485 Y165.781 F10800.000
M204 S800
G1 F2100
G1 X68.394 Y165.767 E0.00312
G1 X67.772 Y165.567 E0.02210
G1 X66.407 Y164.878 E0.05175
G1 X65.878 Y164.496 E0.02210
G1 X64.793 Y163.419 E0.05175
G1 X64.407 Y162.893 E0.02210
G1 X63.708 Y161.533 E0.05175
G1 X63.504 Y160.913 E0.02210
G1 X63.258 Y159.395 E0.05205
G1 X63.231 Y159.068 E0.01109
G1 X62.825 Y49.087 E3.72276
G1 X62.849 Y48.760 E0.01111
G1 X63.084 Y47.240 E0.05204
G1 X63.284 Y46.619 E0.02211
G1 X63.973 Y45.253 E0.05176
G1 X64.354 Y44.725 E0.02208
G1 X65.432 Y43.639 E0.05177
G1 X65.958 Y43.253 E0.02210
