; generated by Slic3r Prusa Edition 1.41.0 on 2018-10-28 at 18:47:58

; 

; external perimeters extrusion width = 0.45mm
; perimeters extrusion width = 0.45mm
; infill extrusion width = 0.45mm
; solid infill extrusion width = 0.45mm
; top infill extrusion width = 0.40mm
; first layer extrusion width = 0.42mm

M201 X1000 Y1000 Z1000 E5000 ; sets maximum accelerations, mm/sec^2
M203 X200 Y200 Z12 E120 ; sets maximum feedrates, mm/sec
M204 P1250 R1250 T1250 ; sets acceleration (P, T) and retract acceleration (R), mm/sec^2
M205 X8.00 Y8.00 Z0.40 E1.50 ; sets the jerk limits, mm/sec
M205 S0 T0 ; sets the minimum extruding and travel feed rate, mm/sec
M107
M115 U3.4.0 ; tell printer latest fw version
M83  ; extruder relative mode
M104 S140 ; set extruder to warm-up temp
M140 S80 ; set bed temp
M190 S80 ; wait for bed temp
G28 W ; home all without mesh bed level
G80 ; mesh bed leveling
M104 S245 ; set extruder temp
M109 S245 ; wait for extruder temp
G1 Y-3.0 F1000.0 ; go outside print area
G92 E0.0
G1 X60.0 E9.0  F1000.0 ; intro line
M73 Q0 S161
M73 P0 R158
G1 X100.0 E12.5  F1000.0 ; intro line
G92 E0.0
M221 S95
M900 K45; Filament gcode
G21 ; set units to millimeters
G90 ; use absolute coordinates
M83 ; use relative distances for extrusion
;BEFORE_LAYER_CHANGE
G92 E0.0
;0.2


G1 E-0.80000 F2100.00000
G1 Z0.600 F10800.000
;AFTER_LAYER_CHANGE
;0.2
G1 X59.832 Y42.842
G1 Z0.200
G1 E0.80000 F2100.00000
M204 S20
G1 F1800
G1 X60.775 Y41.540 E0.05039
G1 X62.571 Y39.796 E0.07852
G1 X63.540 Y39.117 E0.03707
G1 X65.249 Y38.234 E0.06034
G1 X66.914 Y37.670 E0.05511
G1 X69.592 Y37.290 E0.08480
G1 X179.777 Y36.880 E3.45480
G1 X180.685 Y36.942 E0.02856
G1 X182.486 Y37.220 E0.05712
G1 X183.895 Y37.638 E0.04607
G1 X186.045 Y38.700 E0.07520
G1 X187.449 Y39.748 E0.05493
G1 X188.772 Y41.072 E0.05870
G1 X189.480 Y41.998 E0.03653
G1 X190.619 Y44.099 E0.07497
G1 X191.176 Y45.736 E0.05419
G1 X191.553 Y48.289 E0.08092
G1 X191.970 Y158.708 E3.46212
G1 X191.628 Y161.348 E0.08348
G1 X191.214 Y162.741 E0.04556
G1 X190.172 Y164.855 E0.07390
G1 X189.227 Y166.161 E0.05055
G1 X187.430 Y167.904 E0.07849
G1 X186.465 Y168.580 E0.03696
G1 X184.738 Y169.473 E0.06093
G1 X183.086 Y170.026 E0.05462
G1 X181.201 Y170.340 E0.05994
G1 X180.301 Y170.411 E0.02830
G1 X70.144 Y170.816 E3.45393
G1 X67.504 Y170.475 E0.08345
G1 X66.112 Y170.062 E0.04552
G1 X63.996 Y169.019 E0.07398
G1 X62.692 Y168.075 E0.05048
G1 X60.947 Y166.276 E0.07857
G1 X60.271 Y165.311 E0.03694
G1 X59.378 Y163.585 E0.06093
G1 X58.825 Y161.934 E0.05459
G1 X58.512 Y160.047 E0.05997
G1 X58.442 Y159.165 E0.02776
G1 X58.035 Y48.990 E3.45446
G1 X58.377 Y46.349 E0.08351
G1 X58.789 Y44.959 E0.04546
G1 X59.806 Y42.896 E0.07211
M204 S1000
G1 X60.143 Y43.063 F10800.000
M204 S20
G1 F1800
G1 X61.062 Y41.785 E0.04935
G1 X62.798 Y40.097 E0.07590
G1 X63.729 Y39.444 E0.03567
G1 X65.412 Y38.573 E0.05942
G1 X67.003 Y38.036 E0.05263
G1 X69.614 Y37.667 E0.08270
G1 X179.777 Y37.258 E3.45411
G1 X180.643 Y37.316 E0.02720
G1 X182.418 Y37.591 E0.05632
G1 X183.761 Y37.991 E0.04395
G1 X185.851 Y39.023 E0.07307
G1 X187.191 Y40.024 E0.05244
G1 X188.492 Y41.325 E0.05769
G1 X189.175 Y42.220 E0.03531
G1 X190.279 Y44.263 E0.07281
G1 X190.809 Y45.826 E0.05175
G1 X191.177 Y48.323 E0.07914
G1 X191.593 Y158.700 E3.46080
G1 X191.257 Y161.279 E0.08157
G1 X190.861 Y162.608 E0.04348
G1 X189.848 Y164.662 E0.07179
G1 X188.943 Y165.913 E0.04842
G1 X187.208 Y167.600 E0.07587
G1 X186.276 Y168.254 E0.03572
G1 X184.576 Y169.133 E0.06000
G1 X183.003 Y169.659 E0.05198
G1 X181.149 Y169.966 E0.05893
G1 X180.293 Y170.034 E0.02694
G1 X70.152 Y170.439 E3.45343
G1 X67.573 Y170.104 E0.08155
G1 X66.245 Y169.709 E0.04344
G1 X64.189 Y168.695 E0.07186
G1 X62.940 Y167.791 E0.04835
G1 X61.252 Y166.054 E0.07595
G1 X60.597 Y165.122 E0.03570
G1 X59.719 Y163.422 E0.06000
G1 X59.193 Y161.851 E0.05195
G1 X58.819 Y159.157 E0.08528
G1 X58.412 Y48.999 E3.45395
G1 X58.748 Y46.418 E0.08161
G1 X59.144 Y45.087 E0.04354
G1 X60.117 Y43.117 E0.06889
M204 S1000
; PURGING FINISHED
G1 F8640
G1 X61.062 Y41.785 E-0.37711
G1 X62.251 Y40.629 E-0.38289
G1 E-0.04000 F2100.00000
G1 Z0.800 F10800.000
G1 X64.203 Y47.212
G1 Z0.200
G1 E0.80000 F2100.00000
M204 S20
G1 F1800
G1 X65.046 Y45.571 E0.05783
G1 X66.352 Y44.274 E0.05772
G1 X67.920 Y43.468 E0.05528
G1 X69.725 Y43.165 E0.05739
G1 X179.828 Y42.759 E3.45222
G1 X181.510 Y43.016 E0.05335
G1 X181.676 Y43.067 E0.00544
G1 X183.280 Y43.893 E0.05656
G1 X184.577 Y45.199 E0.05770
G1 X185.360 Y46.723 E0.05375
G1 X185.415 Y46.886 E0.00538
G1 X185.686 Y48.576 E0.05367
G1 X186.092 Y158.673 E3.45202
G1 X185.828 Y160.408 E0.05505
G1 X184.960 Y162.125 E0.06031
G1 X183.653 Y163.423 E0.05776
G1 X182.085 Y164.229 E0.05528
G1 X180.279 Y164.532 E0.05743
G1 X70.176 Y164.939 E3.45222
G1 X68.365 Y164.649 E0.05750
G1 X66.725 Y163.805 E0.05782
G1 X65.428 Y162.499 E0.05773
G1 X64.622 Y160.932 E0.05525
G1 X64.319 Y159.125 E0.05743
G1 X63.913 Y49.023 E3.45220
G1 X64.193 Y47.271 E0.05563
M204 S1000
G1 X64.565 Y47.330 F10800.000
M204 S20
G1 F1800
G1 X65.354 Y45.797 E0.05407
G1 X66.577 Y44.583 E0.05402
G1 X68.041 Y43.830 E0.05162
G1 X69.757 Y43.542 E0.05459
G1 X179.800 Y43.136 E3.45033
G1 X181.426 Y43.385 E0.05158
G1 X181.534 Y43.418 E0.00353
G1 X183.054 Y44.201 E0.05364
M73 Q0 S160
G1 X184.268 Y45.423 E0.05400
M73 P0 R157
G1 X185.012 Y46.871 E0.05105
G1 X185.048 Y46.977 E0.00351
G1 X185.309 Y48.607 E0.05175
G1 X185.715 Y158.645 E3.45018
G1 X185.464 Y160.292 E0.05225
G1 X184.651 Y161.900 E0.05651
G1 X183.429 Y163.115 E0.05402
G1 X181.965 Y163.867 E0.05161
G1 X180.246 Y164.155 E0.05463
G1 X70.205 Y164.562 E3.45029
G1 X68.484 Y164.286 E0.05466
G1 X66.950 Y163.497 E0.05406
G1 X65.736 Y162.274 E0.05403
G1 X64.984 Y160.811 E0.05159
G1 X64.696 Y159.093 E0.05463
G1 X64.290 Y49.052 E3.45028
G1 X64.556 Y47.390 E0.05278
M204 S1000
G1 X64.298 Y47.033 F10800.000
G1 F8640
G1 X65.354 Y45.797 E-0.41138
G1 X66.425 Y44.733 E-0.34862
G1 E-0.04000 F2100.00000
G1 Z0.800 F10800.000
G1 X64.369 Y45.494
G1 Z0.200
G1 E0.80000 F2100.00000
M204 S20
G1 F1800
G1 X64.708 Y45.024 E0.01817
G1 X65.734 Y43.990 E0.04568
G1 X66.202 Y43.647 E0.01818
G1 X67.497 Y42.982 E0.04565
G1 X68.049 Y42.800 E0.01820
G1 X69.512 Y42.563 E0.04649
G1 X69.802 Y42.539 E0.00913
G1 X179.748 Y42.133 E3.44730
G1 X180.038 Y42.155 E0.00912
G1 X181.504 Y42.382 E0.04649
G1 X182.057 Y42.559 E0.01821
G1 X183.357 Y43.215 E0.04566
G1 X183.828 Y43.554 E0.01819
G1 X184.861 Y44.581 E0.04567
G1 X185.203 Y45.048 E0.01816
G1 X185.869 Y46.344 E0.04567
G1 X186.050 Y46.895 E0.01821
G1 X186.288 Y48.359 E0.04649
G1 X186.312 Y48.649 E0.00915
G1 X186.718 Y158.595 E3.44727
G1 X186.696 Y158.885 E0.00913
G1 X186.469 Y160.350 E0.04650
G1 X186.292 Y160.903 E0.01820
G1 X185.635 Y162.203 E0.04567
G1 X185.297 Y162.674 E0.01818
G1 X184.271 Y163.707 E0.04565
G1 X183.803 Y164.050 E0.01819
G1 X182.508 Y164.716 E0.04566
G1 X181.956 Y164.897 E0.01820
G1 X180.492 Y165.135 E0.04651
G1 X180.202 Y165.158 E0.00913
G1 X70.257 Y165.564 E3.44728
G1 X69.966 Y165.542 E0.00913
G1 X68.501 Y165.316 E0.04651
G1 X67.948 Y165.139 E0.01819
G1 X66.648 Y164.482 E0.04566
G1 X66.178 Y164.143 E0.01819
G1 X65.144 Y163.117 E0.04566
G1 X64.801 Y162.649 E0.01819
G1 X64.135 Y161.354 E0.04566
G1 X63.954 Y160.803 E0.01819
G1 X63.717 Y159.339 E0.04651
G1 X63.693 Y159.049 E0.00913
G1 X63.287 Y49.104 E3.44727
G1 X63.309 Y48.813 E0.00915
G1 X63.535 Y47.347 E0.04649
G1 X63.713 Y46.794 E0.01820
G1 X64.342 Y45.548 E0.04378
M204 S1000
G1 X64.005 Y45.378 F10800.000
M204 S20
G1 F1800
G1 X64.420 Y44.780 E0.02282
G1 X65.487 Y43.704 E0.04754
G1 X66.003 Y43.326 E0.02005
G1 X67.351 Y42.633 E0.04751
G1 X67.959 Y42.433 E0.02006
G1 X69.467 Y42.188 E0.04790
G1 X69.786 Y42.162 E0.01006
G1 X179.762 Y41.756 E3.44822
G1 X180.081 Y41.780 E0.01005
G1 X181.591 Y42.014 E0.04790
G1 X182.200 Y42.209 E0.02007
G1 X183.553 Y42.892 E0.04752
G1 X184.072 Y43.266 E0.02005
G1 X185.148 Y44.334 E0.04753
G1 X185.525 Y44.849 E0.02002
G1 X186.218 Y46.198 E0.04753
G1 X186.418 Y46.805 E0.02006
G1 X186.663 Y48.313 E0.04788
G1 X186.689 Y48.633 E0.01008
G1 X187.095 Y158.608 E3.44820
G1 X187.071 Y158.928 E0.01006
G1 X186.837 Y160.438 E0.04790
G1 X186.642 Y161.047 E0.02006
G1 X185.959 Y162.400 E0.04752
G1 X185.585 Y162.918 E0.02004
G1 X184.518 Y163.994 E0.04751
G1 X184.002 Y164.372 E0.02005
G1 X182.654 Y165.065 E0.04752
G1 X182.046 Y165.265 E0.02006
G1 X180.538 Y165.509 E0.04790
G1 X180.218 Y165.535 E0.01006
G1 X70.243 Y165.941 E3.44821
G1 X69.923 Y165.917 E0.01006
G1 X68.414 Y165.684 E0.04790
G1 X67.805 Y165.489 E0.02005
G1 X66.452 Y164.806 E0.04752
G1 X65.933 Y164.432 E0.02005
G1 X64.857 Y163.364 E0.04752
G1 X64.480 Y162.848 E0.02005
G1 X63.787 Y161.500 E0.04752
G1 X63.587 Y160.893 E0.02005
G1 X63.342 Y159.385 E0.04790
G1 X63.316 Y159.065 E0.01006
G1 X62.910 Y49.090 E3.44820
G1 X62.934 Y48.770 E0.01008
G1 X63.167 Y47.260 E0.04789
G1 X63.363 Y46.651 E0.02006
G1 X63.978 Y45.432 E0.04283
M204 S1000
G1 X64.405 Y45.386 F10800.000
G1 F8640
G1 X64.420 Y44.780 E-0.18179
G1 X65.487 Y43.704 E-0.35007
G1 X66.003 Y43.326 E-0.14766
G1 X66.313 Y43.166 E-0.08049
G1 E-0.04000 F2100.00000
G1 Z0.800 F10800.000
G1 X63.605 Y48.989
G1 Z0.200
G1 E0.80000 F2100.00000
M204 S20
G1 F1800
G1 X63.846 Y47.421 E0.02852
G1 X63.925 Y47.103 E0.00589
G1 X64.003 Y46.914 E0.00368
G1 X64.642 Y45.660 E0.02527
G1 X64.796 Y45.409 E0.00530
G1 X64.948 Y45.228 E0.00425
G1 X65.943 Y44.232 E0.02529
G1 X66.164 Y44.043 E0.00523
G1 X66.367 Y43.915 E0.00432
G1 X67.618 Y43.271 E0.02528
G1 X67.842 Y43.180 E0.00434
G1 X68.124 Y43.111 E0.00522
G1 X69.709 Y42.856 E0.02884
G1 X179.737 Y42.446 E1.97724
G1 X180.003 Y42.467 E0.00479
G1 X181.431 Y42.687 E0.02598
G1 X181.780 Y42.785 E0.00650
G1 X181.938 Y42.850 E0.00307
G1 X183.191 Y43.488 E0.02528
G1 X183.442 Y43.643 E0.00530
G1 X183.624 Y43.794 E0.00425
G1 X184.619 Y44.789 E0.02528
G1 X184.808 Y45.010 E0.00523
G1 X184.936 Y45.213 E0.00431
G1 X185.579 Y46.465 E0.02529
G1 X185.705 Y46.805 E0.00651
G1 X185.746 Y46.970 E0.00305
G1 X185.976 Y48.397 E0.02598
G1 X185.999 Y48.663 E0.00480
G1 X186.405 Y158.583 E1.97531
G1 X186.383 Y158.849 E0.00479
G1 X186.164 Y160.278 E0.02598
G1 X186.105 Y160.515 E0.00438
G1 X185.996 Y160.782 E0.00518
G1 X185.362 Y162.037 E0.02527
G1 X185.211 Y162.286 E0.00523
G1 X185.057 Y162.471 E0.00432
G1 X184.063 Y163.465 E0.02526
G1 X183.841 Y163.654 E0.00524
G1 X183.638 Y163.783 E0.00432
G1 X182.387 Y164.426 E0.02529
G1 X182.195 Y164.507 E0.00374
G1 X181.881 Y164.587 E0.00582
G1 X180.454 Y164.822 E0.02598
G1 X180.189 Y164.846 E0.00479
G1 X70.268 Y165.251 E1.97531
G1 X70.002 Y165.230 E0.00479
G1 X68.574 Y165.005 E0.02598
G1 X68.288 Y164.937 E0.00528
G1 X68.067 Y164.848 E0.00428
G1 X66.814 Y164.209 E0.02527
G1 X66.563 Y164.055 E0.00530
G1 X66.381 Y163.903 E0.00426
G1 X65.386 Y162.909 E0.02527
G1 X65.197 Y162.687 E0.00524
G1 X65.068 Y162.484 E0.00431
G1 X64.425 Y161.233 E0.02528
G1 X64.334 Y161.009 E0.00433
G1 X64.265 Y160.727 E0.00582
G1 X64.029 Y159.301 E0.02891
G1 X64.006 Y159.035 E0.00533
G1 X63.602 Y49.049 E2.19935
M73 Q1 S159
M73 P1 R156
M204 S1000
;BEFORE_LAYER_CHANGE
G92 E0.0
;0.4


G1 F8640
G1 X63.846 Y47.421 E-0.38019
G1 X63.925 Y47.103 E-0.07563
G1 X64.003 Y46.914 E-0.04725
G1 X64.509 Y45.922 E-0.25692
G1 E-0.04000 F2100.00000
G1 Z0.800 F10800.000
;AFTER_LAYER_CHANGE
;0.4
M140 S90 ; set bed temperature
G1 X66.914 Y37.670
G1 Z0.400
G1 E0.80000 F2100.00000
G1 F3000
G1 X69.592 Y37.290 E0.08480
G1 X179.777 Y36.880 E3.45480
G1 X180.685 Y36.942 E0.02856
G1 X182.486 Y37.220 E0.05712
G1 X183.895 Y37.638 E0.04607
G1 X186.045 Y38.700 E0.07520
G1 X187.449 Y39.748 E0.05493
G1 X188.772 Y41.072 E0.05870
G1 X189.480 Y41.998 E0.03653
G1 X190.619 Y44.099 E0.07497
G1 X191.176 Y45.736 E0.05419
G1 X191.553 Y48.289 E0.08092
G1 X191.970 Y158.708 E3.46212
G1 X191.628 Y161.348 E0.08348
G1 X191.214 Y162.741 E0.04556
G1 X190.172 Y164.855 E0.07390
G1 X189.227 Y166.161 E0.05055
G1 X187.430 Y167.904 E0.07849
G1 X186.465 Y168.580 E0.03696
G1 X184.738 Y169.473 E0.06093
G1 X183.086 Y170.026 E0.05462
G1 X181.201 Y170.340 E0.05994
G1 X180.301 Y170.411 E0.02830
G1 X70.144 Y170.816 E3.45393
G1 X67.504 Y170.475 E0.08345
G1 X66.112 Y170.062 E0.04552
G1 X63.996 Y169.019 E0.07398
G1 X62.692 Y168.075 E0.05048
G1 X60.947 Y166.276 E0.07857
G1 X60.271 Y165.311 E0.03694
G1 X59.378 Y163.585 E0.06093
G1 X58.825 Y161.934 E0.05459
G1 X58.512 Y160.047 E0.05997
G1 X58.442 Y159.165 E0.02776
G1 X58.035 Y48.990 E3.45446
G1 X58.377 Y46.349 E0.08351
G1 X58.789 Y44.959 E0.04546
G1 X59.832 Y42.842 E0.07399
G1 X60.775 Y41.540 E0.05039
G1 X62.571 Y39.796 E0.07852
G1 X63.540 Y39.117 E0.03707
G1 X65.249 Y38.234 E0.06034
G1 X66.857 Y37.689 E0.05323
G1 X66.977 Y38.045 F10800.000
G1 F3000
G1 X69.614 Y37.667 E0.08353
G1 X179.777 Y37.258 E3.45411
G1 X180.643 Y37.316 E0.02720
G1 X182.418 Y37.591 E0.05632
G1 X183.761 Y37.991 E0.04395
G1 X185.851 Y39.023 E0.07307
G1 X187.191 Y40.024 E0.05244
G1 X188.492 Y41.325 E0.05769
G1 X189.175 Y42.220 E0.03531
G1 X190.279 Y44.263 E0.07281
G1 X190.809 Y45.826 E0.05175
G1 X191.177 Y48.323 E0.07914
G1 X191.593 Y158.700 E3.46080
G1 X191.257 Y161.279 E0.08157
G1 X190.861 Y162.608 E0.04348
G1 X189.848 Y164.662 E0.07179
G1 X188.943 Y165.913 E0.04842
G1 X187.208 Y167.600 E0.07587
G1 X186.276 Y168.254 E0.03572
G1 X184.576 Y169.133 E0.06000
G1 X183.003 Y169.659 E0.05198
G1 X181.149 Y169.966 E0.05893
G1 X180.293 Y170.034 E0.02694
G1 X70.152 Y170.439 E3.45343
G1 X67.573 Y170.104 E0.08155
G1 X66.245 Y169.709 E0.04344
G1 X64.189 Y168.695 E0.07186
G1 X62.940 Y167.791 E0.04835
G1 X61.252 Y166.054 E0.07595
G1 X60.597 Y165.122 E0.03570
G1 X59.719 Y163.422 E0.06000
G1 X59.193 Y161.851 E0.05195
G1 X58.819 Y159.157 E0.08528
G1 X58.412 Y48.999 E3.45395
G1 X58.748 Y46.418 E0.08161
G1 X59.144 Y45.087 E0.04354
G1 X60.159 Y43.031 E0.07187
G1 X61.062 Y41.785 E0.04826
G1 X62.798 Y40.097 E0.07590
G1 X63.729 Y39.444 E0.03567
G1 X65.412 Y38.573 E0.05942
G1 X66.920 Y38.064 E0.04990
; PURGING FINISHED
G1 F8640
G1 X69.614 Y37.667 E-0.62880
G1 X70.182 Y37.664 E-0.13120
G1 E-0.04000 F2100.00000
G1 Z1.000 F10800.000
G1 X67.944 Y43.517
G1 Z0.400
G1 E0.80000 F2100.00000
M204 S800
G1 F2700
G1 X69.727 Y43.220 E0.06117
G1 X179.860 Y42.817 E3.72791
G1 X181.614 Y43.098 E0.06011
G1 X183.188 Y43.893 E0.05968
G1 X184.529 Y45.224 E0.06396
G1 X185.354 Y46.854 E0.06184
G1 X185.629 Y48.544 E0.05795
G1 X186.037 Y158.673 E3.72778
G1 X185.773 Y160.399 E0.05909
G1 X184.921 Y162.086 E0.06400
G1 X183.627 Y163.375 E0.06180
G1 X182.060 Y164.180 E0.05962
G1 X180.278 Y164.477 E0.06118
G1 X70.176 Y164.884 E3.72683
G1 X68.389 Y164.599 E0.06124
G1 X66.764 Y163.766 E0.06184
G1 X65.476 Y162.473 E0.06175
G1 X64.671 Y160.907 E0.05961
G1 X64.374 Y159.124 E0.06117
G1 X63.968 Y49.023 E3.72682
G1 X64.252 Y47.236 E0.06125
G1 X65.085 Y45.610 E0.06184
G1 X66.378 Y44.323 E0.06175
G1 X67.891 Y43.545 E0.05759
M204 S1000
G1 X68.074 Y43.908 F10800.000
M204 S800
G1 F2100
G1 X69.762 Y43.627 E0.05790
G1 X179.828 Y43.224 E3.72566
G1 X181.487 Y43.490 E0.05685
G1 X182.947 Y44.227 E0.05536
G1 X184.195 Y45.467 E0.05955
G1 X184.963 Y46.981 E0.05748
G1 X185.222 Y48.577 E0.05472
G1 X185.630 Y158.643 E3.72562
G1 X185.381 Y160.273 E0.05582
G1 X184.587 Y161.844 E0.05959
G1 X183.385 Y163.042 E0.05744
G1 X181.931 Y163.789 E0.05533
G1 X180.243 Y164.070 E0.05791
G1 X70.208 Y164.477 E3.72460
G1 X68.517 Y164.208 E0.05793
G1 X67.007 Y163.433 E0.05746
G1 X65.810 Y162.231 E0.05743
G1 X65.062 Y160.777 E0.05532
G1 X64.781 Y159.090 E0.05791
G1 X64.375 Y49.054 E3.72459
G1 X64.644 Y47.364 E0.05794
G1 X65.418 Y45.853 E0.05747
G1 X66.620 Y44.656 E0.05743
G1 X68.021 Y43.936 E0.05330
M204 S1000
G1 X68.155 Y43.516 F10800.000
G1 F8640
G1 X69.762 Y43.627 E-0.40821
G1 X71.285 Y43.621 E-0.35179
G1 E-0.04000 F2100.00000
G1 Z1.000 F10800.000
G1 X68.035 Y42.747
G1 Z0.400
G1 E0.80000 F2100.00000
M204 S800
G1 F2700
G1 X69.506 Y42.508 E0.05041
G1 X69.800 Y42.484 E0.01000
G1 X179.750 Y42.078 E3.72170
G1 X180.035 Y42.099 E0.00965
G1 X181.517 Y42.328 E0.05076
G1 X182.078 Y42.508 E0.01995
G1 X183.386 Y43.168 E0.04958
G1 X183.863 Y43.512 E0.01993
G1 X184.903 Y44.545 E0.04960
G1 X185.250 Y45.019 E0.01990
G1 X185.920 Y46.322 E0.04959
