; generated by Slic3r Prusa Edition 1.41.0 on 2018-11-02 at 23:58:44

; 

; external perimeters extrusion width = 0.45mm
; perimeters extrusion width = 0.45mm
; infill extrusion width = 0.45mm
; solid infill extrusion width = 0.45mm
; top infill extrusion width = 0.40mm
; first layer extrusion width = 0.42mm

M201 X1000 Y1000 Z1000 E5000 ; sets maximum accelerations, mm/sec^2
M203 X200 Y200 Z12 E120 ; sets maximum feedrates, mm/sec
M204 P1250 R1250 T1250 ; sets acceleration (P, T) and retract acceleration (R), mm/sec^2
M205 X8.00 Y8.00 Z0.40 E1.50 ; sets the jerk limits, mm/sec
M205 S0 T0 ; sets the minimum extruding and travel feed rate, mm/sec
M107
M115 U3.4.0 ; tell printer latest fw version
M83  ; extruder relative mode
M104 S140 ; set extruder to warm-up temp
M140 S80 ; set bed temp
M190 S80 ; wait for bed temp
G28 W ; home all without mesh bed level
G80 ; mesh bed leveling
M104 S245 ; set extruder temp
M109 S245 ; wait for extruder temp
G1 Y-3.0 F1000.0 ; go outside print area
G92 E0.0
G1 X60.0 E9.0  F1000.0 ; intro line
M73 Q0 S145
M73 P0 R144
G1 X100.0 E12.5  F1000.0 ; intro line
G92 E0.0
M221 S95
M900 K45; Filament gcode
G21 ; set units to millimeters
G90 ; use absolute coordinates
M83 ; use relative distances for extrusion
;BEFORE_LAYER_CHANGE
G92 E0.0
;0.2


G1 E-0.80000 F2100.00000
G1 Z0.600 F10800.000
;AFTER_LAYER_CHANGE
;0.2
G1 X60.055 Y39.785
G1 Z0.200
G1 E0.80000 F2100.00000
M204 S20
G1 F1800
G1 X61.001 Y38.487 E0.05037
G1 X62.805 Y36.748 E0.07856
G1 X63.773 Y36.076 E0.03693
G1 X65.486 Y35.196 E0.06039
G1 X67.157 Y34.638 E0.05523
G1 X69.835 Y34.269 E0.08475
G1 X180.004 Y34.264 E3.45429
G1 X180.906 Y34.326 E0.02833
G1 X182.730 Y34.614 E0.05789
G1 X184.153 Y35.042 E0.04660
G1 X186.287 Y36.110 E0.07482
G1 X187.680 Y37.158 E0.05468
G1 X189.000 Y38.487 E0.05872
G1 X189.705 Y39.417 E0.03658
G1 X190.836 Y41.523 E0.07495
G1 X191.387 Y43.165 E0.05433
G1 X191.754 Y45.714 E0.08074
G1 X191.765 Y156.135 E3.46215
G1 X191.414 Y158.774 E0.08348
G1 X190.995 Y160.165 E0.04555
G1 X189.945 Y162.275 E0.07390
G1 X188.999 Y163.574 E0.05038
G1 X187.196 Y165.311 E0.07850
G1 X186.224 Y165.987 E0.03713
G1 X184.494 Y166.873 E0.06095
G1 X182.816 Y167.428 E0.05542
G1 X180.944 Y167.728 E0.05943
G1 X180.054 Y167.795 E0.02800
G1 X69.895 Y167.795 E3.45393
G1 X67.254 Y167.444 E0.08355
G1 X65.867 Y167.026 E0.04542
G1 X63.754 Y165.975 E0.07398
G1 X62.454 Y165.027 E0.05047
G1 X60.715 Y163.222 E0.07857
G1 X60.043 Y162.254 E0.03693
G1 X59.157 Y160.525 E0.06094
G1 X58.608 Y158.864 E0.05483
G1 X58.303 Y156.980 E0.05986
G1 X58.236 Y156.084 E0.02818
G1 X58.235 Y45.925 E3.45394
G1 X58.586 Y43.287 E0.08345
G1 X59.004 Y41.897 E0.04551
G1 X60.028 Y39.839 E0.07209
M204 S1000
G1 X60.364 Y40.006 F10800.000
M204 S20
G1 F1800
G1 X61.288 Y38.732 E0.04933
G1 X63.031 Y37.050 E0.07594
G1 X63.965 Y36.400 E0.03569
G1 X65.653 Y35.535 E0.05948
G1 X67.240 Y35.006 E0.05243
G1 X69.856 Y34.645 E0.08280
G1 X180.004 Y34.641 E3.45362
G1 X180.862 Y34.701 E0.02697
G1 X182.660 Y34.984 E0.05708
G1 X184.019 Y35.394 E0.04448
G1 X186.091 Y36.432 E0.07267
G1 X187.418 Y37.430 E0.05206
G1 X188.719 Y38.739 E0.05788
G1 X189.396 Y39.634 E0.03520
G1 X190.496 Y41.685 E0.07295
G1 X191.020 Y43.249 E0.05172
G1 X191.378 Y45.747 E0.07913
G1 X191.388 Y156.125 E3.46083
G1 X191.043 Y158.704 E0.08157
G1 X190.642 Y160.031 E0.04348
G1 X189.622 Y162.081 E0.07179
G1 X188.712 Y163.329 E0.04842
G1 X186.971 Y165.009 E0.07587
G1 X186.036 Y165.660 E0.03572
G1 X184.333 Y166.533 E0.06001
G1 X182.739 Y167.059 E0.05261
G1 X180.047 Y167.418 E0.08516
G1 X69.905 Y167.418 E3.45342
G1 X67.324 Y167.073 E0.08165
G1 X66.000 Y166.674 E0.04335
G1 X63.949 Y165.652 E0.07186
G1 X62.703 Y164.744 E0.04835
G1 X61.021 Y163.000 E0.07595
G1 X60.368 Y162.062 E0.03585
G1 X59.498 Y160.363 E0.05984
G1 X58.976 Y158.783 E0.05218
G1 X58.677 Y156.936 E0.05868
G1 X58.613 Y156.077 E0.02699
G1 X58.612 Y45.935 E3.45343
G1 X58.957 Y43.357 E0.08155
G1 X59.357 Y42.031 E0.04343
G1 X60.338 Y40.060 E0.06903
M204 S1000
; PURGING FINISHED
G1 F8640
G1 X61.288 Y38.732 E-0.37699
G1 X62.481 Y37.580 E-0.38301
G1 E-0.04000 F2100.00000
G1 Z0.800 F10800.000
G1 X64.409 Y44.170
G1 Z0.200
G1 E0.80000 F2100.00000
M204 S20
G1 F1800
G1 X65.258 Y42.533 E0.05783
G1 X66.569 Y41.240 E0.05772
G1 X68.140 Y40.440 E0.05527
G1 X69.946 Y40.144 E0.05741
G1 X180.050 Y40.142 E3.45221
G1 X181.779 Y40.413 E0.05489
G1 X183.392 Y41.219 E0.05653
G1 X183.532 Y41.324 E0.00549
G1 X184.789 Y42.599 E0.05616
G1 X185.567 Y44.126 E0.05370
G1 X185.622 Y44.287 E0.00535
G1 X185.886 Y45.980 E0.05372
G1 X185.888 Y156.078 E3.45204
G1 X185.617 Y157.813 E0.05505
G1 X184.743 Y159.526 E0.06031
G1 X183.431 Y160.820 E0.05777
G1 X181.860 Y161.620 E0.05527
G1 X180.053 Y161.916 E0.05743
G1 X69.949 Y161.918 E3.45222
G1 X68.139 Y161.621 E0.05750
G1 X66.502 Y160.772 E0.05782
G1 X65.210 Y159.461 E0.05773
G1 X64.410 Y157.891 E0.05525
G1 X64.114 Y156.083 E0.05743
G1 X64.112 Y45.979 E3.45222
G1 X64.399 Y44.229 E0.05562
M204 S1000
G1 X64.771 Y44.290 F10800.000
M204 S20
G1 F1800
G1 X65.565 Y42.759 E0.05407
G1 X66.792 Y41.550 E0.05402
G1 X68.259 Y40.803 E0.05160
G1 X69.977 Y40.521 E0.05460
G1 X180.020 Y40.519 E3.45033
G1 X181.663 Y40.776 E0.05214
G1 X183.193 Y41.541 E0.05363
M73 Q0 S144
G1 X183.283 Y41.609 E0.00354
G1 X184.480 Y42.823 E0.05344
M73 P0 R143
G1 X185.218 Y44.273 E0.05103
G1 X185.254 Y44.378 E0.00348
G1 X185.509 Y46.010 E0.05178
G1 X185.511 Y156.049 E3.45020
G1 X185.254 Y157.695 E0.05225
G1 X184.435 Y159.301 E0.05651
G1 X183.208 Y160.510 E0.05402
G1 X181.741 Y161.258 E0.05160
G1 X180.022 Y161.539 E0.05463
G1 X69.980 Y161.541 E3.45030
G1 X68.260 Y161.259 E0.05465
G1 X66.729 Y160.465 E0.05406
G1 X65.520 Y159.238 E0.05403
G1 X64.773 Y157.772 E0.05159
G1 X64.491 Y156.052 E0.05463
G1 X64.489 Y46.010 E3.45029
G1 X64.761 Y44.349 E0.05277
M204 S1000
G1 X64.505 Y43.991 F10800.000
G1 F8640
G1 X65.565 Y42.759 E-0.41137
G1 X66.641 Y41.699 E-0.34863
G1 E-0.04000 F2100.00000
G1 Z0.800 F10800.000
G1 X64.581 Y42.454
G1 Z0.200
G1 E0.80000 F2100.00000
M204 S20
G1 F1800
G1 X64.922 Y41.985 E0.01818
G1 X65.952 Y40.955 E0.04567
G1 X66.421 Y40.614 E0.01819
G1 X67.719 Y39.953 E0.04566
G1 X68.271 Y39.773 E0.01819
G1 X69.735 Y39.541 E0.04649
G1 X70.025 Y39.518 E0.00913
G1 X179.973 Y39.517 E3.44732
G1 X180.263 Y39.539 E0.00912
G1 X181.727 Y39.771 E0.04649
G1 X182.279 Y39.951 E0.01821
G1 X183.577 Y40.612 E0.04567
G1 X184.046 Y40.953 E0.01819
G1 X185.076 Y41.983 E0.04565
G1 X185.416 Y42.451 E0.01817
G1 X186.077 Y43.750 E0.04567
G1 X186.257 Y44.301 E0.01820
G1 X186.489 Y45.765 E0.04648
G1 X186.512 Y46.056 E0.00914
G1 X186.514 Y156.002 E3.44729
G1 X186.491 Y156.293 E0.00913
G1 X186.259 Y157.757 E0.04650
G1 X186.079 Y158.309 E0.01820
G1 X185.418 Y159.607 E0.04567
G1 X185.078 Y160.076 E0.01818
G1 X184.048 Y161.106 E0.04565
G1 X183.579 Y161.447 E0.01819
G1 X182.281 Y162.108 E0.04566
G1 X181.729 Y162.287 E0.01820
G1 X180.264 Y162.519 E0.04651
G1 X179.974 Y162.542 E0.00913
G1 X70.028 Y162.544 E3.44728
G1 X69.738 Y162.521 E0.00913
G1 X68.273 Y162.289 E0.04651
G1 X67.721 Y162.110 E0.01819
G1 X66.423 Y161.449 E0.04566
G1 X65.954 Y161.108 E0.01819
G1 X64.924 Y160.078 E0.04566
G1 X64.583 Y159.609 E0.01819
G1 X63.922 Y158.311 E0.04566
G1 X63.743 Y157.760 E0.01819
G1 X63.511 Y156.295 E0.04651
G1 X63.488 Y156.004 E0.00913
G1 X63.486 Y46.058 E3.44728
G1 X63.509 Y45.767 E0.00914
G1 X63.741 Y44.303 E0.04648
G1 X63.920 Y43.751 E0.01819
G1 X64.554 Y42.507 E0.04379
M204 S1000
G1 X64.218 Y42.336 F10800.000
M204 S20
G1 F1800
G1 X64.635 Y41.739 E0.02282
G1 X65.706 Y40.667 E0.04753
G1 X66.224 Y40.291 E0.02005
G1 X67.574 Y39.603 E0.04752
G1 X68.182 Y39.405 E0.02005
G1 X69.691 Y39.166 E0.04789
G1 X70.011 Y39.141 E0.01006
G1 X179.987 Y39.140 E3.44823
G1 X180.307 Y39.164 E0.01005
G1 X181.815 Y39.404 E0.04789
G1 X182.424 Y39.601 E0.02007
G1 X183.775 Y40.289 E0.04753
G1 X184.292 Y40.665 E0.02005
G1 X185.364 Y41.737 E0.04752
G1 X185.739 Y42.254 E0.02003
G1 X186.427 Y43.605 E0.04753
G1 X186.625 Y44.213 E0.02006
G1 X186.864 Y45.721 E0.04788
G1 X186.889 Y46.041 E0.01007
G1 X186.891 Y156.017 E3.44822
G1 X186.866 Y156.337 E0.01006
G1 X186.626 Y157.846 E0.04790
G1 X186.429 Y158.454 E0.02006
G1 X185.741 Y159.805 E0.04752
G1 X185.365 Y160.322 E0.02004
G1 X184.294 Y161.394 E0.04751
G1 X183.776 Y161.769 E0.02006
G1 X182.426 Y162.458 E0.04752
G1 X181.817 Y162.655 E0.02006
G1 X180.308 Y162.894 E0.04790
G1 X179.989 Y162.919 E0.01005
G1 X70.013 Y162.921 E3.44821
G1 X69.693 Y162.896 E0.01006
G1 X68.184 Y162.657 E0.04790
G1 X67.576 Y162.459 E0.02005
G1 X66.226 Y161.771 E0.04752
G1 X65.708 Y161.395 E0.02005
G1 X64.637 Y160.324 E0.04752
G1 X64.261 Y159.806 E0.02005
G1 X63.573 Y158.456 E0.04752
G1 X63.375 Y157.848 E0.02005
G1 X63.136 Y156.339 E0.04790
G1 X63.111 Y156.019 E0.01006
G1 X63.109 Y46.043 E3.44821
G1 X63.134 Y45.723 E0.01007
G1 X63.373 Y44.215 E0.04788
G1 X63.571 Y43.607 E0.02005
G1 X64.191 Y42.389 E0.04283
M204 S1000
G1 X64.618 Y42.345 F10800.000
G1 F8640
G1 X64.635 Y41.739 E-0.18181
G1 X65.706 Y40.667 E-0.34999
G1 X66.224 Y40.291 E-0.14763
G1 X66.535 Y40.133 E-0.08056
G1 E-0.04000 F2100.00000
G1 Z0.800 F10800.000
G1 X63.805 Y45.944
G1 Z0.200
G1 E0.80000 F2100.00000
M204 S20
G1 F1800
G1 X64.052 Y44.378 E0.02850
G1 X64.132 Y44.060 E0.00589
G1 X64.211 Y43.872 E0.00367
G1 X64.854 Y42.620 E0.02528
G1 X65.009 Y42.370 E0.00530
G1 X65.161 Y42.189 E0.00425
G1 X66.159 Y41.197 E0.02528
G1 X66.382 Y41.009 E0.00524
G1 X66.585 Y40.881 E0.00432
G1 X67.839 Y40.242 E0.02529
G1 X68.063 Y40.152 E0.00433
G1 X68.345 Y40.084 E0.00523
G1 X69.931 Y39.835 E0.02884
G1 X179.961 Y39.829 E1.97736
G1 X180.226 Y39.851 E0.00478
G1 X181.654 Y40.076 E0.02597
G1 X181.886 Y40.135 E0.00430
G1 X182.157 Y40.246 E0.00527
G1 X183.413 Y40.880 E0.02528
G1 X183.558 Y40.969 E0.00306
G1 X183.842 Y41.192 E0.00649
G1 X184.833 Y42.190 E0.02527
G1 X185.021 Y42.412 E0.00523
G1 X185.149 Y42.615 E0.00431
G1 X185.787 Y43.870 E0.02530
G1 X185.911 Y44.206 E0.00644
G1 X185.952 Y44.375 E0.00312
G1 X186.177 Y45.802 E0.02597
G1 X186.199 Y46.068 E0.00479
G1 X186.201 Y155.990 E1.97542
G1 X186.178 Y156.256 E0.00479
G1 X185.954 Y157.684 E0.02599
G1 X185.894 Y157.921 E0.00438
G1 X185.784 Y158.187 E0.00518
G1 X185.145 Y159.440 E0.02528
G1 X184.993 Y159.688 E0.00523
G1 X184.838 Y159.872 E0.00432
G1 X183.841 Y160.863 E0.02527
G1 X183.619 Y161.052 E0.00524
G1 X183.415 Y161.179 E0.00432
G1 X182.161 Y161.818 E0.02529
G1 X181.969 Y161.898 E0.00374
G1 X181.654 Y161.977 E0.00582
G1 X180.227 Y162.207 E0.02598
G1 X179.962 Y162.229 E0.00479
G1 X70.040 Y162.231 E1.97541
G1 X69.775 Y162.208 E0.00479
G1 X68.347 Y161.978 E0.02598
G1 X68.062 Y161.909 E0.00528
G1 X67.841 Y161.820 E0.00428
G1 X66.590 Y161.176 E0.02528
G1 X66.339 Y161.022 E0.00530
G1 X66.158 Y160.869 E0.00426
G1 X65.167 Y159.871 E0.02528
G1 X64.978 Y159.648 E0.00524
G1 X64.851 Y159.445 E0.00431
G1 X64.212 Y158.191 E0.02528
G1 X64.122 Y157.967 E0.00433
G1 X64.054 Y157.685 E0.00581
G1 X63.824 Y156.257 E0.02891
G1 X63.801 Y155.992 E0.00533
G1 X63.802 Y46.004 E2.19922
M73 Q1 S143
M73 P1 R142
M204 S1000
;BEFORE_LAYER_CHANGE
G92 E0.0
;0.4


G1 F8640
G1 X64.052 Y44.378 E-0.38000
G1 X64.132 Y44.060 E-0.07570
G1 X64.211 Y43.872 E-0.04714
G1 X64.720 Y42.881 E-0.25717
G1 E-0.04000 F2100.00000
G1 Z0.800 F10800.000
;AFTER_LAYER_CHANGE
;0.4
M140 S90 ; set bed temperature
G1 X67.157 Y34.638
G1 Z0.400
G1 E0.80000 F2100.00000
G1 F3000
G1 X69.835 Y34.269 E0.08475
G1 X180.004 Y34.264 E3.45429
G1 X180.906 Y34.326 E0.02833
G1 X182.730 Y34.614 E0.05789
G1 X184.153 Y35.042 E0.04660
G1 X186.287 Y36.110 E0.07482
G1 X187.680 Y37.158 E0.05468
G1 X189.000 Y38.487 E0.05872
G1 X189.705 Y39.417 E0.03658
G1 X190.836 Y41.523 E0.07495
G1 X191.387 Y43.165 E0.05433
G1 X191.754 Y45.714 E0.08074
G1 X191.765 Y156.135 E3.46215
G1 X191.414 Y158.774 E0.08348
G1 X190.995 Y160.165 E0.04555
G1 X189.945 Y162.275 E0.07390
G1 X188.999 Y163.574 E0.05038
G1 X187.196 Y165.311 E0.07850
G1 X186.224 Y165.987 E0.03713
G1 X184.494 Y166.873 E0.06095
G1 X182.816 Y167.428 E0.05542
G1 X180.944 Y167.728 E0.05943
G1 X180.054 Y167.795 E0.02800
G1 X69.895 Y167.795 E3.45393
G1 X67.254 Y167.444 E0.08355
G1 X65.867 Y167.026 E0.04542
G1 X63.754 Y165.975 E0.07398
G1 X62.454 Y165.027 E0.05047
G1 X60.715 Y163.222 E0.07857
G1 X60.043 Y162.254 E0.03693
G1 X59.157 Y160.525 E0.06094
G1 X58.608 Y158.864 E0.05483
G1 X58.303 Y156.980 E0.05986
G1 X58.236 Y156.084 E0.02818
G1 X58.235 Y45.925 E3.45394
G1 X58.586 Y43.287 E0.08345
G1 X59.004 Y41.897 E0.04551
G1 X60.055 Y39.785 E0.07397
G1 X61.001 Y38.487 E0.05037
G1 X62.805 Y36.748 E0.07856
G1 X63.773 Y36.076 E0.03693
G1 X65.486 Y35.196 E0.06039
G1 X67.100 Y34.657 E0.05335
G1 X67.219 Y35.013 F10800.000
G1 F3000
G1 X69.856 Y34.645 E0.08348
G1 X180.004 Y34.641 E3.45362
G1 X180.862 Y34.701 E0.02697
G1 X182.660 Y34.984 E0.05708
G1 X184.019 Y35.394 E0.04448
G1 X186.091 Y36.432 E0.07267
G1 X187.418 Y37.430 E0.05206
G1 X188.719 Y38.739 E0.05788
G1 X189.396 Y39.634 E0.03520
G1 X190.496 Y41.685 E0.07295
G1 X191.020 Y43.249 E0.05172
G1 X191.378 Y45.747 E0.07913
G1 X191.388 Y156.125 E3.46083
G1 X191.043 Y158.704 E0.08157
G1 X190.642 Y160.031 E0.04348
G1 X189.622 Y162.081 E0.07179
G1 X188.712 Y163.329 E0.04842
G1 X186.971 Y165.009 E0.07587
G1 X186.036 Y165.660 E0.03572
G1 X184.333 Y166.533 E0.06001
G1 X182.739 Y167.059 E0.05261
G1 X180.047 Y167.418 E0.08516
G1 X69.905 Y167.418 E3.45342
G1 X67.324 Y167.073 E0.08165
G1 X66.000 Y166.674 E0.04335
G1 X63.949 Y165.652 E0.07186
G1 X62.703 Y164.744 E0.04835
G1 X61.021 Y163.000 E0.07595
G1 X60.368 Y162.062 E0.03585
G1 X59.498 Y160.363 E0.05984
G1 X58.976 Y158.783 E0.05218
G1 X58.677 Y156.936 E0.05868
G1 X58.613 Y156.077 E0.02699
G1 X58.612 Y45.935 E3.45343
G1 X58.957 Y43.357 E0.08155
G1 X59.357 Y42.031 E0.04343
G1 X60.378 Y39.979 E0.07185
G1 X61.288 Y38.732 E0.04841
G1 X63.031 Y37.050 E0.07594
G1 X63.965 Y36.400 E0.03569
G1 X65.653 Y35.535 E0.05948
G1 X67.162 Y35.032 E0.04986
; PURGING FINISHED
G1 F8640
G1 X69.856 Y34.645 E-0.62841
G1 X70.426 Y34.645 E-0.13159
G1 E-0.04000 F2100.00000
G1 Z1.000 F10800.000
G1 X68.164 Y40.489
G1 Z0.400
G1 E0.80000 F2100.00000
M204 S800
G1 F2700
G1 X69.948 Y40.199 E0.06118
G1 X180.082 Y40.200 E3.72790
G1 X181.834 Y40.488 E0.06012
G1 X183.405 Y41.288 E0.05968
G1 X184.741 Y42.625 E0.06396
G1 X185.561 Y44.257 E0.06184
G1 X185.831 Y45.980 E0.05903
G1 X185.833 Y156.079 E3.72671
G1 X185.563 Y157.803 E0.05908
G1 X184.704 Y159.487 E0.06400
G1 X183.405 Y160.771 E0.06180
G1 X181.836 Y161.571 E0.05962
G1 X180.052 Y161.861 E0.06118
G1 X69.950 Y161.863 E3.72683
G1 X68.164 Y161.572 E0.06124
G1 X66.541 Y160.733 E0.06184
G1 X65.259 Y159.435 E0.06176
G1 X64.459 Y157.866 E0.05961
G1 X64.169 Y156.082 E0.06117
G1 X64.167 Y45.980 E3.72684
G1 X64.458 Y44.195 E0.06123
G1 X65.297 Y42.571 E0.06185
G1 X66.595 Y41.289 E0.06176
G1 X68.111 Y40.516 E0.05759
M204 S1000
G1 X68.292 Y40.881 F10800.000
M204 S800
G1 F2100
G1 X69.981 Y40.606 E0.05791
G1 X180.048 Y40.607 E3.72566
G1 X181.706 Y40.879 E0.05686
G1 X183.163 Y41.621 E0.05535
G1 X184.407 Y42.866 E0.05956
G1 X185.169 Y44.383 E0.05746
G1 X185.424 Y46.012 E0.05580
G1 X185.426 Y156.047 E3.72456
G1 X185.171 Y157.676 E0.05581
G1 X184.371 Y159.244 E0.05959
G1 X183.164 Y160.437 E0.05744
G1 X181.708 Y161.179 E0.05533
G1 X180.019 Y161.454 E0.05791
G1 X69.983 Y161.456 E3.72460
G1 X68.293 Y161.181 E0.05793
G1 X66.786 Y160.401 E0.05746
G1 X65.593 Y159.194 E0.05743
G1 X64.851 Y157.738 E0.05532
G1 X64.576 Y156.049 E0.05791
G1 X64.574 Y46.013 E3.72461
G1 X64.849 Y44.324 E0.05792
G1 X65.629 Y42.816 E0.05748
G1 X66.836 Y41.623 E0.05743
G1 X68.239 Y40.908 E0.05329
M204 S1000
G1 X68.374 Y40.489 F10800.000
G1 F8640
G1 X69.981 Y40.606 E-0.40824
G1 X71.504 Y40.606 E-0.35176
G1 E-0.04000 F2100.00000
G1 Z1.000 F10800.000
G1 X65.916 Y40.913
G1 Z0.400
G1 E0.80000 F2100.00000
M204 S800
G1 F2700
G1 X66.393 Y40.567 E0.01992
G1 X67.698 Y39.901 E0.04959
G1 X68.258 Y39.719 E0.01993
G1 X69.729 Y39.486 E0.05041
G1 X70.023 Y39.463 E0.01000
G1 X179.975 Y39.462 E3.72173
G1 X180.259 Y39.484 E0.00965
G1 X181.740 Y39.718 E0.05075
G1 X182.300 Y39.900 E0.01994
G1 X183.606 Y40.565 E0.04959
G1 X184.082 Y40.911 E0.01993
