; generated by Slic3r Prusa Edition 1.41.0 on 2018-10-28 at 18:10:21

; 

; external perimeters extrusion width = 0.45mm
; perimeters extrusion width = 0.45mm
; infill extrusion width = 0.45mm
; solid infill extrusion width = 0.45mm
; top infill extrusion width = 0.40mm
; first layer extrusion width = 0.42mm

M201 X1000 Y1000 Z1000 E5000 ; sets maximum accelerations, mm/sec^2
M203 X200 Y200 Z12 E120 ; sets maximum feedrates, mm/sec
M204 P1250 R1250 T1250 ; sets acceleration (P, T) and retract acceleration (R), mm/sec^2
M205 X8.00 Y8.00 Z0.40 E1.50 ; sets the jerk limits, mm/sec
M205 S0 T0 ; sets the minimum extruding and travel feed rate, mm/sec
M107
M115 U3.4.0 ; tell printer latest fw version
M83  ; extruder relative mode
M104 S140 ; set extruder to warm-up temp
M140 S80 ; set bed temp
M190 S80 ; wait for bed temp
G28 W ; home all without mesh bed level
G80 ; mesh bed leveling
M104 S245 ; set extruder temp
M109 S245 ; wait for extruder temp
G1 Y-3.0 F1000.0 ; go outside print area
G92 E0.0
G1 X60.0 E9.0  F1000.0 ; intro line
M73 Q0 S161
M73 P0 R158
G1 X100.0 E12.5  F1000.0 ; intro line
G92 E0.0
M221 S95
M900 K45; Filament gcode
G21 ; set units to millimeters
G90 ; use absolute coordinates
M83 ; use relative distances for extrusion
;BEFORE_LAYER_CHANGE
G92 E0.0
;0.2


G1 E-0.80000 F2100.00000
G1 Z0.600 F10800.000
;AFTER_LAYER_CHANGE
;0.2
G1 X60.055 Y36.808
G1 Z0.200
G1 E0.80000 F2100.00000
M204 S20
G1 F1800
G1 X61.002 Y35.509 E0.05039
G1 X62.805 Y33.771 E0.07852
G1 X63.776 Y33.096 E0.03707
G1 X65.489 Y32.219 E0.06034
G1 X67.155 Y31.661 E0.05511
G1 X69.840 Y31.291 E0.08497
G1 X180.005 Y31.287 E3.45414
G1 X180.924 Y31.351 E0.02889
G1 X182.728 Y31.637 E0.05729
G1 X184.155 Y32.066 E0.04672
G1 X186.285 Y33.132 E0.07468
G1 X187.678 Y34.179 E0.05464
G1 X189.001 Y35.512 E0.05886
G1 X189.704 Y36.440 E0.03653
G1 X190.836 Y38.546 E0.07497
G1 X191.387 Y40.184 E0.05419
G1 X191.754 Y42.734 E0.08075
G1 X191.765 Y153.158 E3.46229
G1 X191.413 Y155.798 E0.08348
G1 X190.995 Y157.189 E0.04556
G1 X189.947 Y159.294 E0.07374
G1 X188.999 Y160.598 E0.05055
G1 X187.192 Y162.338 E0.07866
G1 X186.223 Y163.011 E0.03696
G1 X184.494 Y163.897 E0.06093
G1 X182.815 Y164.452 E0.05544
G1 X180.944 Y164.752 E0.05942
G1 X180.053 Y164.818 E0.02800
G1 X69.895 Y164.818 E3.45393
G1 X67.257 Y164.467 E0.08345
G1 X65.866 Y164.049 E0.04552
G1 X63.754 Y162.998 E0.07398
G1 X62.453 Y162.050 E0.05047
G1 X60.715 Y160.244 E0.07858
G1 X60.043 Y159.277 E0.03693
G1 X59.157 Y157.548 E0.06094
G1 X58.603 Y155.875 E0.05524
G1 X58.301 Y153.998 E0.05962
G1 X58.236 Y153.116 E0.02771
G1 X58.235 Y42.949 E3.45422
G1 X58.587 Y40.309 E0.08351
G1 X59.004 Y38.920 E0.04546
G1 X60.028 Y36.861 E0.07211
M204 S1000
G1 X60.365 Y37.029 F10800.000
M204 S20
G1 F1800
G1 X61.289 Y35.754 E0.04935
G1 X63.030 Y34.073 E0.07590
G1 X63.964 Y33.423 E0.03567
G1 X65.651 Y32.559 E0.05942
G1 X67.243 Y32.028 E0.05263
G1 X69.856 Y31.668 E0.08270
G1 X180.004 Y31.664 E3.45363
G1 X180.880 Y31.726 E0.02752
G1 X182.659 Y32.008 E0.05648
G1 X184.016 Y32.417 E0.04444
G1 X186.089 Y33.454 E0.07269
G1 X187.420 Y34.454 E0.05218
G1 X188.720 Y35.763 E0.05785
G1 X189.399 Y36.661 E0.03531
G1 X190.496 Y38.708 E0.07281
G1 X191.020 Y40.273 E0.05176
G1 X191.379 Y42.772 E0.07914
G1 X191.388 Y153.149 E3.46080
G1 X191.043 Y155.728 E0.08157
G1 X190.642 Y157.055 E0.04348
G1 X189.621 Y159.105 E0.07179
G1 X188.712 Y160.353 E0.04842
G1 X186.971 Y162.033 E0.07587
G1 X186.031 Y162.686 E0.03588
G1 X184.333 Y163.556 E0.05984
G1 X182.739 Y164.083 E0.05263
G1 X180.047 Y164.441 E0.08515
G1 X69.905 Y164.441 E3.45343
G1 X67.327 Y164.097 E0.08155
G1 X66.000 Y163.697 E0.04344
G1 X63.948 Y162.675 E0.07186
G1 X62.702 Y161.767 E0.04835
G1 X61.021 Y160.023 E0.07595
G1 X60.367 Y159.085 E0.03585
G1 X59.497 Y157.386 E0.05984
G1 X58.971 Y155.793 E0.05260
G1 X58.613 Y153.110 E0.08489
G1 X58.612 Y42.958 E3.45371
G1 X58.957 Y40.379 E0.08161
G1 X59.358 Y39.049 E0.04354
G1 X60.338 Y37.083 E0.06889
M204 S1000
; PURGING FINISHED
G1 F8640
G1 X61.289 Y35.754 E-0.37712
G1 X62.482 Y34.603 E-0.38288
G1 E-0.04000 F2100.00000
G1 Z0.800 F10800.000
G1 X64.409 Y41.193
G1 Z0.200
G1 E0.80000 F2100.00000
M204 S20
G1 F1800
G1 X65.258 Y39.556 E0.05783
G1 X66.570 Y38.263 E0.05772
G1 X68.141 Y37.463 E0.05528
G1 X69.947 Y37.166 E0.05739
G1 X180.050 Y37.165 E3.45222
G1 X181.731 Y37.430 E0.05335
G1 X181.897 Y37.481 E0.00544
G1 X183.498 Y38.313 E0.05657
G1 X184.790 Y39.623 E0.05769
G1 X185.568 Y41.151 E0.05375
G1 X185.622 Y41.314 E0.00538
G1 X185.887 Y43.005 E0.05367
G1 X185.888 Y153.102 E3.45202
G1 X185.617 Y154.837 E0.05505
G1 X184.743 Y156.550 E0.06031
G1 X183.431 Y157.843 E0.05776
G1 X181.860 Y158.644 E0.05528
G1 X180.052 Y158.940 E0.05743
G1 X69.949 Y158.941 E3.45222
G1 X68.139 Y158.644 E0.05750
G1 X66.502 Y157.795 E0.05782
G1 X65.210 Y156.484 E0.05773
G1 X64.410 Y154.913 E0.05525
G1 X64.113 Y153.106 E0.05743
G1 X64.112 Y43.003 E3.45220
G1 X64.399 Y41.252 E0.05563
M204 S1000
G1 X64.771 Y41.313 F10800.000
M204 S20
G1 F1800
G1 X65.566 Y39.782 E0.05407
G1 X66.793 Y38.573 E0.05402
G1 X68.259 Y37.825 E0.05162
G1 X69.977 Y37.544 E0.05458
G1 X180.021 Y37.543 E3.45033
G1 X181.646 Y37.798 E0.05158
G1 X181.753 Y37.831 E0.00353
G1 X183.271 Y38.620 E0.05364
G1 X184.480 Y39.846 E0.05400
M73 Q0 S160
G1 X185.219 Y41.297 E0.05105
M73 P0 R157
G1 X185.255 Y41.403 E0.00351
G1 X185.509 Y43.034 E0.05175
G1 X185.510 Y153.073 E3.45018
G1 X185.253 Y154.719 E0.05224
G1 X184.434 Y156.324 E0.05651
G1 X183.208 Y157.534 E0.05402
G1 X181.741 Y158.281 E0.05161
G1 X180.022 Y158.563 E0.05463
G1 X69.980 Y158.564 E3.45029
G1 X68.259 Y158.282 E0.05466
G1 X66.729 Y157.488 E0.05406
G1 X65.519 Y156.261 E0.05403
G1 X64.772 Y154.795 E0.05159
G1 X64.490 Y153.075 E0.05463
G1 X64.489 Y43.034 E3.45028
G1 X64.762 Y41.372 E0.05279
M204 S1000
G1 X64.505 Y41.014 F10800.000
G1 F8640
G1 X65.566 Y39.782 E-0.41138
G1 X66.641 Y38.723 E-0.34862
G1 E-0.04000 F2100.00000
G1 Z0.800 F10800.000
G1 X64.582 Y39.476
G1 Z0.200
G1 E0.80000 F2100.00000
M204 S20
G1 F1800
G1 X64.923 Y39.008 E0.01817
G1 X65.953 Y37.977 E0.04568
G1 X66.422 Y37.636 E0.01819
G1 X67.719 Y36.976 E0.04565
G1 X68.271 Y36.796 E0.01820
G1 X69.736 Y36.564 E0.04649
G1 X70.026 Y36.541 E0.00913
G1 X179.973 Y36.540 E3.44730
G1 X180.263 Y36.563 E0.00912
G1 X181.727 Y36.795 E0.04649
G1 X182.280 Y36.975 E0.01821
G1 X183.577 Y37.635 E0.04566
G1 X184.047 Y37.976 E0.01819
G1 X185.076 Y39.006 E0.04567
G1 X185.417 Y39.475 E0.01816
G1 X186.078 Y40.773 E0.04567
G1 X186.257 Y41.325 E0.01821
G1 X186.490 Y42.789 E0.04648
G1 X186.512 Y43.080 E0.00915
G1 X186.513 Y153.026 E3.44727
G1 X186.491 Y153.316 E0.00913
G1 X186.258 Y154.781 E0.04650
G1 X186.079 Y155.333 E0.01820
G1 X185.418 Y156.631 E0.04567
G1 X185.077 Y157.100 E0.01818
G1 X184.048 Y158.130 E0.04565
G1 X183.579 Y158.471 E0.01819
G1 X182.281 Y159.132 E0.04566
G1 X181.729 Y159.311 E0.01820
G1 X180.264 Y159.543 E0.04651
G1 X179.974 Y159.566 E0.00913
G1 X70.028 Y159.567 E3.44728
G1 X69.737 Y159.544 E0.00913
G1 X68.272 Y159.312 E0.04651
G1 X67.720 Y159.133 E0.01819
G1 X66.423 Y158.472 E0.04566
G1 X65.954 Y158.131 E0.01819
G1 X64.924 Y157.101 E0.04566
G1 X64.583 Y156.632 E0.01819
G1 X63.922 Y155.334 E0.04566
G1 X63.742 Y154.782 E0.01819
G1 X63.510 Y153.317 E0.04651
G1 X63.488 Y153.027 E0.00913
G1 X63.487 Y43.081 E3.44727
G1 X63.509 Y42.790 E0.00915
G1 X63.741 Y41.326 E0.04649
G1 X63.921 Y40.774 E0.01820
G1 X64.554 Y39.530 E0.04378
M204 S1000
G1 X64.218 Y39.359 F10800.000
M204 S20
G1 F1800
G1 X64.635 Y38.762 E0.02282
G1 X65.707 Y37.689 E0.04754
G1 X66.224 Y37.314 E0.02005
G1 X67.575 Y36.626 E0.04751
G1 X68.183 Y36.428 E0.02006
G1 X69.692 Y36.189 E0.04790
G1 X70.011 Y36.164 E0.01006
G1 X179.987 Y36.163 E3.44822
G1 X180.307 Y36.188 E0.01005
G1 X181.816 Y36.427 E0.04789
G1 X182.424 Y36.625 E0.02007
G1 X183.775 Y37.312 E0.04752
G1 X184.292 Y37.688 E0.02005
G1 X185.364 Y38.761 E0.04753
G1 X185.739 Y39.277 E0.02002
G1 X186.427 Y40.628 E0.04753
G1 X186.625 Y41.237 E0.02006
G1 X186.864 Y42.745 E0.04788
G1 X186.889 Y43.066 E0.01008
G1 X186.890 Y153.041 E3.44820
G1 X186.865 Y153.361 E0.01006
G1 X186.626 Y154.870 E0.04790
G1 X186.428 Y155.478 E0.02006
G1 X185.740 Y156.828 E0.04752
G1 X185.365 Y157.346 E0.02004
G1 X184.294 Y158.417 E0.04751
G1 X183.776 Y158.793 E0.02005
G1 X182.426 Y159.481 E0.04752
G1 X181.817 Y159.679 E0.02006
G1 X180.308 Y159.918 E0.04790
G1 X179.988 Y159.943 E0.01005
G1 X70.013 Y159.944 E3.44821
G1 X69.693 Y159.919 E0.01006
G1 X68.184 Y159.680 E0.04790
G1 X67.576 Y159.482 E0.02005
G1 X66.225 Y158.794 E0.04752
G1 X65.708 Y158.418 E0.02005
G1 X64.636 Y157.347 E0.04752
G1 X64.260 Y156.829 E0.02005
G1 X63.572 Y155.479 E0.04752
G1 X63.375 Y154.871 E0.02005
G1 X63.136 Y153.362 E0.04790
G1 X63.110 Y153.042 E0.01006
G1 X63.109 Y43.067 E3.44820
G1 X63.135 Y42.746 E0.01008
G1 X63.374 Y41.238 E0.04789
G1 X63.571 Y40.629 E0.02006
G1 X64.191 Y39.412 E0.04283
M204 S1000
G1 X64.618 Y39.368 F10800.000
G1 F8640
G1 X64.635 Y38.762 E-0.18178
G1 X65.707 Y37.689 E-0.35007
G1 X66.224 Y37.314 E-0.14766
G1 X66.535 Y37.155 E-0.08049
G1 E-0.04000 F2100.00000
G1 Z0.800 F10800.000
G1 X63.805 Y42.968
G1 Z0.200
G1 E0.80000 F2100.00000
M204 S20
G1 F1800
G1 X64.052 Y41.401 E0.02852
G1 X64.132 Y41.083 E0.00589
G1 X64.211 Y40.894 E0.00368
G1 X64.854 Y39.643 E0.02527
G1 X65.009 Y39.393 E0.00530
G1 X65.161 Y39.212 E0.00425
G1 X66.160 Y38.220 E0.02529
G1 X66.382 Y38.032 E0.00523
G1 X66.586 Y37.904 E0.00432
G1 X67.839 Y37.265 E0.02528
G1 X68.064 Y37.175 E0.00434
G1 X68.346 Y37.106 E0.00522
G1 X69.931 Y36.858 E0.02884
G1 X179.961 Y36.853 E1.97734
G1 X180.226 Y36.875 E0.00479
G1 X181.654 Y37.100 E0.02598
G1 X182.002 Y37.199 E0.00650
G1 X182.160 Y37.265 E0.00307
G1 X183.410 Y37.908 E0.02528
G1 X183.661 Y38.063 E0.00530
G1 X183.842 Y38.215 E0.00425
G1 X184.833 Y39.214 E0.02528
G1 X185.021 Y39.436 E0.00523
G1 X185.149 Y39.639 E0.00431
G1 X185.788 Y40.893 E0.02529
G1 X185.912 Y41.233 E0.00651
G1 X185.952 Y41.398 E0.00305
G1 X186.177 Y42.826 E0.02598
G1 X186.199 Y43.092 E0.00480
G1 X186.200 Y153.014 E1.97540
G1 X186.178 Y153.279 E0.00479
G1 X185.953 Y154.708 E0.02599
G1 X185.894 Y154.944 E0.00438
G1 X185.783 Y155.211 E0.00518
G1 X185.145 Y156.464 E0.02528
G1 X184.993 Y156.712 E0.00523
G1 X184.838 Y156.896 E0.00432
G1 X183.840 Y157.887 E0.02527
G1 X183.618 Y158.075 E0.00524
G1 X183.415 Y158.203 E0.00432
G1 X182.161 Y158.842 E0.02529
G1 X181.968 Y158.921 E0.00374
G1 X181.654 Y159.000 E0.00582
G1 X180.227 Y159.230 E0.02598
G1 X179.961 Y159.253 E0.00479
G1 X70.040 Y159.254 E1.97540
G1 X69.774 Y159.231 E0.00479
G1 X68.347 Y159.001 E0.02598
G1 X68.061 Y158.932 E0.00528
G1 X67.841 Y158.843 E0.00428
G1 X66.590 Y158.199 E0.02528
G1 X66.339 Y158.044 E0.00530
G1 X66.158 Y157.892 E0.00426
G1 X65.167 Y156.894 E0.02528
G1 X64.978 Y156.671 E0.00524
G1 X64.851 Y156.468 E0.00431
G1 X64.212 Y155.214 E0.02528
G1 X64.122 Y154.990 E0.00433
G1 X64.053 Y154.708 E0.00582
G1 X63.823 Y153.280 E0.02891
G1 X63.800 Y153.015 E0.00533
G1 X63.802 Y43.028 E2.19944
M73 Q1 S159
M73 P1 R156
M204 S1000
;BEFORE_LAYER_CHANGE
G92 E0.0
;0.4


G1 F8640
G1 X64.052 Y41.401 E-0.38020
G1 X64.132 Y41.083 E-0.07563
G1 X64.211 Y40.894 E-0.04725
G1 X64.720 Y39.905 E-0.25692
G1 E-0.04000 F2100.00000
G1 Z0.800 F10800.000
;AFTER_LAYER_CHANGE
;0.4
M140 S90 ; set bed temperature
G1 X67.155 Y31.661
G1 Z0.400
G1 E0.80000 F2100.00000
G1 F3000
G1 X69.840 Y31.291 E0.08497
G1 X180.005 Y31.287 E3.45414
G1 X180.924 Y31.351 E0.02889
G1 X182.728 Y31.637 E0.05729
G1 X184.155 Y32.066 E0.04672
G1 X186.285 Y33.132 E0.07468
G1 X187.678 Y34.179 E0.05464
G1 X189.001 Y35.512 E0.05886
G1 X189.704 Y36.440 E0.03653
G1 X190.836 Y38.546 E0.07497
G1 X191.387 Y40.184 E0.05419
G1 X191.754 Y42.734 E0.08075
G1 X191.765 Y153.158 E3.46229
G1 X191.413 Y155.798 E0.08348
G1 X190.995 Y157.189 E0.04556
G1 X189.947 Y159.294 E0.07374
G1 X188.999 Y160.598 E0.05055
G1 X187.192 Y162.338 E0.07866
G1 X186.223 Y163.011 E0.03696
G1 X184.494 Y163.897 E0.06093
G1 X182.815 Y164.452 E0.05544
G1 X180.944 Y164.752 E0.05942
G1 X180.053 Y164.818 E0.02800
G1 X69.895 Y164.818 E3.45393
G1 X67.257 Y164.467 E0.08345
G1 X65.866 Y164.049 E0.04552
G1 X63.754 Y162.998 E0.07398
G1 X62.453 Y162.050 E0.05047
G1 X60.715 Y160.244 E0.07858
G1 X60.043 Y159.277 E0.03693
G1 X59.157 Y157.548 E0.06094
G1 X58.603 Y155.875 E0.05524
G1 X58.301 Y153.998 E0.05962
G1 X58.236 Y153.116 E0.02771
G1 X58.235 Y42.949 E3.45422
G1 X58.587 Y40.309 E0.08351
G1 X59.004 Y38.920 E0.04546
G1 X60.055 Y36.808 E0.07399
G1 X61.002 Y35.509 E0.05039
G1 X62.805 Y33.771 E0.07852
G1 X63.776 Y33.096 E0.03707
G1 X65.489 Y32.219 E0.06034
G1 X67.098 Y31.680 E0.05323
G1 X67.217 Y32.036 F10800.000
G1 F3000
G1 X69.856 Y31.668 E0.08354
G1 X180.004 Y31.664 E3.45363
G1 X180.880 Y31.726 E0.02752
G1 X182.659 Y32.008 E0.05648
G1 X184.016 Y32.417 E0.04444
G1 X186.089 Y33.454 E0.07269
G1 X187.420 Y34.454 E0.05218
G1 X188.720 Y35.763 E0.05785
G1 X189.399 Y36.661 E0.03531
G1 X190.496 Y38.708 E0.07281
G1 X191.020 Y40.273 E0.05176
G1 X191.379 Y42.772 E0.07914
G1 X191.388 Y153.149 E3.46080
G1 X191.043 Y155.728 E0.08157
G1 X190.642 Y157.055 E0.04348
G1 X189.621 Y159.105 E0.07179
G1 X188.712 Y160.353 E0.04842
G1 X186.971 Y162.033 E0.07587
G1 X186.031 Y162.686 E0.03588
G1 X184.333 Y163.556 E0.05984
G1 X182.739 Y164.083 E0.05263
G1 X180.047 Y164.441 E0.08515
G1 X69.905 Y164.441 E3.45343
G1 X67.327 Y164.097 E0.08155
G1 X66.000 Y163.697 E0.04344
G1 X63.948 Y162.675 E0.07186
G1 X62.702 Y161.767 E0.04835
G1 X61.021 Y160.023 E0.07595
G1 X60.367 Y159.085 E0.03585
G1 X59.497 Y157.386 E0.05984
G1 X58.971 Y155.793 E0.05260
G1 X58.613 Y153.110 E0.08489
G1 X58.612 Y42.958 E3.45371
G1 X58.957 Y40.379 E0.08161
G1 X59.358 Y39.049 E0.04354
G1 X60.381 Y36.998 E0.07187
G1 X61.289 Y35.754 E0.04826
G1 X63.030 Y34.073 E0.07590
G1 X63.964 Y33.423 E0.03567
G1 X65.651 Y32.559 E0.05942
G1 X67.160 Y32.055 E0.04990
; PURGING FINISHED
G1 F8640
G1 X69.856 Y31.668 E-0.62881
G1 X70.424 Y31.668 E-0.13119
G1 E-0.04000 F2100.00000
G1 Z1.000 F10800.000
G1 X68.165 Y37.512
G1 Z0.400
G1 E0.80000 F2100.00000
M204 S800
G1 F2700
G1 X69.948 Y37.221 E0.06117
G1 X180.082 Y37.224 E3.72790
G1 X181.835 Y37.511 E0.06011
G1 X183.406 Y38.312 E0.05968
G1 X184.742 Y39.648 E0.06396
G1 X185.561 Y41.281 E0.06184
G1 X185.830 Y42.972 E0.05794
G1 X185.833 Y153.102 E3.72778
G1 X185.562 Y154.827 E0.05909
G1 X184.703 Y156.511 E0.06400
G1 X183.405 Y157.795 E0.06180
G1 X181.836 Y158.594 E0.05962
G1 X180.052 Y158.885 E0.06118
G1 X69.949 Y158.886 E3.72683
G1 X68.164 Y158.595 E0.06124
G1 X66.541 Y157.756 E0.06184
G1 X65.259 Y156.458 E0.06176
G1 X64.459 Y154.889 E0.05961
G1 X64.168 Y153.105 E0.06117
G1 X64.167 Y43.003 E3.72682
G1 X64.458 Y41.217 E0.06125
G1 X65.297 Y39.594 E0.06184
G1 X66.595 Y38.312 E0.06175
G1 X68.111 Y37.539 E0.05759
M204 S1000
G1 X68.293 Y37.904 F10800.000
M204 S800
G1 F2100
G1 X69.981 Y37.629 E0.05790
G1 X180.049 Y37.631 E3.72566
G1 X181.706 Y37.903 E0.05685
G1 X183.163 Y38.645 E0.05536
G1 X184.407 Y39.890 E0.05955
G1 X185.169 Y41.407 E0.05748
G1 X185.422 Y43.004 E0.05472
G1 X185.425 Y153.070 E3.72562
G1 X185.170 Y154.700 E0.05582
G1 X184.370 Y156.268 E0.05959
G1 X183.164 Y157.461 E0.05744
G1 X181.707 Y158.203 E0.05533
G1 X180.019 Y158.478 E0.05791
G1 X69.982 Y158.479 E3.72460
G1 X68.293 Y158.204 E0.05793
G1 X66.785 Y157.424 E0.05746
G1 X65.593 Y156.217 E0.05743
G1 X64.851 Y154.761 E0.05532
G1 X64.575 Y153.072 E0.05791
G1 X64.574 Y43.036 E3.72459
G1 X64.850 Y41.347 E0.05794
G1 X65.629 Y39.839 E0.05747
G1 X66.836 Y38.646 E0.05743
G1 X68.239 Y37.931 E0.05330
M204 S1000
G1 X68.375 Y37.512 F10800.000
G1 F8640
G1 X69.981 Y37.629 E-0.40821
G1 X71.505 Y37.629 E-0.35179
G1 E-0.04000 F2100.00000
G1 Z1.000 F10800.000
G1 X68.258 Y36.742
G1 Z0.400
G1 E0.80000 F2100.00000
M204 S800
G1 F2700
G1 X69.729 Y36.509 E0.05041
G1 X70.024 Y36.486 E0.01000
G1 X179.975 Y36.485 E3.72170
G1 X180.259 Y36.507 E0.00965
G1 X181.740 Y36.741 E0.05076
G1 X182.301 Y36.924 E0.01995
G1 X183.606 Y37.588 E0.04958
G1 X184.066 Y37.922 E0.01925
G1 X185.119 Y38.971 E0.05028
G1 X185.464 Y39.446 E0.01988
G1 X186.129 Y40.752 E0.04959
G1 X186.311 Y41.312 E0.01995
G1 X186.544 Y42.783 E0.05040
