; generated by Slic3r Prusa Edition 1.41.0 on 2018-10-29 at 21:26:42

; 

; external perimeters extrusion width = 0.45mm
; perimeters extrusion width = 0.45mm
; infill extrusion width = 0.45mm
; solid infill extrusion width = 0.45mm
; top infill extrusion width = 0.40mm
; first layer extrusion width = 0.42mm

M201 X1000 Y1000 Z1000 E5000 ; sets maximum accelerations, mm/sec^2
M203 X200 Y200 Z12 E120 ; sets maximum feedrates, mm/sec
M204 P1250 R1250 T1250 ; sets acceleration (P, T) and retract acceleration (R), mm/sec^2
M205 X8.00 Y8.00 Z0.40 E1.50 ; sets the jerk limits, mm/sec
M205 S0 T0 ; sets the minimum extruding and travel feed rate, mm/sec
M107
M115 U3.4.0 ; tell printer latest fw version
M83  ; extruder relative mode
M104 S140 ; set extruder to warm-up temp
M140 S80 ; set bed temp
M190 S80 ; wait for bed temp
G28 W ; home all without mesh bed level
G80 ; mesh bed leveling
M104 S245 ; set extruder temp
M109 S245 ; wait for extruder temp
G1 Y-3.0 F1000.0 ; go outside print area
G92 E0.0
G1 X60.0 E9.0  F1000.0 ; intro line
M73 Q0 S304
M73 P0 R303
G1 X100.0 E12.5  F1000.0 ; intro line
G92 E0.0
M221 S95
M900 K45; Filament gcode
G21 ; set units to millimeters
G90 ; use absolute coordinates
M83 ; use relative distances for extrusion
;BEFORE_LAYER_CHANGE
G92 E0.0
;0.3


G1 E-0.80000 F2100.00000
G1 Z0.600 F10800.000
;AFTER_LAYER_CHANGE
;0.3
G1 X62.160 Y44.581
G1 Z0.300
G1 E0.80000 F2100.00000
M204 S20
G1 F1800
G1 X63.132 Y43.391 E0.06815
G1 X64.492 Y42.219 E0.07960
G1 X66.286 Y41.220 E0.09108
G1 X67.527 Y40.807 E0.05803
G1 X69.888 Y40.468 E0.10576
G1 X180.005 Y40.467 E4.88425
G1 X182.425 Y40.798 E0.10833
G1 X183.635 Y41.187 E0.05639
G1 X185.445 Y42.177 E0.09151
G1 X186.701 Y43.218 E0.07234
G1 X187.797 Y44.516 E0.07535
G1 X188.780 Y46.287 E0.08985
G1 X189.187 Y47.500 E0.05676
G1 X189.527 Y49.756 E0.10116
G1 X189.532 Y160.105 E4.89454
G1 X189.198 Y162.447 E0.10490
G1 X188.814 Y163.632 E0.05525
G1 X187.841 Y165.418 E0.09023
G1 X186.867 Y166.611 E0.06831
G1 X185.505 Y167.783 E0.07970
G1 X183.692 Y168.789 E0.09194
G1 X182.444 Y169.198 E0.05826
G1 X180.008 Y169.533 E0.10908
G1 X69.895 Y169.532 E4.88404
G1 X67.553 Y169.198 E0.10491
G1 X66.369 Y168.815 E0.05520
G1 X64.581 Y167.840 E0.09031
G1 X63.392 Y166.870 E0.06808
G1 X62.219 Y165.507 E0.07978
G1 X61.211 Y163.693 E0.09201
G1 X60.801 Y162.443 E0.05837
G1 X60.467 Y160.013 E0.10882
G1 X60.468 Y49.895 E4.88425
G1 X60.802 Y47.554 E0.10487
G1 X61.185 Y46.371 E0.05518
G1 X62.132 Y44.633 E0.08777
M204 S1000
G1 X62.443 Y44.803 F10800.000
M204 S20
G1 F1800
G1 X63.398 Y43.627 E0.06722
G1 X64.696 Y42.511 E0.07593
G1 X66.430 Y41.545 E0.08801
G1 X67.606 Y41.154 E0.05496
G1 X69.899 Y40.823 E0.10279
G1 X180.005 Y40.822 E4.88372
G1 X182.358 Y41.147 E0.10534
G1 X183.501 Y41.516 E0.05331
G1 X185.247 Y42.472 E0.08828
G1 X186.457 Y43.477 E0.06977
G1 X187.505 Y44.719 E0.07206
G1 X188.457 Y46.435 E0.08705
G1 X188.840 Y47.580 E0.05353
G1 X189.172 Y49.783 E0.09882
G1 X189.177 Y160.091 E4.89270
G1 X188.849 Y162.378 E0.10249
G1 X188.487 Y163.493 E0.05199
G1 X187.542 Y165.225 E0.08750
G1 X186.605 Y166.371 E0.06568
G1 X185.301 Y167.491 E0.07623
G1 X183.550 Y168.463 E0.08884
G1 X182.372 Y168.850 E0.05498
G1 X180.010 Y169.178 E0.10576
G1 X69.909 Y169.177 E4.88352
G1 X67.622 Y168.849 E0.10249
G1 X66.503 Y168.485 E0.05218
G1 X64.774 Y167.541 E0.08735
G1 X63.628 Y166.604 E0.06568
G1 X62.507 Y165.298 E0.07632
G1 X61.537 Y163.550 E0.08867
G1 X61.149 Y162.371 E0.05507
G1 X60.822 Y160.010 E0.10572
G1 X60.823 Y49.909 E4.88350
G1 X61.151 Y47.622 E0.10246
G1 X61.514 Y46.504 E0.05215
G1 X62.414 Y44.856 E0.08330
M204 S1000
; PURGING FINISHED
G1 F8640
G1 X63.398 Y43.627 E-0.36356
G1 X64.696 Y42.511 E-0.39527
G1 X64.701 Y42.508 E-0.00117
G1 E-0.04000 F2100.00000
G1 Z0.900 F10800.000
G1 X92.724 Y46.334
G1 Z0.300
G1 E0.80000 F2100.00000
M204 S20
G1 F1800
G1 X157.276 Y46.334 E2.86317
G1 X183.666 Y72.724 E1.65536
G1 X183.666 Y137.276 E2.86317
G1 X157.276 Y163.666 E1.65536
G1 X92.724 Y163.666 E2.86317
G1 X66.334 Y137.276 E1.65536
G1 X66.334 Y72.724 E2.86317
G1 X92.682 Y46.377 E1.65270
M204 S1000
G1 X92.872 Y46.690 F10800.000
M204 S20
G1 F1800
G1 X157.128 Y46.690 E2.85010
M73 Q0 S303
G1 X183.310 Y72.872 E1.64230
M73 P0 R302
G1 X183.310 Y137.128 E2.85010
G1 X157.128 Y163.310 E1.64230
G1 X92.872 Y163.310 E2.85010
G1 X66.690 Y137.128 E1.64230
G1 X66.690 Y72.872 E2.85010
G1 X92.829 Y46.732 E1.63964
M204 S1000
G1 X92.909 Y46.292 F10800.000
G1 F8640
G1 X96.121 Y46.730 E-0.76000
G1 E-0.04000 F2100.00000
G1 Z0.900 F10800.000
G1 X66.944 Y46.944
G1 Z0.300
G1 E0.80000 F2100.00000
M204 S20
G1 F1800
G1 X67.151 Y46.806 E0.01103
G1 X67.457 Y46.500 E0.01919
G1 X68.097 Y46.174 E0.03186
G1 X68.346 Y46.008 E0.01329
G1 X68.474 Y45.982 E0.00575
G1 X68.663 Y45.886 E0.00944
G1 X70.052 Y45.666 E0.06238
G1 X179.951 Y45.666 E4.87455
G1 X181.337 Y45.886 E0.06222
G1 X181.527 Y45.982 E0.00945
G1 X181.653 Y46.007 E0.00572
G1 X181.903 Y46.174 E0.01332
G1 X182.543 Y46.500 E0.03185
G1 X182.849 Y46.806 E0.01920
G1 X183.056 Y46.944 E0.01105
G1 X183.194 Y47.151 E0.01100
G1 X183.500 Y47.457 E0.01920
G1 X183.826 Y48.097 E0.03186
G1 X183.993 Y48.348 E0.01336
G1 X184.019 Y48.474 E0.00572
G1 X184.114 Y48.662 E0.00936
G1 X184.334 Y50.052 E0.06243
G1 X184.334 Y159.948 E4.87438
G1 X184.114 Y161.338 E0.06244
G1 X184.019 Y161.526 E0.00936
G1 X183.993 Y161.652 E0.00569
G1 X183.826 Y161.903 E0.01339
G1 X183.500 Y162.543 E0.03184
G1 X183.194 Y162.849 E0.01921
G1 X183.056 Y163.056 E0.01102
G1 X182.849 Y163.194 E0.01102
G1 X182.543 Y163.500 E0.01921
G1 X181.903 Y163.826 E0.03184
G1 X181.652 Y163.993 E0.01339
G1 X181.526 Y164.019 E0.00569
G1 X181.338 Y164.114 E0.00936
G1 X179.948 Y164.334 E0.06244
G1 X70.052 Y164.334 E4.87438
G1 X68.662 Y164.114 E0.06243
G1 X68.474 Y164.019 E0.00936
G1 X68.348 Y163.993 E0.00572
G1 X68.097 Y163.826 E0.01336
G1 X67.457 Y163.500 E0.03186
G1 X67.151 Y163.194 E0.01920
G1 X66.944 Y163.056 E0.01100
G1 X66.806 Y162.849 E0.01105
G1 X66.500 Y162.543 E0.01920
G1 X66.174 Y161.903 E0.03185
G1 X66.007 Y161.653 E0.01332
G1 X65.982 Y161.527 E0.00572
G1 X65.886 Y161.337 E0.00945
G1 X65.666 Y159.948 E0.06240
G1 X65.666 Y50.052 E4.87438
G1 X65.886 Y48.663 E0.06239
G1 X65.982 Y48.474 E0.00944
G1 X66.008 Y48.346 E0.00575
G1 X66.174 Y48.097 E0.01329
G1 X66.500 Y47.457 E0.03186
G1 X66.806 Y47.151 E0.01919
G1 X66.911 Y46.994 E0.00837
M204 S1000
G1 X66.688 Y46.688 F10800.000
M204 S20
G1 F1800
G1 X66.925 Y46.530 E0.01262
G1 X67.246 Y46.209 E0.02014
G1 X67.917 Y45.867 E0.03343
G1 X68.208 Y45.673 E0.01549
G1 X68.356 Y45.643 E0.00671
G1 X68.552 Y45.543 E0.00976
G1 X70.024 Y45.310 E0.06612
G1 X179.979 Y45.311 E4.87704
G1 X181.448 Y45.543 E0.06596
G1 X181.644 Y45.643 E0.00977
G1 X181.792 Y45.673 E0.00667
G1 X182.083 Y45.867 E0.01552
G1 X182.754 Y46.209 E0.03342
G1 X183.075 Y46.530 E0.02014
G1 X183.312 Y46.688 E0.01264
G1 X183.470 Y46.924 E0.01260
G1 X183.791 Y47.245 E0.02014
G1 X184.133 Y47.917 E0.03343
G1 X184.327 Y48.208 E0.01552
G1 X184.358 Y48.356 E0.00670
G1 X184.456 Y48.551 E0.00971
G1 X184.690 Y50.024 E0.06615
G1 X184.690 Y159.976 E4.87686
G1 X184.456 Y161.449 E0.06615
G1 X184.358 Y161.644 E0.00972
G1 X184.327 Y161.791 E0.00666
G1 X184.133 Y162.083 E0.01555
G1 X183.791 Y162.755 E0.03342
G1 X183.470 Y163.076 E0.02014
G1 X183.312 Y163.312 E0.01262
G1 X183.076 Y163.470 E0.01262
G1 X182.755 Y163.791 E0.02014
G1 X182.083 Y164.133 E0.03342
G1 X181.791 Y164.327 E0.01555
G1 X181.644 Y164.358 E0.00666
G1 X181.449 Y164.456 E0.00972
G1 X179.976 Y164.690 E0.06615
G1 X70.024 Y164.690 E4.87686
G1 X68.551 Y164.456 E0.06615
G1 X68.356 Y164.358 E0.00971
G1 X68.208 Y164.327 E0.00670
G1 X67.917 Y164.133 E0.01552
G1 X67.245 Y163.791 E0.03343
G1 X66.924 Y163.470 E0.02014
G1 X66.688 Y163.312 E0.01260
G1 X66.530 Y163.075 E0.01264
G1 X66.209 Y162.754 E0.02014
G1 X65.867 Y162.083 E0.03342
G1 X65.673 Y161.792 E0.01552
G1 X65.643 Y161.644 E0.00667
G1 X65.543 Y161.448 E0.00977
G1 X65.310 Y159.976 E0.06613
G1 X65.310 Y50.024 E4.87687
G1 X65.543 Y48.552 E0.06613
G1 X65.643 Y48.356 E0.00976
G1 X65.673 Y48.208 E0.00671
G1 X65.867 Y47.917 E0.01549
G1 X66.209 Y47.246 E0.03343
G1 X66.530 Y46.925 E0.02014
G1 X66.655 Y46.738 E0.00996
M204 S1000
G1 X66.953 Y46.790 F10800.000
G1 F8640
G1 X66.925 Y46.530 E-0.07867
G1 X67.246 Y46.209 E-0.10484
G1 X67.917 Y45.867 E-0.17402
G1 X68.208 Y45.673 E-0.08066
G1 X68.356 Y45.643 E-0.03493
G1 X68.552 Y45.543 E-0.05080
G1 X69.562 Y45.383 E-0.23608
G1 E-0.04000 F2100.00000
G1 Z0.900 F10800.000
G1 X65.772 Y71.980
G1 Z0.300
G1 E0.80000 F2100.00000
M204 S20
G1 F1800
G1 X66.237 Y72.445 E0.02920
G1 X66.489 Y72.193 E0.01584
G1 X65.932 Y71.636 E0.03498
G1 X65.932 Y71.132 E0.02240
G1 X66.741 Y71.941 E0.05082
G1 X66.993 Y71.689 E0.01584
G1 X65.932 Y70.628 E0.06667
G1 X65.932 Y70.124 E0.02240
G1 X67.245 Y71.437 E0.08251
G1 X67.497 Y71.185 E0.01584
G1 X65.932 Y69.620 E0.09835
G1 X65.932 Y69.116 E0.02240
G1 X67.749 Y70.933 E0.11419
G1 X68.001 Y70.681 E0.01584
G1 X65.932 Y68.612 E0.13003
G1 X65.932 Y68.108 E0.02240
G1 X68.253 Y70.429 E0.14587
G1 X68.505 Y70.177 E0.01584
G1 X65.932 Y67.604 E0.16171
G1 X65.932 Y67.100 E0.02240
G1 X68.757 Y69.925 E0.17755
G1 X69.009 Y69.673 E0.01584
G1 X65.932 Y66.596 E0.19339
G1 X65.932 Y66.092 E0.02240
G1 X69.261 Y69.421 E0.20923
G1 X69.513 Y69.169 E0.01584
G1 X65.932 Y65.588 E0.22507
G1 X65.932 Y65.084 E0.02240
G1 X69.765 Y68.917 E0.24091
G1 X70.017 Y68.665 E0.01584
G1 X65.932 Y64.580 E0.25675
G1 X65.932 Y64.076 E0.02240
G1 X70.269 Y68.413 E0.27260
G1 X70.521 Y68.161 E0.01584
G1 X65.932 Y63.572 E0.28844
G1 X65.932 Y63.068 E0.02240
G1 X70.773 Y67.909 E0.30428
G1 X71.025 Y67.657 E0.01584
G1 X65.932 Y62.564 E0.32012
G1 X65.932 Y62.060 E0.02240
G1 X71.277 Y67.405 E0.33596
G1 X71.529 Y67.153 E0.01584
G1 X65.932 Y61.556 E0.35180
G1 X65.932 Y61.052 E0.02240
G1 X71.781 Y66.901 E0.36764
G1 X72.033 Y66.649 E0.01584
G1 X65.932 Y60.548 E0.38348
G1 X65.932 Y60.044 E0.02240
G1 X72.285 Y66.397 E0.39932
M73 Q0 S302
G1 X72.537 Y66.145 E0.01584
G1 X65.932 Y59.540 E0.41516
G1 X65.932 Y59.036 E0.02240
G1 X72.789 Y65.893 E0.43100
M73 P0 R301
G1 X73.041 Y65.641 E0.01584
G1 X65.932 Y58.532 E0.44684
G1 X65.932 Y58.028 E0.02240
G1 X73.293 Y65.389 E0.46268
G1 X73.545 Y65.137 E0.01584
G1 X65.932 Y57.524 E0.47853
G1 X65.932 Y57.020 E0.02240
G1 X73.797 Y64.885 E0.49437
G1 X74.049 Y64.633 E0.01584
G1 X65.932 Y56.516 E0.51021
G1 X65.932 Y56.012 E0.02240
G1 X74.301 Y64.381 E0.52605
G1 X74.553 Y64.129 E0.01584
G1 X65.932 Y55.508 E0.54189
G1 X65.932 Y55.004 E0.02240
G1 X74.805 Y63.877 E0.55773
G1 X75.057 Y63.625 E0.01584
G1 X65.932 Y54.500 E0.57357
G1 X65.932 Y53.996 E0.02240
G1 X75.309 Y63.373 E0.58941
G1 X75.561 Y63.121 E0.01584
G1 X65.932 Y53.492 E0.60525
G1 X65.932 Y52.988 E0.02240
G1 X75.813 Y62.869 E0.62109
G1 X76.065 Y62.617 E0.01584
G1 X65.932 Y52.484 E0.63693
G1 X65.932 Y51.980 E0.02240
G1 X76.317 Y62.365 E0.65277
G1 X76.569 Y62.113 E0.01584
G1 X65.932 Y51.476 E0.66862
G1 X65.932 Y50.972 E0.02240
G1 X76.821 Y61.861 E0.68446
G1 X77.073 Y61.609 E0.01584
G1 X65.932 Y50.468 E0.70030
G1 X65.947 Y49.979 E0.02175
G1 X77.325 Y61.357 E0.71520
G1 X77.577 Y61.105 E0.01584
G1 X66.016 Y49.544 E0.72671
G1 X66.085 Y49.109 E0.01958
G1 X77.829 Y60.853 E0.73822
G1 X78.081 Y60.601 E0.01584
G1 X66.171 Y48.691 E0.74867
G1 X66.237 Y48.562 E0.00645
G1 X66.259 Y48.450 E0.00505
G1 X66.329 Y48.345 E0.00562
G1 X78.333 Y60.349 E0.75456
G1 X78.585 Y60.097 E0.01584
G1 X66.511 Y48.023 E0.75896
G1 X66.681 Y47.689 E0.01666
G1 X78.837 Y59.845 E0.76411
G1 X79.089 Y59.593 E0.01584
G1 X66.915 Y47.419 E0.76524
G1 X67.013 Y47.321 E0.00617
G1 X67.137 Y47.137 E0.00986
G1 X79.341 Y59.341 E0.76716
G1 X79.593 Y59.089 E0.01584
G1 X67.419 Y46.915 E0.76524
G1 X67.616 Y46.719 E0.01237
G1 X67.689 Y46.681 E0.00365
G1 X79.845 Y58.837 E0.76411
G1 X80.097 Y58.585 E0.01584
G1 X68.023 Y46.511 E0.75896
G1 X68.345 Y46.329 E0.01644
G1 X80.349 Y58.333 E0.75456
G1 X80.601 Y58.081 E0.01584
G1 X68.691 Y46.171 E0.74867
G1 X68.747 Y46.142 E0.00279
G1 X69.109 Y46.085 E0.01630
G1 X80.853 Y57.829 E0.73822
G1 X81.105 Y57.577 E0.01584
G1 X69.544 Y46.016 E0.72672
G1 X69.979 Y45.947 E0.01958
G1 X81.357 Y57.325 E0.71521
G1 X81.609 Y57.073 E0.01584
G1 X70.468 Y45.932 E0.70030
G1 X70.972 Y45.932 E0.02240
G1 X81.861 Y56.821 E0.68446
G1 X82.113 Y56.569 E0.01584
G1 X71.476 Y45.932 E0.66862
G1 X71.980 Y45.932 E0.02240
G1 X82.365 Y56.317 E0.65278
G1 X82.617 Y56.065 E0.01584
G1 X72.484 Y45.932 E0.63694
G1 X72.988 Y45.932 E0.02240
G1 X82.869 Y55.813 E0.62110
G1 X83.121 Y55.561 E0.01584
G1 X73.492 Y45.932 E0.60526
G1 X73.996 Y45.932 E0.02240
G1 X83.373 Y55.309 E0.58942
G1 X83.625 Y55.057 E0.01584
G1 X74.500 Y45.932 E0.57358
G1 X75.004 Y45.932 E0.02240
G1 X83.877 Y54.805 E0.55774
G1 X84.129 Y54.553 E0.01584
G1 X75.508 Y45.932 E0.54189
G1 X76.012 Y45.932 E0.02240
G1 X84.381 Y54.301 E0.52605
G1 X84.633 Y54.049 E0.01584
G1 X76.516 Y45.932 E0.51021
G1 X77.020 Y45.932 E0.02240
G1 X84.885 Y53.797 E0.49437
G1 X85.137 Y53.545 E0.01584
G1 X77.524 Y45.932 E0.47853
G1 X78.028 Y45.932 E0.02240
G1 X85.389 Y53.293 E0.46269
G1 X85.641 Y53.041 E0.01584
G1 X78.532 Y45.932 E0.44685
G1 X79.036 Y45.932 E0.02240
G1 X85.893 Y52.789 E0.43101
G1 X86.145 Y52.537 E0.01584
G1 X79.540 Y45.932 E0.41517
G1 X80.044 Y45.932 E0.02240
G1 X86.397 Y52.285 E0.39933
G1 X86.649 Y52.033 E0.01584
G1 X80.548 Y45.932 E0.38349
G1 X81.052 Y45.932 E0.02240
G1 X86.901 Y51.781 E0.36764
G1 X87.153 Y51.529 E0.01584
G1 X81.556 Y45.932 E0.35180
G1 X82.060 Y45.932 E0.02240
G1 X87.405 Y51.277 E0.33596
G1 X87.657 Y51.025 E0.01584
G1 X82.564 Y45.932 E0.32012
G1 X83.068 Y45.932 E0.02240
G1 X87.909 Y50.773 E0.30428
G1 X88.161 Y50.521 E0.01584
G1 X83.572 Y45.932 E0.28844
G1 X84.076 Y45.932 E0.02240
G1 X88.413 Y50.269 E0.27260
G1 X88.665 Y50.017 E0.01584
G1 X84.580 Y45.932 E0.25676
G1 X85.084 Y45.932 E0.02240
G1 X88.917 Y49.765 E0.24092
G1 X89.169 Y49.513 E0.01584
G1 X85.588 Y45.932 E0.22508
M73 Q1 S301
G1 X86.092 Y45.932 E0.02240
G1 X89.421 Y49.261 E0.20923
G1 X89.673 Y49.009 E0.01584
G1 X86.596 Y45.932 E0.19339
G1 X87.100 Y45.932 E0.02240
G1 X89.925 Y48.757 E0.17755
G1 X90.177 Y48.505 E0.01584
M73 P1 R300
G1 X87.604 Y45.932 E0.16171
G1 X88.108 Y45.932 E0.02240
G1 X90.429 Y48.253 E0.14587
G1 X90.681 Y48.001 E0.01584
G1 X88.612 Y45.932 E0.13003
G1 X89.116 Y45.932 E0.02240
G1 X90.933 Y47.749 E0.11419
G1 X91.185 Y47.497 E0.01584
G1 X89.620 Y45.932 E0.09835
G1 X90.124 Y45.932 E0.02240
G1 X91.437 Y47.245 E0.08251
G1 X91.689 Y46.993 E0.01584
G1 X90.628 Y45.932 E0.06667
G1 X91.132 Y45.932 E0.02240
G1 X91.941 Y46.741 E0.05082
G1 X92.193 Y46.489 E0.01584
G1 X91.636 Y45.932 E0.03498
G1 X92.140 Y45.932 E0.02240
G1 X92.558 Y46.350 E0.02626
M204 S1000
G1 X92.807 Y46.000 F10800.000
M204 S20
G1 F1800
G1 X157.193 Y46.000 E2.51371
M204 S1000
G1 F8640
G1 X153.902 Y46.000 E-0.76000
G1 E-0.04000 F2100.00000
G1 Z0.900 F10800.000
G1 X184.029 Y48.809
G1 Z0.300
G1 E0.80000 F2100.00000
M204 S20
G1 F1800
G1 X181.462 Y46.241 E0.16283
G1 X181.254 Y46.143 E0.01033
G1 X180.779 Y46.067 E0.02153
G1 X183.932 Y49.220 E0.19997
G1 X184.028 Y49.825 E0.02744
G1 X180.175 Y45.972 E0.24436
G1 X179.930 Y45.933 E0.01112
G1 X179.628 Y45.933 E0.01356
G1 X184.068 Y50.373 E0.28158
G1 X184.068 Y50.881 E0.02280
G1 X179.120 Y45.933 E0.31383
G1 X178.611 Y45.933 E0.02280
G1 X184.068 Y51.390 E0.34608
G1 X184.068 Y51.898 E0.02280
G1 X178.103 Y45.933 E0.37833
G1 X177.594 Y45.933 E0.02280
G1 X184.068 Y52.407 E0.41058
G1 X184.068 Y52.915 E0.02280
G1 X177.086 Y45.933 E0.44283
G1 X176.577 Y45.933 E0.02280
G1 X184.068 Y53.424 E0.47508
G1 X184.068 Y53.932 E0.02280
G1 X176.069 Y45.933 E0.50733
G1 X175.560 Y45.933 E0.02280
G1 X184.068 Y54.441 E0.53958
G1 X184.068 Y54.949 E0.02280
G1 X175.052 Y45.933 E0.57183
G1 X174.543 Y45.933 E0.02280
G1 X184.068 Y55.458 E0.60408
G1 X184.068 Y55.966 E0.02280
G1 X174.035 Y45.933 E0.63633
G1 X173.526 Y45.933 E0.02280
G1 X184.068 Y56.475 E0.66858
G1 X184.068 Y56.983 E0.02280
G1 X173.018 Y45.933 E0.70083
G1 X172.509 Y45.933 E0.02280
G1 X184.068 Y57.492 E0.73308
G1 X184.068 Y58.000 E0.02280
G1 X172.001 Y45.933 E0.76533
G1 X171.492 Y45.933 E0.02280
G1 X184.068 Y58.509 E0.79758
G1 X184.068 Y59.017 E0.02280
