; generated by Slic3r Prusa Edition 1.41.0 on 2018-10-28 at 20:09:07

; 

; external perimeters extrusion width = 0.45mm
; perimeters extrusion width = 0.45mm
; infill extrusion width = 0.45mm
; solid infill extrusion width = 0.45mm
; top infill extrusion width = 0.40mm
; first layer extrusion width = 0.42mm

M201 X1000 Y1000 Z1000 E5000 ; sets maximum accelerations, mm/sec^2
M203 X200 Y200 Z12 E120 ; sets maximum feedrates, mm/sec
M204 P1250 R1250 T1250 ; sets acceleration (P, T) and retract acceleration (R), mm/sec^2
M205 X8.00 Y8.00 Z0.40 E1.50 ; sets the jerk limits, mm/sec
M205 S0 T0 ; sets the minimum extruding and travel feed rate, mm/sec
M107
M115 U3.4.0 ; tell printer latest fw version
M83  ; extruder relative mode
M104 S140 ; set extruder to warm-up temp
M140 S80 ; set bed temp
M190 S80 ; wait for bed temp
G28 W ; home all without mesh bed level
G80 ; mesh bed leveling
M104 S245 ; set extruder temp
M109 S245 ; wait for extruder temp
G1 Y-3.0 F1000.0 ; go outside print area
G92 E0.0
G1 X60.0 E9.0  F1000.0 ; intro line
M73 Q0 S146
M73 P0 R144
G1 X100.0 E12.5  F1000.0 ; intro line
G92 E0.0
M221 S95
M900 K45; Filament gcode
G21 ; set units to millimeters
G90 ; use absolute coordinates
M83 ; use relative distances for extrusion
;BEFORE_LAYER_CHANGE
G92 E0.0
;0.2


G1 E-0.80000 F2100.00000
G1 Z0.600 F10800.000
;AFTER_LAYER_CHANGE
;0.2
G1 X60.480 Y42.394
G1 Z0.200
G1 E0.80000 F2100.00000
M204 S20
G1 F1800
G1 X61.186 Y41.469 E0.03650
G1 X62.511 Y40.143 E0.05877
G1 X63.905 Y39.100 E0.05458
G1 X66.045 Y38.036 E0.07492
G1 X67.466 Y37.613 E0.04650
G1 X69.276 Y37.332 E0.05744
G1 X70.194 Y37.271 E0.02885
G1 X180.364 Y37.607 E3.45429
G1 X183.042 Y37.984 E0.08482
G1 X184.710 Y38.548 E0.05520
G1 X186.419 Y39.430 E0.06030
G1 X187.373 Y40.097 E0.03650
G1 X189.184 Y41.850 E0.07903
G1 X190.128 Y43.153 E0.05045
G1 X191.170 Y45.265 E0.07383
G1 X191.585 Y46.658 E0.04559
G1 X191.929 Y49.295 E0.08337
G1 X191.598 Y159.456 E3.45405
G1 X191.529 Y160.346 E0.02798
G1 X191.222 Y162.220 E0.05952
G1 X190.664 Y163.892 E0.05528
G1 X189.774 Y165.617 E0.06086
G1 X189.095 Y166.589 E0.03717
G1 X187.353 Y168.387 E0.07850
G1 X186.048 Y169.332 E0.05051
G1 X183.938 Y170.374 E0.07381
G1 X182.545 Y170.789 E0.04555
G1 X179.908 Y171.133 E0.08340
G1 X69.745 Y170.801 E3.45409
G1 X68.854 Y170.732 E0.02801
G1 X66.982 Y170.426 E0.05946
G1 X65.311 Y169.868 E0.05525
G1 X63.584 Y168.977 E0.06093
G1 X62.614 Y168.299 E0.03710
G1 X60.814 Y166.556 E0.07858
G1 X59.870 Y165.252 E0.05047
G1 X58.825 Y163.136 E0.07398
G1 X58.417 Y161.762 E0.04494
G1 X58.068 Y159.106 E0.08401
G1 X58.411 Y48.684 E3.46220
G1 X58.785 Y46.139 E0.08066
G1 X59.340 Y44.500 E0.05424
G1 X60.451 Y42.447 E0.07322
M204 S1000
G1 X60.781 Y42.625 F10800.000
M204 S20
G1 F1800
G1 X61.469 Y41.719 E0.03568
G1 X62.771 Y40.415 E0.05777
G1 X64.103 Y39.420 E0.05212
G1 X66.177 Y38.389 E0.07261
G1 X67.538 Y37.983 E0.04454
G1 X69.319 Y37.707 E0.05650
G1 X70.193 Y37.648 E0.02746
G1 X180.345 Y37.983 E3.45378
G1 X182.957 Y38.352 E0.08270
G1 X184.546 Y38.887 E0.05256
G1 X186.224 Y39.753 E0.05923
G1 X187.150 Y40.401 E0.03542
G1 X188.900 Y42.097 E0.07641
G1 X189.804 Y43.345 E0.04832
G1 X190.819 Y45.401 E0.07188
G1 X191.214 Y46.726 E0.04336
G1 X191.552 Y49.308 E0.08165
G1 X191.221 Y159.448 E3.45338
G1 X190.854 Y162.140 E0.08520
G1 X190.322 Y163.733 E0.05264
G1 X189.448 Y165.427 E0.05977
G1 X188.794 Y166.362 E0.03577
G1 X187.106 Y168.102 E0.07603
G1 X185.856 Y169.007 E0.04838
G1 X183.801 Y170.023 E0.07186
G1 X182.473 Y170.419 E0.04347
G1 X179.895 Y170.756 E0.08152
G1 X69.753 Y170.424 E3.45342
G1 X67.066 Y170.059 E0.08502
G1 X65.470 Y169.526 E0.05276
G1 X63.774 Y168.651 E0.05984
G1 X62.837 Y167.995 E0.03585
G1 X61.099 Y166.308 E0.07595
G1 X60.194 Y165.060 E0.04835
G1 X59.179 Y163.005 E0.07186
G1 X58.788 Y161.695 E0.04286
G1 X58.445 Y159.098 E0.08213
G1 X58.787 Y48.719 E3.46087
G1 X59.152 Y46.225 E0.07903
G1 X59.681 Y44.660 E0.05180
G1 X60.752 Y42.678 E0.07065
M204 S1000
; PURGING FINISHED
G1 F8640
G1 X61.469 Y41.719 E-0.27645
G1 X62.771 Y40.415 E-0.42545
G1 X62.973 Y40.265 E-0.05810
G1 E-0.04000 F2100.00000
G1 Z0.800 F10800.000
G1 X65.434 Y45.524
G1 Z0.200
G1 E0.80000 F2100.00000
M204 S20
G1 F1800
G1 X66.749 Y44.235 E0.05772
G1 X68.322 Y43.440 E0.05526
G1 X70.091 Y43.152 E0.05618
G1 X180.235 Y43.481 E3.45351
G1 X182.041 Y43.783 E0.05740
G1 X183.609 Y44.588 E0.05529
G1 X184.917 Y45.886 E0.05775
G1 X185.786 Y47.601 E0.06029
G1 X186.052 Y49.337 E0.05507
G1 X185.719 Y159.434 E3.45204
G1 X185.450 Y161.125 E0.05367
G1 X185.395 Y161.287 E0.00538
G1 X184.612 Y162.812 E0.05373
G1 X183.316 Y164.119 E0.05772
G1 X181.677 Y164.964 E0.05782
G1 X179.866 Y165.255 E0.05751
G1 X69.763 Y164.923 E3.45222
G1 X67.955 Y164.621 E0.05750
G1 X66.322 Y163.767 E0.05775
G1 X65.080 Y162.518 E0.05523
G1 X64.237 Y160.881 E0.05775
G1 X63.946 Y159.070 E0.05750
G1 X64.278 Y48.967 E3.45222
G1 X64.580 Y47.158 E0.05750
G1 X65.407 Y45.577 E0.05594
M204 S1000
G1 X65.741 Y45.751 F10800.000
M204 S20
G1 F1800
G1 X66.972 Y44.545 E0.05403
G1 X68.440 Y43.803 E0.05160
G1 X70.120 Y43.530 E0.05337
G1 X180.203 Y43.858 E3.45158
G1 X181.921 Y44.145 E0.05460
G1 X183.385 Y44.897 E0.05162
G1 X184.608 Y46.110 E0.05401
G1 X185.422 Y47.718 E0.05649
M73 Q0 S145
G1 X185.674 Y49.365 E0.05226
G1 X185.342 Y159.404 E3.45020
M73 P0 R143
G1 X185.083 Y161.034 E0.05175
G1 X185.047 Y161.140 E0.00351
G1 X184.304 Y162.588 E0.05103
G1 X183.091 Y163.811 E0.05402
G1 X181.558 Y164.601 E0.05406
G1 X179.837 Y164.878 E0.05466
G1 X69.795 Y164.546 E3.45030
G1 X68.076 Y164.259 E0.05465
G1 X66.549 Y163.460 E0.05404
G1 X65.389 Y162.294 E0.05158
G1 X64.600 Y160.761 E0.05404
G1 X64.323 Y159.040 E0.05466
G1 X64.655 Y48.999 E3.45030
G1 X64.942 Y47.279 E0.05465
G1 X65.713 Y45.805 E0.05218
M204 S1000
G1 X65.582 Y45.384 F10800.000
G1 F8640
G1 X66.972 Y44.545 E-0.41107
G1 X68.320 Y43.863 E-0.34893
G1 E-0.04000 F2100.00000
G1 Z0.800 F10800.000
G1 X64.758 Y45.442
G1 Z0.200
G1 E0.80000 F2100.00000
M204 S20
G1 F1800
G1 X65.100 Y44.975 E0.01818
G1 X66.133 Y43.948 E0.04567
G1 X66.604 Y43.608 E0.01818
G1 X67.903 Y42.951 E0.04566
G1 X68.456 Y42.773 E0.01819
G1 X69.914 Y42.546 E0.04627
G1 X70.357 Y42.524 E0.01391
G1 X180.158 Y42.856 E3.44275
G1 X180.448 Y42.879 E0.00912
G1 X181.911 Y43.116 E0.04648
G1 X182.463 Y43.297 E0.01821
G1 X183.759 Y43.962 E0.04567
G1 X184.227 Y44.304 E0.01819
G1 X185.253 Y45.337 E0.04566
G1 X185.592 Y45.807 E0.01817
G1 X186.250 Y47.107 E0.04567
G1 X186.428 Y47.659 E0.01820
G1 X186.655 Y49.124 E0.04647
G1 X186.677 Y49.415 E0.00914
G1 X186.345 Y159.361 E3.44729
G1 X186.322 Y159.651 E0.00913
G1 X186.085 Y161.115 E0.04650
G1 X185.904 Y161.666 E0.01820
G1 X185.239 Y162.962 E0.04567
G1 X184.897 Y163.430 E0.01818
G1 X183.865 Y164.457 E0.04565
G1 X183.394 Y164.796 E0.01819
G1 X182.094 Y165.453 E0.04566
G1 X181.542 Y165.631 E0.01820
G1 X180.076 Y165.859 E0.04651
G1 X179.786 Y165.881 E0.00913
G1 X69.840 Y165.549 E3.44728
G1 X69.550 Y165.525 E0.00913
G1 X68.086 Y165.289 E0.04651
G1 X67.535 Y165.108 E0.01819
G1 X66.239 Y164.443 E0.04566
G1 X65.771 Y164.100 E0.01819
G1 X64.744 Y163.068 E0.04566
G1 X64.405 Y162.597 E0.01819
G1 X63.747 Y161.298 E0.04566
G1 X63.570 Y160.745 E0.01819
G1 X63.342 Y159.280 E0.04651
G1 X63.320 Y158.989 E0.00913
G1 X63.652 Y49.044 E3.44728
G1 X63.676 Y48.753 E0.00914
G1 X63.912 Y47.290 E0.04648
G1 X64.093 Y46.738 E0.01819
G1 X64.731 Y45.496 E0.04378
M204 S1000
G1 X64.395 Y45.324 F10800.000
M204 S20
G1 F1800
G1 X64.814 Y44.728 E0.02282
G1 X65.889 Y43.659 E0.04753
G1 X66.407 Y43.285 E0.02005
G1 X67.760 Y42.601 E0.04752
G1 X68.368 Y42.405 E0.02005
G1 X69.875 Y42.171 E0.04781
G1 X70.348 Y42.147 E0.01484
G1 X180.173 Y42.479 E3.44351
G1 X180.493 Y42.504 E0.01005
G1 X182.001 Y42.748 E0.04789
G1 X182.609 Y42.948 E0.02007
G1 X183.957 Y43.640 E0.04753
G1 X184.474 Y44.017 E0.02005
G1 X185.542 Y45.092 E0.04752
G1 X185.916 Y45.610 E0.02003
G1 X186.599 Y46.963 E0.04753
G1 X186.796 Y47.572 E0.02006
G1 X187.030 Y49.081 E0.04787
G1 X187.054 Y49.401 E0.01007
G1 X186.723 Y159.377 E3.44822
G1 X186.696 Y159.696 E0.01006
G1 X186.453 Y161.204 E0.04790
G1 X186.253 Y161.812 E0.02005
G1 X185.561 Y163.161 E0.04752
G1 X185.184 Y163.677 E0.02004
G1 X184.109 Y164.745 E0.04751
G1 X183.591 Y165.119 E0.02005
G1 X182.238 Y165.803 E0.04752
G1 X181.629 Y165.999 E0.02006
G1 X180.119 Y166.234 E0.04790
G1 X179.800 Y166.258 E0.01006
G1 X69.824 Y165.926 E3.44821
G1 X69.505 Y165.900 E0.01006
G1 X67.996 Y165.656 E0.04790
G1 X67.389 Y165.457 E0.02005
G1 X66.040 Y164.765 E0.04752
G1 X65.524 Y164.387 E0.02005
G1 X64.456 Y163.312 E0.04752
G1 X64.081 Y162.794 E0.02005
G1 X63.398 Y161.441 E0.04752
G1 X63.202 Y160.833 E0.02005
G1 X62.967 Y159.323 E0.04790
G1 X62.943 Y159.003 E0.01006
G1 X63.275 Y49.028 E3.44821
G1 X63.301 Y48.708 E0.01007
G1 X63.545 Y47.200 E0.04788
G1 X63.744 Y46.592 E0.02005
G1 X64.368 Y45.377 E0.04283
M204 S1000
G1 X64.795 Y45.334 F10800.000
G1 F8640
G1 X64.814 Y44.728 E-0.18180
G1 X65.889 Y43.659 E-0.35001
G1 X66.407 Y43.285 E-0.14763
G1 X66.718 Y43.128 E-0.08056
G1 E-0.04000 F2100.00000
G1 Z0.800 F10800.000
G1 X63.971 Y48.931
G1 Z0.200
G1 E0.80000 F2100.00000
M204 S20
G1 F1800
G1 X64.223 Y47.365 E0.02846
G1 X64.304 Y47.047 E0.00588
G1 X64.383 Y46.859 E0.00366
G1 X65.030 Y45.610 E0.02524
G1 X65.186 Y45.360 E0.00529
G1 X65.339 Y45.179 E0.00425
G1 X66.340 Y44.191 E0.02525
G1 X66.563 Y44.003 E0.00523
G1 X66.767 Y43.876 E0.00431
G1 X68.022 Y43.241 E0.02525
G1 X68.246 Y43.152 E0.00431
G1 X68.529 Y43.084 E0.00523
G1 X70.076 Y42.846 E0.02808
G1 X180.145 Y43.168 E1.97515
G1 X180.410 Y43.191 E0.00478
G1 X181.836 Y43.426 E0.02593
G1 X182.118 Y43.495 E0.00522
G1 X182.342 Y43.586 E0.00433
G1 X183.594 Y44.229 E0.02526
G1 X183.798 Y44.357 E0.00432
G1 X184.019 Y44.546 E0.00523
G1 X185.014 Y45.540 E0.02524
G1 X185.168 Y45.724 E0.00430
G1 X185.319 Y45.973 E0.00523
G1 X185.954 Y47.228 E0.02524
G1 X186.063 Y47.494 E0.00516
G1 X186.122 Y47.732 E0.00439
G1 X186.343 Y49.160 E0.02593
G1 X186.364 Y49.426 E0.00479
G1 X186.033 Y159.347 E1.97250
G1 X186.009 Y159.613 E0.00478
G1 X185.780 Y161.041 E0.02595
G1 X185.739 Y161.206 E0.00306
G1 X185.614 Y161.545 E0.00648
G1 X184.972 Y162.797 E0.02526
G1 X184.844 Y163.000 E0.00430
G1 X184.655 Y163.222 E0.00523
G1 X183.661 Y164.217 E0.02523
G1 X183.479 Y164.369 E0.00426
G1 X183.228 Y164.523 E0.00528
G1 X181.975 Y165.163 E0.02524
G1 X181.786 Y165.241 E0.00367
G1 X181.468 Y165.320 E0.00588
G1 X180.040 Y165.546 E0.02594
G1 X179.775 Y165.568 E0.00478
G1 X69.854 Y165.236 E1.97250
G1 X69.588 Y165.213 E0.00478
G1 X68.161 Y164.978 E0.02594
G1 X67.876 Y164.908 E0.00527
G1 X67.656 Y164.818 E0.00427
G1 X66.407 Y164.171 E0.02524
G1 X66.159 Y164.017 E0.00524
G1 X65.975 Y163.862 E0.00431
G1 X64.983 Y162.864 E0.02525
G1 X64.830 Y162.680 E0.00431
G1 X64.677 Y162.431 E0.00524
G1 X64.038 Y161.178 E0.02524
G1 X63.949 Y160.957 E0.00427
G1 X63.881 Y160.672 E0.00587
G1 X63.637 Y159.084 E0.03211
G1 X63.968 Y48.991 E1.97559
M73 Q1 S144
M204 S1000
;BEFORE_LAYER_CHANGE
G92 E0.0
;0.4


G1 F8640
G1 X64.223 Y47.365 E-0.38000
G1 X64.304 Y47.047 E-0.07570
G1 X64.383 Y46.859 E-0.04714
G1 X64.895 Y45.870 E-0.25716
G1 E-0.04000 F2100.00000
G1 Z0.800 F10800.000
;AFTER_LAYER_CHANGE
;0.4
M140 S90 ; set bed temperature
G1 X58.785 Y46.139
G1 Z0.400
G1 E0.80000 F2100.00000
G1 F3000
G1 X59.340 Y44.500 E0.05424
G1 X60.480 Y42.394 E0.07510
G1 X61.186 Y41.469 E0.03650
G1 X62.511 Y40.143 E0.05877
M73 P1 R142
G1 X63.905 Y39.100 E0.05458
G1 X66.045 Y38.036 E0.07492
G1 X67.466 Y37.613 E0.04650
G1 X69.276 Y37.332 E0.05744
G1 X70.194 Y37.271 E0.02885
G1 X180.364 Y37.607 E3.45429
G1 X183.042 Y37.984 E0.08482
G1 X184.710 Y38.548 E0.05520
G1 X186.419 Y39.430 E0.06030
G1 X187.373 Y40.097 E0.03650
G1 X189.184 Y41.850 E0.07903
G1 X190.128 Y43.153 E0.05045
G1 X191.170 Y45.265 E0.07383
G1 X191.585 Y46.658 E0.04559
G1 X191.929 Y49.295 E0.08337
G1 X191.598 Y159.456 E3.45405
G1 X191.529 Y160.346 E0.02798
G1 X191.222 Y162.220 E0.05952
G1 X190.664 Y163.892 E0.05528
G1 X189.774 Y165.617 E0.06086
G1 X189.095 Y166.589 E0.03717
G1 X187.353 Y168.387 E0.07850
G1 X186.048 Y169.332 E0.05051
G1 X183.938 Y170.374 E0.07381
G1 X182.545 Y170.789 E0.04555
G1 X179.908 Y171.133 E0.08340
G1 X69.745 Y170.801 E3.45409
G1 X68.854 Y170.732 E0.02801
G1 X66.982 Y170.426 E0.05946
G1 X65.311 Y169.868 E0.05525
G1 X63.584 Y168.977 E0.06093
G1 X62.614 Y168.299 E0.03710
G1 X60.814 Y166.556 E0.07858
G1 X59.870 Y165.252 E0.05047
G1 X58.825 Y163.136 E0.07398
G1 X58.417 Y161.762 E0.04494
G1 X58.068 Y159.106 E0.08401
G1 X58.411 Y48.684 E3.46220
G1 X58.776 Y46.199 E0.07878
G1 X59.148 Y46.253 F10800.000
G1 F3000
G1 X59.681 Y44.660 E0.05267
G1 X60.787 Y42.613 E0.07294
G1 X61.469 Y41.719 E0.03528
G1 X62.771 Y40.415 E0.05777
G1 X64.103 Y39.420 E0.05212
G1 X66.177 Y38.389 E0.07261
G1 X67.538 Y37.983 E0.04454
G1 X69.319 Y37.707 E0.05650
G1 X70.193 Y37.648 E0.02746
G1 X180.345 Y37.983 E3.45378
G1 X182.957 Y38.352 E0.08270
G1 X184.546 Y38.887 E0.05256
G1 X186.224 Y39.753 E0.05923
G1 X187.150 Y40.401 E0.03542
G1 X188.900 Y42.097 E0.07641
G1 X189.804 Y43.345 E0.04832
G1 X190.819 Y45.401 E0.07188
G1 X191.214 Y46.726 E0.04336
G1 X191.552 Y49.308 E0.08165
G1 X191.221 Y159.448 E3.45338
G1 X190.854 Y162.140 E0.08520
G1 X190.322 Y163.733 E0.05264
G1 X189.448 Y165.427 E0.05977
G1 X188.794 Y166.362 E0.03577
G1 X187.106 Y168.102 E0.07603
G1 X185.856 Y169.007 E0.04838
G1 X183.801 Y170.023 E0.07186
G1 X182.473 Y170.419 E0.04347
G1 X179.895 Y170.756 E0.08152
G1 X69.753 Y170.424 E3.45342
G1 X67.066 Y170.059 E0.08502
G1 X65.470 Y169.526 E0.05276
G1 X63.774 Y168.651 E0.05984
G1 X62.837 Y167.995 E0.03585
G1 X61.099 Y166.308 E0.07595
G1 X60.194 Y165.060 E0.04835
G1 X59.179 Y163.005 E0.07186
G1 X58.788 Y161.695 E0.04286
G1 X58.445 Y159.098 E0.08213
G1 X58.787 Y48.719 E3.46087
G1 X59.139 Y46.312 E0.07627
; PURGING FINISHED
G1 F8640
G1 X59.681 Y44.660 E-0.40152
G1 X60.419 Y43.294 E-0.35848
G1 E-0.04000 F2100.00000
G1 Z1.000 F10800.000
G1 X64.623 Y47.223
G1 Z0.400
G1 E0.80000 F2100.00000
M204 S800
G1 F2700
G1 X65.473 Y45.563 E0.06315
G1 X66.775 Y44.284 E0.06176
G1 X68.346 Y43.489 E0.05960
G1 X70.100 Y43.207 E0.06011
G1 X180.233 Y43.536 E3.72790
G1 X182.016 Y43.832 E0.06118
G1 X183.583 Y44.637 E0.05963
G1 X184.878 Y45.924 E0.06180
G1 X185.732 Y47.611 E0.06400
G1 X185.997 Y49.337 E0.05910
G1 X185.664 Y159.437 E3.72677
G1 X185.368 Y161.220 E0.06118
G1 X184.564 Y162.786 E0.05961
G1 X183.278 Y164.080 E0.06176
G1 X181.653 Y164.915 E0.06183
G1 X179.866 Y165.200 E0.06125
G1 X69.764 Y164.868 E3.72683
G1 X67.979 Y164.572 E0.06124
G1 X66.361 Y163.728 E0.06177
G1 X65.120 Y162.480 E0.05960
G1 X64.286 Y160.856 E0.06177
G1 X64.001 Y159.070 E0.06124
G1 X64.333 Y48.968 E3.72684
G1 X64.613 Y47.282 E0.05783
M204 S1000
G1 X65.020 Y47.314 F10800.000
M204 S800
G1 F2100
G1 X65.805 Y45.808 E0.05748
G1 X67.015 Y44.619 E0.05743
G1 X68.474 Y43.881 E0.05532
G1 X70.132 Y43.614 E0.05685
G1 X180.199 Y43.943 E3.72567
G1 X181.887 Y44.223 E0.05791
G1 X183.341 Y44.970 E0.05533
G1 X184.544 Y46.167 E0.05744
G1 X185.339 Y47.737 E0.05958
G1 X185.589 Y49.367 E0.05583
G1 X185.257 Y159.403 E3.72458
G1 X184.977 Y161.090 E0.05791
G1 X184.231 Y162.544 E0.05532
G1 X183.034 Y163.748 E0.05743
G1 X181.525 Y164.523 E0.05745
G1 X179.834 Y164.793 E0.05794
G1 X69.798 Y164.461 E3.72460
G1 X68.110 Y164.181 E0.05793
G1 X66.605 Y163.397 E0.05744
G1 X65.453 Y162.238 E0.05532
G1 X64.678 Y160.728 E0.05744
G1 X64.408 Y159.038 E0.05793
G1 X64.740 Y49.002 E3.72461
G1 X65.011 Y47.373 E0.05589
M204 S1000
G1 X64.755 Y47.015 F10800.000
G1 F8640
G1 X65.805 Y45.808 E-0.40528
G1 X66.901 Y44.731 E-0.35472
G1 E-0.04000 F2100.00000
G1 Z1.000 F10800.000
G1 X64.711 Y45.414
G1 Z0.400
G1 E0.80000 F2100.00000
M204 S800
G1 F2700
G1 X65.059 Y44.939 E0.01992
G1 X66.098 Y43.906 E0.04959
G1 X66.575 Y43.561 E0.01992
G1 X67.882 Y42.900 E0.04959
G1 X68.443 Y42.720 E0.01993
G1 X69.914 Y42.491 E0.05041
G1 X70.209 Y42.469 E0.01000
G1 X180.160 Y42.801 E3.72173
G1 X180.454 Y42.824 E0.00999
G1 X181.924 Y43.062 E0.05040
G1 X182.484 Y43.246 E0.01995
G1 X183.788 Y43.915 E0.04959
G1 X184.263 Y44.262 E0.01993
G1 X185.296 Y45.301 E0.04958
G1 X185.640 Y45.778 E0.01990
G1 X186.301 Y47.086 E0.04960
