; generated by PrusaSlicer 2.1.0 on 2019-10-06 at 04:42:42 UTC

; 

; external perimeters extrusion width = 0.45mm
; perimeters extrusion width = 0.45mm
; infill extrusion width = 0.45mm
; solid infill extrusion width = 0.45mm
; top infill extrusion width = 0.40mm
; first layer extrusion width = 0.42mm

M73 P0 R65
M73 Q0 S65
M201 X1000 Y1000 Z1000 E5000 ; sets maximum accelerations, mm/sec^2
M203 X200 Y200 Z12 E120 ; sets maximum feedrates, mm/sec
M204 P1250 R1250 T1250 ; sets acceleration (P, T) and retract acceleration (R), mm/sec^2
M205 X8.00 Y8.00 Z0.40 E1.50 ; sets the jerk limits, mm/sec
M205 S0 T0 ; sets the minimum extruding and travel feed rate, mm/sec
M107
M862.3 P "MK3S" ; printer model check
M862.1 P0.4 ; nozzle diameter check
M115 U3.8.0 ; tell printer latest fw version
G90 ; use absolute coordinates
M83 ; extruder relative mode
M104 S140 ; set extruder to warm-up temp
M140 S85 ; set bed temp
M190 S85 ; wait for bed temp
G28 W ; home all without mesh bed level
G80 ; mesh bed leveling
M104 S240 ; set extruder temp
M109 S240 ; wait for extruder temp
G4 S5 ; wait 5 seconds for temperature to stabilize
G1 Y-3.0 F1000.0 ; go outside print area
G92 E0.0
G1 X60.0 E9.0 F1000.0 ; intro line
M73 Q0 S65
M73 P0 R65
G1 X100.0 E12.5 F1000.0 ; intro line
G92 E0.0
M221 S95
G21 ; set units to millimeters
G90 ; use absolute coordinates
M83 ; use relative distances for extrusion
M900 K45 ; Filament gcode
;BEFORE_LAYER_CHANGE
G92 E0.0
;0.2


G1 E-1.40000 F2100.00000
G1 Z0.200 F10800.000
;AFTER_LAYER_CHANGE
;0.2
G1 Z0.400
G1 X73.042 Y77.425
G1 Z0.200
G1 E1.40000 F2100.00000
M204 S1000
G1 F900
G1 X74.817 Y75.497 E0.08216
G1 X76.347 Y74.132 E0.06429
G1 X78.049 Y72.970 E0.06460
G1 X108.512 Y57.428 E1.07229
G1 X109.971 Y56.778 E0.05008
G1 X111.232 Y56.350 E0.04174
G1 X112.523 Y56.028 E0.04174
G1 X114.498 Y55.703 E0.06273
G1 X115.823 Y55.579 E0.04174
G1 X133.360 Y55.557 E0.54985
G1 X135.181 Y55.663 E0.05719
G1 X137.518 Y56.037 E0.07422
G1 X139.195 Y56.482 E0.05441
G1 X140.815 Y57.106 E0.05441
G1 X171.556 Y72.737 E1.08133
G1 X172.766 Y73.481 E0.04452
G1 X173.904 Y74.330 E0.04452
G1 X174.856 Y75.174 E0.03989
G1 X176.204 Y76.538 E0.06014
G1 X177.033 Y77.517 E0.04020
G1 X177.780 Y78.559 E0.04020
G1 X179.144 Y81.006 E0.08783
G1 X179.857 Y82.652 E0.05626
G1 X180.382 Y84.378 E0.05657
G1 X180.830 Y86.829 E0.07811
G1 X180.984 Y88.567 E0.05472
G1 X180.991 Y135.707 E1.47804
G1 X180.822 Y137.829 E0.06676
G1 X180.550 Y139.480 E0.05245
G1 X180.250 Y140.737 E0.04051
G1 X179.524 Y142.769 E0.06768
G1 X178.312 Y145.186 E0.08476
G1 X177.198 Y146.872 E0.06336
G1 X175.874 Y148.412 E0.06367
G1 X174.002 Y150.186 E0.08087
G1 X172.091 Y151.546 E0.07354
G1 X169.721 Y152.799 E0.08407
G1 X167.811 Y153.545 E0.06429
G1 X165.850 Y154.035 E0.06336
G1 X163.093 Y154.408 E0.08722
G1 X87.457 Y154.435 E2.37153
G1 X86.139 Y154.339 E0.04143
G1 X84.529 Y154.100 E0.05103
G1 X82.567 Y153.660 E0.06305
G1 X80.585 Y152.938 E0.06614
G1 X78.264 Y151.762 E0.08159
G1 X76.609 Y150.672 E0.06213
G1 X75.095 Y149.378 E0.06244
G1 X73.333 Y147.536 E0.07993
G1 X71.997 Y145.692 E0.07139
G1 X70.722 Y143.321 E0.08441
G1 X69.978 Y141.485 E0.06213
G1 X69.463 Y139.551 E0.06274
G1 X69.077 Y136.969 E0.08185
G1 X69.011 Y135.541 E0.04483
G1 X69.024 Y88.381 E1.47866
G1 X69.367 Y85.576 E0.08862
G1 X69.808 Y83.664 E0.06151
G1 X70.508 Y81.758 E0.06367
G1 X71.675 Y79.439 E0.08141
G1 X73.008 Y77.474 E0.07444
G1 X73.321 Y77.687 F10800.000
G1 F900
G1 X75.099 Y75.748 E0.08251
G1 X76.599 Y74.414 E0.06291
G1 X78.257 Y73.285 E0.06291
G1 X108.683 Y57.764 E1.07092
G1 X110.116 Y57.126 E0.04918
G1 X111.343 Y56.710 E0.04063
G1 X112.610 Y56.396 E0.04094
G1 X114.553 Y56.076 E0.06172
G1 X115.853 Y55.955 E0.04094
G1 X133.360 Y55.934 E0.54893
G1 X135.139 Y56.038 E0.05590
G1 X137.450 Y56.408 E0.07338
G1 X139.088 Y56.844 E0.05315
G1 X140.670 Y57.455 E0.05315
G1 X171.371 Y73.065 E1.07990
G1 X172.557 Y73.795 E0.04369
G1 X173.674 Y74.629 E0.04369
G1 X175.939 Y76.806 E0.09851
G1 X176.750 Y77.767 E0.03941
G1 X177.475 Y78.781 E0.03911
G1 X178.812 Y81.186 E0.08626
G1 X179.511 Y82.805 E0.05529
G1 X180.020 Y84.483 E0.05498
G1 X180.459 Y86.896 E0.07692
G1 X180.607 Y88.585 E0.05315
G1 X180.614 Y135.705 E1.47741
G1 X180.447 Y137.782 E0.06535
G1 X180.179 Y139.414 E0.05185
G1 X179.881 Y140.655 E0.04002
G1 X179.167 Y142.645 E0.06627
G1 X177.970 Y145.025 E0.08353
G1 X176.877 Y146.673 E0.06200
G1 X175.584 Y148.169 E0.06200
G1 X173.748 Y149.907 E0.07928
G1 X171.873 Y151.237 E0.07206
G1 X169.554 Y152.461 E0.08224
G1 X167.684 Y153.190 E0.06291
G1 X165.766 Y153.667 E0.06200
G1 X163.052 Y154.033 E0.08586
G1 X87.472 Y154.058 E2.36973
G1 X86.180 Y153.965 E0.04063
G1 X84.588 Y153.727 E0.05046
G1 X82.668 Y153.297 E0.06169
G1 X80.719 Y152.585 E0.06505
G1 X78.426 Y151.420 E0.08066
G1 X76.809 Y150.351 E0.06078
G1 X75.338 Y149.089 E0.06078
G1 X73.612 Y147.281 E0.07839
G1 X72.300 Y145.465 E0.07023
G1 X71.055 Y143.144 E0.08257
G1 X70.329 Y141.347 E0.06078
G1 X69.828 Y139.454 E0.06139
G1 X69.449 Y136.903 E0.08086
G1 X69.388 Y135.541 E0.04277
G1 X69.400 Y88.400 E1.47807
G1 X69.739 Y85.637 E0.08729
G1 X70.174 Y83.757 E0.06047
G1 X70.865 Y81.884 E0.06261
G1 X72.017 Y79.600 E0.08022
G1 X73.287 Y77.737 E0.07069
G1 X73.599 Y77.950 F10800.000
G1 F900
G1 X73.669 Y77.849 E0.00386
G1 X75.388 Y75.992 E0.07934
G1 X76.850 Y74.697 E0.06124
G1 X78.474 Y73.595 E0.06154
G1 X108.853 Y58.101 E1.06925
G1 X110.278 Y57.468 E0.04888
G1 X111.482 Y57.062 E0.03984
G1 X112.707 Y56.761 E0.03954
G1 X114.617 Y56.448 E0.06069
G1 X115.892 Y56.330 E0.04014
G1 X133.360 Y56.311 E0.54769
G1 X135.098 Y56.412 E0.05461
G1 X137.373 Y56.777 E0.07222
G1 X138.972 Y57.202 E0.05190
G1 X140.525 Y57.803 E0.05220
G1 X171.185 Y73.393 E1.07846
G1 X172.349 Y74.110 E0.04285
G1 X173.444 Y74.928 E0.04285
G1 X175.666 Y77.067 E0.09672
G1 X177.165 Y78.996 E0.07660
M73 Q1 S64
G1 X178.476 Y81.357 E0.08467
G1 X179.158 Y82.939 E0.05401
M73 P1 R64
G1 X179.655 Y84.578 E0.05371
G1 X180.086 Y86.954 E0.07571
G1 X180.231 Y88.612 E0.05220
G1 X180.237 Y135.702 E1.47647
G1 X180.073 Y137.735 E0.06395
G1 X179.807 Y139.348 E0.05125
G1 X179.514 Y140.565 E0.03923
G1 X178.814 Y142.511 E0.06486
G1 X177.628 Y144.863 E0.08259
G1 X176.561 Y146.465 E0.06034
G1 X175.301 Y147.919 E0.06034
G1 X173.502 Y149.622 E0.07768
G1 X171.656 Y150.927 E0.07088
G1 X169.379 Y152.127 E0.08071
G1 X167.549 Y152.837 E0.06154
G1 X165.681 Y153.299 E0.06034
G1 X163.000 Y153.659 E0.08479
G1 X87.488 Y153.681 E2.36764
G1 X86.211 Y153.589 E0.04014
G1 X84.638 Y153.353 E0.04989
G1 X82.760 Y152.931 E0.06034
G1 X80.854 Y152.233 E0.06365
G1 X78.589 Y151.079 E0.07970
G1 X77.010 Y150.030 E0.05943
G1 X75.581 Y148.800 E0.05913
G1 X73.890 Y147.026 E0.07684
G1 X72.608 Y145.246 E0.06877
G1 X71.389 Y142.967 E0.08104
G1 X70.681 Y141.209 E0.05943
G1 X70.194 Y139.357 E0.06004
G1 X69.823 Y136.848 E0.07954
G1 X69.765 Y135.540 E0.04104
G1 X69.776 Y88.427 E1.47718
G1 X70.112 Y85.697 E0.08625
G1 X70.537 Y83.860 E0.05913
G1 X71.214 Y82.028 E0.06124
G1 X72.359 Y79.762 E0.07961
G1 X73.565 Y78.000 E0.06694
G1 F8640
G1 X73.669 Y77.849 E-0.04228
G1 X75.388 Y75.992 E-0.58432
G1 X76.850 Y74.697 E-0.45100
G1 X77.755 Y74.083 E-0.25241
G1 E-0.07000 F2100.00000
G1 Z0.400 F10800.000
G1 X130.299 Y118.387
G1 Z0.200
G1 E1.40000 F2100.00000
G1 F900
G1 X130.478 Y118.170 E0.00880
G1 X130.682 Y117.978 E0.00880
G1 X131.109 Y117.707 E0.01585
G1 X131.585 Y117.553 E0.01568
G1 X131.886 Y117.513 E0.00954
G1 X132.373 Y117.544 E0.01530
G1 X132.645 Y117.614 E0.00880
G1 X132.906 Y117.717 E0.00880
G1 X133.318 Y117.978 E0.01527
G1 X133.536 Y118.183 E0.00939
G1 X133.833 Y118.592 E0.01585
G1 X134.026 Y119.080 E0.01644
G1 X134.092 Y119.600 E0.01644
G1 X134.028 Y120.102 E0.01585
G1 X133.941 Y120.370 E0.00883
G1 X133.819 Y120.628 E0.00896
G1 X133.536 Y121.017 E0.01509
G1 X133.318 Y121.222 E0.00938
G1 X132.891 Y121.493 E0.01585
G1 X132.415 Y121.647 E0.01568
G1 X132.114 Y121.686 E0.00954
G1 X131.627 Y121.656 E0.01530
G1 X131.355 Y121.586 E0.00880
G1 X131.094 Y121.483 E0.00880
G1 X130.667 Y121.212 E0.01585
G1 X130.321 Y120.843 E0.01585
G1 X130.160 Y120.590 E0.00939
G1 X129.974 Y120.120 E0.01585
G1 X129.908 Y119.600 E0.01644
G1 X129.972 Y119.098 E0.01585
G1 X130.064 Y118.814 E0.00939
G1 X130.270 Y118.439 E0.01339
G1 X130.600 Y118.621 F10800.000
G1 F900
G1 X130.753 Y118.429 E0.00769
G1 X130.915 Y118.278 E0.00694
G1 X131.271 Y118.051 E0.01324
G1 X131.668 Y117.922 E0.01309
G1 X131.899 Y117.892 E0.00730
G1 X132.314 Y117.918 E0.01304
G1 X132.529 Y117.973 E0.00694
G1 X132.734 Y118.055 E0.00694
G1 X133.085 Y118.278 E0.01303
G1 X133.252 Y118.434 E0.00715
G1 X133.500 Y118.775 E0.01324
G1 X133.658 Y119.174 E0.01345
G1 X133.712 Y119.600 E0.01345
G1 X133.659 Y120.019 E0.01324
G1 X133.590 Y120.230 E0.00695
G1 X133.493 Y120.434 E0.00709
G1 X133.252 Y120.766 E0.01288
G1 X133.085 Y120.922 E0.00715
G1 X132.729 Y121.149 E0.01324
G1 X132.332 Y121.278 E0.01309
G1 X132.101 Y121.308 E0.00730
G1 X131.686 Y121.282 E0.01304
G1 X131.471 Y121.227 E0.00694
G1 X131.266 Y121.145 E0.00694
G1 X130.909 Y120.919 E0.01324
G1 X130.620 Y120.611 E0.01324
G1 X130.498 Y120.418 E0.00715
G1 X130.342 Y120.026 E0.01324
G1 X130.288 Y119.600 E0.01345
G1 X130.341 Y119.181 E0.01324
G1 X130.412 Y118.964 E0.00715
G1 X130.571 Y118.674 E0.01039
G1 X130.493 Y118.401 F10800.000
G1 F8640
G1 X130.753 Y118.429 E-0.07036
G1 X130.915 Y118.278 E-0.05113
G1 X131.271 Y118.051 E-0.09751
G1 X131.668 Y117.922 E-0.09637
G1 X131.899 Y117.892 E-0.05376
G1 X132.314 Y117.918 E-0.09606
G1 X132.529 Y117.973 E-0.05113
G1 X132.734 Y118.055 E-0.05113
G1 X133.085 Y118.278 E-0.09599
G1 X133.252 Y118.434 E-0.05266
G1 X133.500 Y118.775 E-0.09753
G1 X133.658 Y119.174 E-0.09907
G1 X133.712 Y119.600 E-0.09907
G1 X133.659 Y120.019 E-0.09753
G1 X133.590 Y120.230 E-0.05120
G1 X133.493 Y120.434 E-0.05223
G1 X133.252 Y120.766 E-0.09483
G1 X133.181 Y120.833 E-0.02245
G1 E-0.07000 F2100.00000
G1 Z0.400 F10800.000
G1 X127.026 Y119.080
G1 Z0.200
G1 E1.40000 F2100.00000
G1 F900
G1 X127.089 Y119.581 E0.01585
G1 X127.071 Y119.880 E0.00939
G1 X126.949 Y120.352 E0.01527
G1 X126.822 Y120.623 E0.00939
G1 X126.536 Y121.017 E0.01527
G1 X126.318 Y121.222 E0.00939
G1 X125.891 Y121.493 E0.01585
G1 X125.410 Y121.649 E0.01585
G1 X125.113 Y121.686 E0.00939
G1 X124.627 Y121.656 E0.01527
G1 X124.355 Y121.586 E0.00880
G1 X124.094 Y121.483 E0.00880
G1 X123.667 Y121.212 E0.01585
G1 X123.320 Y120.842 E0.01588
G1 X123.158 Y120.585 E0.00955
G1 X122.974 Y120.120 E0.01567
G1 X122.911 Y119.619 E0.01585
G1 X122.929 Y119.320 E0.00939
G1 X123.051 Y118.848 E0.01527
G1 X123.178 Y118.577 E0.00939
G1 X123.464 Y118.183 E0.01527
G1 X123.682 Y117.978 E0.00939
G1 X124.109 Y117.707 E0.01585
G1 X124.590 Y117.551 E0.01585
G1 X124.887 Y117.514 E0.00939
G1 X125.373 Y117.544 E0.01527
G1 X125.645 Y117.614 E0.00880
G1 X125.906 Y117.717 E0.00880
G1 X126.333 Y117.988 E0.01585
G1 X126.680 Y118.358 E0.01588
G1 X126.842 Y118.615 E0.00955
G1 X127.004 Y119.024 E0.01379
G1 X126.653 Y119.163 F10800.000
G1 F900
G1 X126.711 Y119.593 E0.01362
G1 X126.697 Y119.821 E0.00715
G1 X126.593 Y120.224 E0.01303
G1 X126.496 Y120.430 E0.00715
G1 X126.252 Y120.766 E0.01303
G1 X126.085 Y120.922 E0.00715
G1 X125.729 Y121.149 E0.01324
G1 X125.327 Y121.279 E0.01324
G1 X125.101 Y121.308 E0.00715
G1 X124.686 Y121.282 E0.01303
G1 X124.471 Y121.227 E0.00694
G1 X124.266 Y121.145 E0.00694
G1 X123.909 Y120.919 E0.01324
G1 X123.620 Y120.611 E0.01325
G1 X123.495 Y120.414 E0.00731
G1 X123.342 Y120.026 E0.01308
G1 X123.289 Y119.607 E0.01324
G1 X123.303 Y119.379 E0.00715
G1 X123.407 Y118.976 E0.01303
G1 X123.504 Y118.770 E0.00715
G1 X123.748 Y118.434 E0.01303
G1 X123.915 Y118.278 E0.00715
G1 X124.271 Y118.051 E0.01324
G1 X124.673 Y117.921 E0.01324
G1 X124.899 Y117.892 E0.00715
G1 X125.314 Y117.918 E0.01303
G1 X125.529 Y117.973 E0.00694
G1 X125.734 Y118.055 E0.00694
G1 X126.091 Y118.281 E0.01324
G1 X126.380 Y118.589 E0.01325
G1 X126.505 Y118.786 E0.00731
G1 X126.631 Y119.107 E0.01080
G1 X127.037 Y119.276 F10800.000
G1 F8640
G1 X126.711 Y119.593 E-0.11381
G1 X126.697 Y119.821 E-0.05266
G1 X126.593 Y120.224 E-0.09599
G1 X126.496 Y120.430 E-0.05266
G1 X126.252 Y120.766 E-0.09599
G1 X126.085 Y120.922 E-0.05266
G1 X125.729 Y121.149 E-0.09753
G1 X125.327 Y121.279 E-0.09753
G1 X125.101 Y121.308 E-0.05266
G1 X124.686 Y121.282 E-0.09599
G1 X124.471 Y121.227 E-0.05113
G1 X124.266 Y121.145 E-0.05113
G1 X123.909 Y120.919 E-0.09753
G1 X123.620 Y120.611 E-0.09761
G1 X123.495 Y120.414 E-0.05382
G1 X123.342 Y120.026 E-0.09631
G1 X123.301 Y119.703 E-0.07500
G1 E-0.07000 F2100.00000
G1 Z0.400 F10800.000
G1 X120.092 Y119.600
G1 Z0.200
G1 E1.40000 F2100.00000
G1 F900
G1 X120.028 Y120.102 E0.01585
G1 X119.936 Y120.386 E0.00939
G1 X119.701 Y120.813 E0.01527
G1 X119.522 Y121.029 E0.00880
G1 X119.318 Y121.222 E0.00880
G1 X118.891 Y121.493 E0.01585
G1 X118.415 Y121.647 E0.01568
G1 X118.114 Y121.686 E0.00954
G1 X117.627 Y121.656 E0.01530
G1 X117.355 Y121.586 E0.00880
G1 X117.094 Y121.483 E0.00880
G1 X116.667 Y121.212 E0.01586
G1 X116.321 Y120.843 E0.01585
G1 X116.160 Y120.590 E0.00939
G1 X115.974 Y120.120 E0.01585
G1 X115.910 Y119.618 E0.01588
G1 X115.931 Y119.314 E0.00954
G1 X116.051 Y118.847 E0.01512
G1 X116.181 Y118.572 E0.00953
G1 X116.464 Y118.183 E0.01509
G1 X116.682 Y117.978 E0.00938
G1 X117.109 Y117.707 E0.01585
G1 X117.585 Y117.553 E0.01568
G1 X117.886 Y117.513 E0.00954
G1 X118.373 Y117.544 E0.01530
G1 X118.645 Y117.614 E0.00880
G1 X118.906 Y117.717 E0.00880
G1 X119.333 Y117.988 E0.01585
G1 X119.679 Y118.357 E0.01585
G1 X119.840 Y118.610 E0.00939
G1 X120.026 Y119.080 E0.01585
G1 X120.084 Y119.540 E0.01456
G1 X119.710 Y119.588 F10800.000
G1 F900
G1 X119.659 Y120.019 E0.01362
G1 X119.588 Y120.236 E0.00715
G1 X119.388 Y120.600 E0.01303
G1 X119.247 Y120.771 E0.00694
G1 X119.085 Y120.922 E0.00694
G1 X118.729 Y121.149 E0.01324
G1 X118.332 Y121.278 E0.01309
G1 X118.101 Y121.308 E0.00730
G1 X117.686 Y121.282 E0.01304
G1 X117.471 Y121.227 E0.00694
G1 X117.266 Y121.145 E0.00694
G1 X116.909 Y120.919 E0.01324
G1 X116.620 Y120.611 E0.01324
G1 X116.498 Y120.418 E0.00715
G1 X116.342 Y120.026 E0.01324
G1 X116.289 Y119.606 E0.01325
G1 X116.304 Y119.374 E0.00730
G1 X116.407 Y118.976 E0.01289
G1 X116.507 Y118.766 E0.00730
G1 X116.748 Y118.434 E0.01288
G1 X116.915 Y118.278 E0.00715
G1 X117.271 Y118.051 E0.01324
G1 X117.668 Y117.922 E0.01309
G1 X117.899 Y117.892 E0.00730
G1 X118.314 Y117.918 E0.01304
G1 X118.529 Y117.973 E0.00694
G1 X118.734 Y118.055 E0.00694
G1 X119.091 Y118.281 E0.01324
G1 X119.380 Y118.589 E0.01324
G1 X119.502 Y118.782 E0.00715
G1 X119.658 Y119.174 E0.01324
G1 X119.703 Y119.528 E0.01118
G1 X120.058 Y119.786 F10800.000
G1 F8640
G1 X119.659 Y120.019 E-0.11379
G1 X119.588 Y120.236 E-0.05266
G1 X119.388 Y120.600 E-0.09599
G1 X119.247 Y120.771 E-0.05113
G1 X119.085 Y120.922 E-0.05113
G1 X118.729 Y121.149 E-0.09751
G1 X118.332 Y121.278 E-0.09637
G1 X118.101 Y121.308 E-0.05376
G1 X117.686 Y121.282 E-0.09606
G1 X117.471 Y121.227 E-0.05113
G1 X117.266 Y121.145 E-0.05113
G1 X116.909 Y120.919 E-0.09753
G1 X116.620 Y120.611 E-0.09753
G1 X116.498 Y120.418 E-0.05266
G1 X116.342 Y120.026 E-0.09753
G1 X116.289 Y119.606 E-0.09760
G1 X116.304 Y119.374 E-0.05376
G1 X116.329 Y119.279 E-0.02273
G1 E-0.07000 F2100.00000
G1 Z0.400 F10800.000
G1 X115.909 Y116.012
G1 Z0.200
G1 E1.40000 F2100.00000
G1 F900
G1 X116.696 Y115.887 E0.02499
G1 X133.327 Y115.891 E0.52145
G1 X134.093 Y116.012 E0.02433
G1 X134.764 Y116.354 E0.02360
G1 X135.296 Y116.886 E0.02360
G1 X135.638 Y117.557 E0.02360
G1 X135.763 Y118.346 E0.02506
G1 X135.763 Y120.854 E0.07862
G1 X135.638 Y121.643 E0.02506
G1 X135.296 Y122.314 E0.02360
G1 X134.779 Y122.831 E0.02293
G1 X134.091 Y123.188 E0.02430
G1 X133.304 Y123.313 E0.02499
G1 X116.696 Y123.313 E0.52072
G1 X115.907 Y123.188 E0.02507
G1 X115.236 Y122.846 E0.02360
G1 X114.704 Y122.314 E0.02360
G1 X114.362 Y121.643 E0.02360
G1 X114.237 Y120.854 E0.02507
G1 X114.237 Y118.346 E0.07862
G1 X114.362 Y117.557 E0.02507
G1 X114.704 Y116.886 E0.02360
G1 X115.221 Y116.369 E0.02293
G1 X115.856 Y116.039 E0.02242
G1 X115.789 Y115.649 F10800.000
G1 F900
G1 X116.667 Y115.510 E0.02784
G1 X133.357 Y115.514 E0.52331
