; generated by PrusaSlicer 2.1.0 on 2019-10-05 at 21:56:45 UTC

; 

; external perimeters extrusion width = 0.45mm
; perimeters extrusion width = 0.45mm
; infill extrusion width = 0.45mm
; solid infill extrusion width = 0.45mm
; top infill extrusion width = 0.40mm
; first layer extrusion width = 0.42mm

M73 P0 R16
M73 Q0 S16
M201 X1000 Y1000 Z1000 E5000 ; sets maximum accelerations, mm/sec^2
M203 X200 Y200 Z12 E120 ; sets maximum feedrates, mm/sec
M204 P1250 R1250 T1250 ; sets acceleration (P, T) and retract acceleration (R), mm/sec^2
M205 X8.00 Y8.00 Z0.40 E1.50 ; sets the jerk limits, mm/sec
M205 S0 T0 ; sets the minimum extruding and travel feed rate, mm/sec
M107
M862.3 P "MK3S" ; printer model check
M862.1 P0.4 ; nozzle diameter check
M115 U3.8.0 ; tell printer latest fw version
G90 ; use absolute coordinates
M83 ; extruder relative mode
M104 S140 ; set extruder to warm-up temp
M140 S85 ; set bed temp
M190 S85 ; wait for bed temp
G28 W ; home all without mesh bed level
G80 ; mesh bed leveling
M104 S240 ; set extruder temp
M109 S240 ; wait for extruder temp
G4 S5 ; wait 5 seconds for temperature to stabilize
G1 Y-3.0 F1000.0 ; go outside print area
G92 E0.0
G1 X60.0 E9.0 F1000.0 ; intro line
M73 Q0 S16
M73 P0 R16
G1 X100.0 E12.5 F1000.0 ; intro line
G92 E0.0
M221 S95
G21 ; set units to millimeters
G90 ; use absolute coordinates
M83 ; use relative distances for extrusion
M900 K45 ; Filament gcode
;BEFORE_LAYER_CHANGE
G92 E0.0
;0.2


G1 E-1.40000 F2100.00000
G1 Z0.200 F10800.000
;AFTER_LAYER_CHANGE
;0.2
G1 Z0.400
G1 X101.524 Y77.705
G1 Z0.200
G1 E1.40000 F2100.00000
M204 S1000
G1 F900
G1 X102.730 Y76.297 E0.05811
G1 X104.364 Y74.698 E0.07168
G1 X105.957 Y73.471 E0.06305
G1 X108.405 Y72.083 E0.08823
G1 X110.107 Y71.326 E0.05842
G1 X111.343 Y70.918 E0.04082
G1 X112.599 Y70.613 E0.04051
G1 X114.537 Y70.298 E0.06157
G1 X115.853 Y70.177 E0.04143
G1 X133.360 Y70.157 E0.54892
G1 X134.945 Y70.237 E0.04978
G1 X136.781 Y70.502 E0.05814
G1 X139.223 Y71.091 E0.07879
G1 X140.706 Y71.658 E0.04978
G1 X142.378 Y72.482 E0.05843
G1 X144.517 Y73.799 E0.07879
G1 X145.744 Y74.792 E0.04947
G1 X147.061 Y76.075 E0.05766
G1 X148.688 Y77.990 E0.07879
G1 X149.527 Y79.279 E0.04823
G1 X150.417 Y80.953 E0.05943
G1 X150.950 Y82.119 E0.04020
G1 X151.387 Y83.324 E0.04020
G1 X151.916 Y85.518 E0.07077
G1 X152.183 Y87.243 E0.05472
G1 X152.284 Y88.689 E0.04545
G1 X152.293 Y120.918 E1.01051
G1 X152.212 Y122.503 E0.04978
G1 X151.949 Y124.327 E0.05776
G1 X151.697 Y125.574 E0.03989
G1 X151.351 Y126.787 E0.03958
G1 X150.577 Y128.708 E0.06491
G1 X149.203 Y131.261 E0.09092
G1 X147.931 Y132.981 E0.06707
G1 X146.277 Y134.709 E0.07501
G1 X144.777 Y136.003 E0.06213
G1 X143.136 Y137.097 E0.06182
G1 X140.814 Y138.294 E0.08191
G1 X138.828 Y139.033 E0.06645
G1 X136.849 Y139.487 E0.06367
G1 X135.219 Y139.733 E0.05169
G1 X133.930 Y139.832 E0.04051
G1 X116.571 Y139.842 E0.54429
G1 X115.006 Y139.758 E0.04916
G1 X113.171 Y139.490 E0.05814
G1 X110.739 Y138.897 E0.07848
G1 X108.721 Y138.076 E0.06830
G1 X107.187 Y137.287 E0.05409
G1 X106.099 Y136.629 E0.03989
G1 X104.353 Y135.294 E0.06892
G1 X102.476 Y133.440 E0.08272
G1 X100.947 Y131.483 E0.07786
G1 X99.638 Y129.154 E0.08377
G1 X98.797 Y127.230 E0.06583
G1 X98.218 Y125.212 E0.06583
G1 X97.833 Y122.889 E0.07382
G1 X97.713 Y121.148 E0.05472
G1 X97.708 Y88.934 E1.01005
G1 X97.796 Y87.418 E0.04761
G1 X98.062 Y85.605 E0.05745
G1 X98.649 Y83.213 E0.07725
G1 X99.326 Y81.498 E0.05781
G1 X100.484 Y79.251 E0.07925
G1 X101.490 Y77.755 E0.05654
G1 X101.804 Y77.966 F10800.000
G1 F900
G1 X103.034 Y76.525 E0.05941
G1 X104.637 Y74.960 E0.07024
G1 X106.207 Y73.758 E0.06200
G1 X108.613 Y72.400 E0.08661
G1 X110.297 Y71.657 E0.05773
G1 X111.483 Y71.270 E0.03911
G1 X112.705 Y70.977 E0.03941
G1 X114.601 Y70.670 E0.06021
G1 X115.892 Y70.553 E0.04063
G1 X133.360 Y70.534 E0.54770
G1 X134.917 Y70.613 E0.04888
G1 X136.731 Y70.876 E0.05749
G1 X139.116 Y71.453 E0.07693
G1 X140.572 Y72.011 E0.04888
G1 X142.215 Y72.822 E0.05746
G1 X144.311 Y74.116 E0.07724
G1 X145.507 Y75.086 E0.04827
G1 X146.808 Y76.355 E0.05700
G1 X148.400 Y78.235 E0.07724
G1 X149.221 Y79.503 E0.04735
G1 X150.099 Y81.160 E0.05880
G1 X150.618 Y82.305 E0.03941
G1 X151.043 Y83.488 E0.03941
G1 X151.405 Y84.853 E0.04430
G1 X151.703 Y86.533 E0.05349
G1 X151.908 Y88.715 E0.06871
G1 X151.916 Y120.918 E1.00970
G1 X151.836 Y122.475 E0.04888
G1 X151.573 Y124.286 E0.05741
G1 X150.983 Y126.698 E0.07785
G1 X150.226 Y128.567 E0.06322
G1 X148.869 Y131.082 E0.08961
G1 X147.627 Y132.756 E0.06535
G1 X145.991 Y134.461 E0.07409
G1 X144.528 Y135.718 E0.06047
G1 X142.913 Y136.790 E0.06078
G1 X140.632 Y137.962 E0.08041
G1 X138.677 Y138.684 E0.06535
G1 X136.758 Y139.120 E0.06169
G1 X135.167 Y139.359 E0.05045
G1 X133.904 Y139.456 E0.03972
G1 X116.562 Y139.465 E0.54373
G1 X115.025 Y139.381 E0.04827
G1 X113.211 Y139.115 E0.05749
G1 X110.828 Y138.529 E0.07693
G1 X108.872 Y137.730 E0.06627
G1 X107.355 Y136.949 E0.05348
G1 X106.289 Y136.303 E0.03911
G1 X104.581 Y134.993 E0.06749
G1 X102.735 Y133.165 E0.08145
G1 X101.241 Y131.243 E0.07632
G1 X99.954 Y128.946 E0.08255
G1 X99.137 Y127.060 E0.06444
G1 X98.576 Y125.083 E0.06444
G1 X98.205 Y122.827 E0.07170
G1 X98.090 Y121.136 E0.05315
G1 X98.085 Y88.936 E1.00959
G1 X98.172 Y87.448 E0.04674
G1 X98.436 Y85.656 E0.05680
G1 X99.017 Y83.302 E0.07602
G1 X99.678 Y81.636 E0.05620
G1 X100.821 Y79.423 E0.07807
G1 X101.770 Y78.016 E0.05324
G1 X102.083 Y78.228 F10800.000
G1 F900
G1 X102.160 Y78.114 E0.00432
G1 X103.332 Y76.760 E0.05612
G1 X104.896 Y75.235 E0.06850
G1 X106.440 Y74.055 E0.06094
G1 X108.820 Y72.718 E0.08559
G1 X110.487 Y71.989 E0.05702
G1 X112.821 Y71.338 E0.07599
G1 X114.665 Y71.042 E0.05855
G1 X115.930 Y70.929 E0.03984
G1 X133.360 Y70.911 E0.54648
G1 X134.888 Y70.990 E0.04798
G1 X136.672 Y71.248 E0.05652
G1 X139.009 Y71.814 E0.07539
G1 X140.428 Y72.360 E0.04768
G1 X142.052 Y73.162 E0.05678
G1 X144.105 Y74.432 E0.07569
G1 X145.270 Y75.380 E0.04708
G1 X146.561 Y76.641 E0.05662
G1 X148.117 Y78.488 E0.07569
G1 X148.909 Y79.717 E0.04587
G1 X149.781 Y81.366 E0.05846
G1 X150.290 Y82.498 E0.03893
G1 X150.701 Y83.659 E0.03863
G1 X151.045 Y84.972 E0.04255
G1 X151.335 Y86.623 E0.05256
G1 X151.531 Y88.731 E0.06636
G1 X151.539 Y120.927 E1.00949
G1 X151.460 Y122.446 E0.04768
G1 X151.199 Y124.236 E0.05674
G1 X150.615 Y126.609 E0.07660
G1 X149.880 Y128.418 E0.06124
G1 X148.536 Y130.903 E0.08859
G1 X147.317 Y132.539 E0.06395
G1 X145.705 Y134.213 E0.07286
G1 X144.265 Y135.445 E0.05943
G1 X142.691 Y136.483 E0.05913
G1 X140.442 Y137.634 E0.07920
G1 X138.517 Y138.338 E0.06425
G1 X136.668 Y138.752 E0.05943
G1 X135.115 Y138.986 E0.04921
G1 X133.868 Y139.080 E0.03923
G1 X116.554 Y139.088 E0.54287
G1 X115.055 Y139.005 E0.04708
G1 X113.262 Y138.741 E0.05683
G1 X110.918 Y138.162 E0.07569
G1 X109.013 Y137.379 E0.06455
G1 X107.524 Y136.612 E0.05255
G1 X106.471 Y135.971 E0.03863
G1 X104.810 Y134.691 E0.06576
G1 X102.995 Y132.890 E0.08017
G1 X101.540 Y131.012 E0.07449
G1 X100.276 Y128.747 E0.08132
G1 X99.481 Y126.900 E0.06305
G1 X98.934 Y124.955 E0.06335
G1 X98.577 Y122.765 E0.06959
G1 X98.466 Y121.123 E0.05160
G1 X98.462 Y88.938 E1.00913
G1 X98.548 Y87.478 E0.04587
G1 X98.810 Y85.707 E0.05613
G1 X99.385 Y83.391 E0.07479
G1 X100.033 Y81.765 E0.05491
G1 X101.162 Y79.587 E0.07689
G1 X102.049 Y78.278 E0.04961
G1 F8640
G1 X102.160 Y78.114 E-0.04568
G1 X103.332 Y76.760 E-0.41327
G1 X104.896 Y75.235 E-0.50449
G1 X106.157 Y74.271 E-0.36656
G1 E-0.07000 F2100.00000
G1 Z0.400 F10800.000
G1 X129.908 Y90.400
G1 Z0.200
G1 E1.40000 F2100.00000
G1 F900
G1 X129.972 Y89.898 E0.01585
G1 X130.064 Y89.614 E0.00939
G1 X130.299 Y89.187 E0.01527
G1 X130.478 Y88.971 E0.00880
G1 X130.682 Y88.778 E0.00880
G1 X131.109 Y88.507 E0.01585
G1 X131.585 Y88.353 E0.01568
G1 X131.886 Y88.314 E0.00954
G1 X132.373 Y88.344 E0.01530
G1 X132.645 Y88.414 E0.00880
G1 X132.906 Y88.517 E0.00880
G1 X133.318 Y88.778 E0.01527
G1 X133.536 Y88.983 E0.00939
G1 X133.833 Y89.392 E0.01585
G1 X134.026 Y89.880 E0.01644
G1 X134.092 Y90.400 E0.01644
G1 X134.028 Y90.902 E0.01585
G1 X133.941 Y91.170 E0.00883
G1 X133.819 Y91.428 E0.00896
G1 X133.536 Y91.817 E0.01509
G1 X133.318 Y92.022 E0.00938
G1 X132.891 Y92.293 E0.01585
G1 X132.415 Y92.447 E0.01568
G1 X132.114 Y92.487 E0.00954
G1 X131.627 Y92.456 E0.01530
G1 X131.355 Y92.386 E0.00880
G1 X131.094 Y92.283 E0.00880
G1 X130.667 Y92.012 E0.01585
G1 X130.321 Y91.643 E0.01585
G1 X130.160 Y91.390 E0.00939
G1 X129.974 Y90.920 E0.01585
G1 X129.916 Y90.460 E0.01456
G1 X130.290 Y90.412 F10800.000
G1 F900
G1 X130.341 Y89.981 E0.01362
G1 X130.412 Y89.764 E0.00715
G1 X130.612 Y89.400 E0.01303
G1 X130.753 Y89.229 E0.00694
G1 X130.915 Y89.078 E0.00694
G1 X131.271 Y88.851 E0.01324
G1 X131.668 Y88.722 E0.01309
G1 X131.899 Y88.692 E0.00730
G1 X132.314 Y88.718 E0.01304
G1 X132.529 Y88.773 E0.00694
G1 X132.734 Y88.855 E0.00694
G1 X133.085 Y89.078 E0.01303
G1 X133.252 Y89.234 E0.00715
G1 X133.500 Y89.575 E0.01324
G1 X133.658 Y89.974 E0.01345
G1 X133.712 Y90.400 E0.01345
G1 X133.659 Y90.819 E0.01324
G1 X133.590 Y91.030 E0.00695
G1 X133.493 Y91.234 E0.00709
G1 X133.252 Y91.566 E0.01288
G1 X133.085 Y91.722 E0.00715
G1 X132.729 Y91.949 E0.01324
G1 X132.332 Y92.078 E0.01309
G1 X132.101 Y92.108 E0.00730
G1 X131.686 Y92.082 E0.01304
G1 X131.471 Y92.027 E0.00694
G1 X131.266 Y91.945 E0.00694
G1 X130.909 Y91.719 E0.01324
G1 X130.620 Y91.411 E0.01324
G1 X130.498 Y91.218 E0.00715
G1 X130.342 Y90.826 E0.01324
G1 X130.297 Y90.472 E0.01118
G1 X129.942 Y90.214 F10800.000
G1 F8640
G1 X130.341 Y89.981 E-0.11379
G1 X130.412 Y89.764 E-0.05266
G1 X130.612 Y89.400 E-0.09599
G1 X130.753 Y89.229 E-0.05113
G1 X130.915 Y89.078 E-0.05113
G1 X131.271 Y88.851 E-0.09751
G1 X131.668 Y88.722 E-0.09637
G1 X131.899 Y88.692 E-0.05376
G1 X132.314 Y88.718 E-0.09606
G1 X132.529 Y88.773 E-0.05113
G1 X132.734 Y88.855 E-0.05113
G1 X133.085 Y89.078 E-0.09599
G1 X133.252 Y89.234 E-0.05266
G1 X133.500 Y89.575 E-0.09753
G1 X133.658 Y89.974 E-0.09907
G1 X133.712 Y90.400 E-0.09907
G1 X133.671 Y90.722 E-0.07502
G1 E-0.07000 F2100.00000
G1 Z0.400 F10800.000
G1 X127.026 Y89.880
G1 Z0.200
G1 E1.40000 F2100.00000
G1 F900
G1 X127.090 Y90.382 E0.01588
G1 X127.069 Y90.686 E0.00954
G1 X126.949 Y91.153 E0.01512
G1 X126.819 Y91.428 E0.00953
G1 X126.536 Y91.817 E0.01509
G1 X126.318 Y92.022 E0.00938
G1 X125.891 Y92.293 E0.01585
G1 X125.415 Y92.447 E0.01568
G1 X125.114 Y92.487 E0.00954
G1 X124.627 Y92.456 E0.01530
G1 X124.355 Y92.386 E0.00880
G1 X124.094 Y92.283 E0.00880
G1 X123.682 Y92.022 E0.01527
G1 X123.464 Y91.817 E0.00939
G1 X123.167 Y91.408 E0.01585
G1 X122.974 Y90.920 E0.01644
G1 X122.910 Y90.418 E0.01588
G1 X122.931 Y90.114 E0.00954
G1 X123.051 Y89.647 E0.01512
G1 X123.181 Y89.372 E0.00953
G1 X123.464 Y88.983 E0.01509
G1 X123.682 Y88.778 E0.00938
G1 X124.109 Y88.507 E0.01585
G1 X124.585 Y88.353 E0.01568
G1 X124.886 Y88.314 E0.00954
G1 X125.373 Y88.344 E0.01530
G1 X125.645 Y88.414 E0.00880
G1 X125.906 Y88.517 E0.00880
G1 X126.318 Y88.778 E0.01527
G1 X126.536 Y88.983 E0.00939
G1 X126.833 Y89.392 E0.01585
G1 X127.004 Y89.824 E0.01456
G1 X126.653 Y89.963 F10800.000
G1 F900
G1 X126.711 Y90.394 E0.01363
G1 X126.696 Y90.626 E0.00730
G1 X126.593 Y91.024 E0.01289
G1 X126.493 Y91.234 E0.00730
G1 X126.252 Y91.566 E0.01288
G1 X126.085 Y91.722 E0.00715
G1 X125.729 Y91.949 E0.01324
G1 X125.332 Y92.078 E0.01309
G1 X125.101 Y92.108 E0.00730
G1 X124.686 Y92.082 E0.01304
G1 X124.471 Y92.027 E0.00694
G1 X124.266 Y91.945 E0.00694
G1 X123.915 Y91.722 E0.01303
G1 X123.748 Y91.566 E0.00715
G1 X123.500 Y91.225 E0.01324
G1 X123.342 Y90.826 E0.01345
G1 X123.289 Y90.406 E0.01325
G1 X123.304 Y90.174 E0.00730
G1 X123.407 Y89.776 E0.01289
G1 X123.507 Y89.566 E0.00730
G1 X123.748 Y89.234 E0.01288
G1 X123.915 Y89.078 E0.00715
G1 X124.271 Y88.851 E0.01324
G1 X124.668 Y88.722 E0.01309
G1 X124.899 Y88.692 E0.00730
G1 X125.314 Y88.718 E0.01304
G1 X125.529 Y88.773 E0.00694
G1 X125.734 Y88.855 E0.00694
G1 X126.085 Y89.078 E0.01303
G1 X126.252 Y89.234 E0.00715
G1 X126.500 Y89.575 E0.01324
G1 X126.631 Y89.907 E0.01118
G1 X127.039 Y90.068 F10800.000
G1 F8640
G1 X126.711 Y90.394 E-0.11386
G1 X126.696 Y90.626 E-0.05376
G1 X126.593 Y91.024 E-0.09490
G1 X126.493 Y91.234 E-0.05374
G1 X126.252 Y91.566 E-0.09483
G1 X126.085 Y91.722 E-0.05264
G1 X125.729 Y91.949 E-0.09751
G1 X125.332 Y92.078 E-0.09637
G1 X125.101 Y92.108 E-0.05376
G1 X124.686 Y92.082 E-0.09606
G1 X124.471 Y92.027 E-0.05113
G1 X124.266 Y91.945 E-0.05113
G1 X123.915 Y91.722 E-0.09599
G1 X123.748 Y91.566 E-0.05266
G1 X123.500 Y91.225 E-0.09753
G1 X123.342 Y90.826 E-0.09907
G1 X123.301 Y90.503 E-0.07505
G1 E-0.07000 F2100.00000
G1 Z0.400 F10800.000
G1 X120.092 Y90.400
G1 Z0.200
G1 E1.40000 F2100.00000
G1 F900
G1 X120.028 Y90.902 E0.01585
G1 X119.936 Y91.186 E0.00939
G1 X119.701 Y91.613 E0.01527
G1 X119.522 Y91.830 E0.00880
G1 X119.318 Y92.022 E0.00880
G1 X118.891 Y92.293 E0.01585
G1 X118.415 Y92.447 E0.01568
G1 X118.114 Y92.487 E0.00954
G1 X117.627 Y92.456 E0.01530
G1 X117.355 Y92.386 E0.00880
G1 X117.094 Y92.283 E0.00880
G1 X116.667 Y92.012 E0.01586
G1 X116.321 Y91.643 E0.01585
G1 X116.160 Y91.390 E0.00939
G1 X115.974 Y90.920 E0.01585
G1 X115.910 Y90.418 E0.01588
G1 X115.931 Y90.114 E0.00954
G1 X116.051 Y89.647 E0.01512
G1 X116.181 Y89.372 E0.00953
G1 X116.464 Y88.983 E0.01509
G1 X116.682 Y88.778 E0.00938
G1 X117.109 Y88.507 E0.01585
G1 X117.585 Y88.353 E0.01568
G1 X117.886 Y88.314 E0.00954
G1 X118.373 Y88.344 E0.01530
G1 X118.645 Y88.414 E0.00880
G1 X118.906 Y88.517 E0.00880
G1 X119.333 Y88.788 E0.01585
G1 X119.679 Y89.157 E0.01585
G1 X119.840 Y89.410 E0.00939
G1 X120.026 Y89.880 E0.01585
G1 X120.084 Y90.340 E0.01456
G1 X119.710 Y90.388 F10800.000
G1 F900
G1 X119.659 Y90.819 E0.01362
G1 X119.588 Y91.036 E0.00715
G1 X119.388 Y91.400 E0.01303
G1 X119.247 Y91.571 E0.00694
G1 X119.085 Y91.722 E0.00694
G1 X118.729 Y91.949 E0.01324
G1 X118.332 Y92.078 E0.01309
G1 X118.101 Y92.108 E0.00730
G1 X117.686 Y92.082 E0.01304
G1 X117.471 Y92.027 E0.00694
G1 X117.266 Y91.945 E0.00694
G1 X116.909 Y91.719 E0.01324
G1 X116.620 Y91.411 E0.01324
G1 X116.498 Y91.218 E0.00715
G1 X116.342 Y90.826 E0.01324
G1 X116.289 Y90.406 E0.01325
G1 X116.304 Y90.174 E0.00730
G1 X116.407 Y89.776 E0.01289
G1 X116.507 Y89.566 E0.00730
G1 X116.748 Y89.234 E0.01288
G1 X116.915 Y89.078 E0.00715
G1 X117.271 Y88.851 E0.01324
G1 X117.668 Y88.722 E0.01309
G1 X117.899 Y88.692 E0.00730
G1 X118.314 Y88.718 E0.01304
G1 X118.529 Y88.773 E0.00694
G1 X118.734 Y88.855 E0.00694
G1 X119.091 Y89.081 E0.01324
G1 X119.380 Y89.389 E0.01324
G1 X119.502 Y89.582 E0.00715
G1 X119.658 Y89.974 E0.01324
G1 X119.703 Y90.328 E0.01118
G1 X120.058 Y90.586 F10800.000
G1 F8640
G1 X119.659 Y90.819 E-0.11379
G1 X119.588 Y91.036 E-0.05266
G1 X119.388 Y91.400 E-0.09599
G1 X119.247 Y91.571 E-0.05113
G1 X119.085 Y91.722 E-0.05113
G1 X118.729 Y91.949 E-0.09751
G1 X118.332 Y92.078 E-0.09637
G1 X118.101 Y92.108 E-0.05376
G1 X117.686 Y92.082 E-0.09606
G1 X117.471 Y92.027 E-0.05113
G1 X117.266 Y91.945 E-0.05113
G1 X116.909 Y91.719 E-0.09753
G1 X116.620 Y91.411 E-0.09753
G1 X116.498 Y91.218 E-0.05266
G1 X116.342 Y90.826 E-0.09753
G1 X116.289 Y90.406 E-0.09760
G1 X116.304 Y90.174 E-0.05376
G1 X116.329 Y90.079 E-0.02273
G1 E-0.07000 F2100.00000
G1 Z0.400 F10800.000
G1 X115.907 Y86.812
G1 Z0.200
G1 E1.40000 F2100.00000
G1 F900
G1 X116.696 Y86.687 E0.02506
G1 X133.327 Y86.691 E0.52145
G1 X134.093 Y86.812 E0.02433
G1 X134.764 Y87.154 E0.02360
G1 X135.296 Y87.686 E0.02360
G1 X135.638 Y88.357 E0.02360
G1 X135.763 Y89.146 E0.02506
G1 X135.763 Y91.654 E0.07862
G1 X135.638 Y92.443 E0.02506
G1 X135.296 Y93.114 E0.02360
G1 X134.764 Y93.646 E0.02360
G1 X134.093 Y93.988 E0.02360
G1 X133.304 Y94.113 E0.02506
G1 X116.696 Y94.113 E0.52072
G1 X115.907 Y93.988 E0.02507
G1 X115.236 Y93.646 E0.02360
G1 X114.704 Y93.114 E0.02360
G1 X114.362 Y92.443 E0.02360
G1 X114.237 Y91.654 E0.02507
G1 X114.237 Y89.146 E0.07862
G1 X114.362 Y88.357 E0.02507
G1 X114.704 Y87.686 E0.02360
G1 X115.236 Y87.154 E0.02360
G1 X115.853 Y86.839 E0.02172
G1 X115.789 Y86.449 F10800.000
G1 F900
G1 X116.667 Y86.310 E0.02787
G1 X133.357 Y86.314 E0.52331
