; generated by PrusaSlicer 2.1.0 on 2019-10-06 at 04:43:24 UTC

; 

; external perimeters extrusion width = 0.45mm
; perimeters extrusion width = 0.45mm
; infill extrusion width = 0.45mm
; solid infill extrusion width = 0.45mm
; top infill extrusion width = 0.40mm
; first layer extrusion width = 0.42mm

M73 P0 R9
M73 Q0 S9
M201 X1000 Y1000 Z1000 E5000 ; sets maximum accelerations, mm/sec^2
M203 X200 Y200 Z12 E120 ; sets maximum feedrates, mm/sec
M204 P1250 R1250 T1250 ; sets acceleration (P, T) and retract acceleration (R), mm/sec^2
M205 X8.00 Y8.00 Z0.40 E1.50 ; sets the jerk limits, mm/sec
M205 S0 T0 ; sets the minimum extruding and travel feed rate, mm/sec
M107
M862.3 P "MK3S" ; printer model check
M862.1 P0.4 ; nozzle diameter check
M115 U3.8.0 ; tell printer latest fw version
G90 ; use absolute coordinates
M83 ; extruder relative mode
M104 S140 ; set extruder to warm-up temp
M140 S85 ; set bed temp
M190 S85 ; wait for bed temp
G28 W ; home all without mesh bed level
G80 ; mesh bed leveling
M104 S240 ; set extruder temp
M109 S240 ; wait for extruder temp
G4 S5 ; wait 5 seconds for temperature to stabilize
G1 Y-3.0 F1000.0 ; go outside print area
G92 E0.0
G1 X60.0 E9.0 F1000.0 ; intro line
M73 Q1 S9
M73 P1 R8
G1 X100.0 E12.5 F1000.0 ; intro line
G92 E0.0
M221 S95
G21 ; set units to millimeters
G90 ; use absolute coordinates
M83 ; use relative distances for extrusion
M900 K45 ; Filament gcode
;BEFORE_LAYER_CHANGE
G92 E0.0
;0.2


G1 E-1.40000 F2100.00000
G1 Z0.200 F10800.000
;AFTER_LAYER_CHANGE
;0.2
G1 Z0.400
G1 X102.520 Y91.120
G1 Z0.200
G1 E1.40000 F2100.00000
M204 S1000
G1 F900
G1 X103.947 Y89.676 E0.06365
G1 X104.993 Y88.775 E0.04329
G1 X106.113 Y87.967 E0.04329
G1 X107.315 Y87.250 E0.04391
G1 X109.267 Y86.270 E0.06849
G1 X110.656 Y85.731 E0.04669
G1 X112.078 Y85.326 E0.04638
G1 X114.507 Y84.902 E0.07732
G1 X116.227 Y84.763 E0.05410
G1 X133.360 Y84.757 E0.53718
G1 X135.728 Y84.936 E0.07447
G1 X137.499 Y85.233 E0.05629
G1 X138.913 Y85.593 E0.04576
G1 X141.128 Y86.451 E0.07447
G1 X142.761 Y87.285 E0.05750
G1 X143.869 Y87.950 E0.04051
G1 X145.839 Y89.478 E0.07817
G1 X148.005 Y91.710 E0.09751
G1 X149.386 Y93.642 E0.07447
G1 X150.703 Y96.148 E0.08878
G1 X151.210 Y97.401 E0.04236
G1 X151.607 Y98.682 E0.04205
G1 X152.166 Y101.693 E0.09602
G1 X152.292 Y103.601 E0.05997
G1 X152.289 Y106.625 E0.09483
G1 X152.204 Y107.984 E0.04267
G1 X151.754 Y110.734 E0.08737
G1 X151.075 Y112.958 E0.07293
G1 X149.733 Y115.771 E0.09772
G1 X148.403 Y117.798 E0.07601
G1 X147.297 Y119.084 E0.05317
G1 X145.566 Y120.763 E0.07563
G1 X144.178 Y121.837 E0.05503
G1 X142.680 Y122.752 E0.05503
G1 X140.688 Y123.750 E0.06986
G1 X138.913 Y124.407 E0.05935
G1 X137.160 Y124.833 E0.05657
G1 X134.659 Y125.189 E0.07919
G1 X133.398 Y125.243 E0.03958
G1 X116.591 Y125.243 E0.52697
G1 X114.594 Y125.110 E0.06274
G1 X112.001 Y124.655 E0.08255
G1 X109.831 Y123.967 E0.07139
G1 X107.110 Y122.644 E0.09486
G1 X105.152 Y121.352 E0.07354
G1 X103.894 Y120.274 E0.05194
G1 X102.265 Y118.605 E0.07314
G1 X101.226 Y117.290 E0.05256
G1 X100.326 Y115.864 E0.05286
G1 X99.301 Y113.862 E0.07051
G1 X98.650 Y112.201 E0.05595
G1 X98.189 Y110.477 E0.05595
G1 X97.829 Y108.260 E0.07042
G1 X97.714 Y106.627 E0.05132
G1 X97.726 Y102.924 E0.11612
G1 X97.872 Y101.412 E0.04761
G1 X98.270 Y99.161 E0.07169
G1 X98.754 Y97.504 E0.05410
G1 X99.410 Y95.919 E0.05379
G1 X100.474 Y93.868 E0.07245
G1 X101.584 Y92.227 E0.06213
G1 X102.481 Y91.166 E0.04357
G1 X102.769 Y91.412 F10800.000
G1 F900
G1 X104.261 Y89.900 E0.06660
G1 X105.283 Y89.026 E0.04216
G1 X106.377 Y88.245 E0.04216
G1 X107.535 Y87.560 E0.04216
G1 X109.475 Y86.590 E0.06802
G1 X110.831 Y86.070 E0.04552
G1 X112.229 Y85.678 E0.04552
G1 X114.582 Y85.272 E0.07486
G1 X116.252 Y85.139 E0.05254
G1 X133.360 Y85.134 E0.53640
G1 X135.671 Y85.308 E0.07267
G1 X137.422 Y85.602 E0.05566
G1 X138.810 Y85.956 E0.04491
G1 X140.970 Y86.794 E0.07267
G1 X142.585 Y87.618 E0.05685
G1 X143.679 Y88.276 E0.04002
G1 X145.601 Y89.771 E0.07633
G1 X147.738 Y91.979 E0.09638
G1 X149.082 Y93.868 E0.07267
G1 X150.380 Y96.349 E0.08780
G1 X150.870 Y97.570 E0.04125
G1 X151.255 Y98.828 E0.04125
G1 X151.798 Y101.786 E0.09431
G1 X151.915 Y103.633 E0.05803
G1 X151.912 Y106.631 E0.09401
G1 X151.822 Y108.002 E0.04308
G1 X151.377 Y110.691 E0.08544
G1 X150.698 Y112.886 E0.07206
G1 X149.366 Y115.655 E0.09634
G1 X148.034 Y117.658 E0.07541
G1 X146.972 Y118.878 E0.05071
G1 X145.257 Y120.531 E0.07471
G1 X143.895 Y121.573 E0.05376
G1 X142.436 Y122.455 E0.05346
G1 X140.498 Y123.421 E0.06789
G1 X138.752 Y124.062 E0.05834
G1 X137.037 Y124.472 E0.05529
G1 X134.556 Y124.819 E0.07854
G1 X116.582 Y124.865 E0.56357
G1 X114.628 Y124.734 E0.06139
G1 X112.074 Y124.285 E0.08130
G1 X109.922 Y123.598 E0.07084
G1 X107.236 Y122.283 E0.09377
G1 X105.293 Y120.985 E0.07328
G1 X104.101 Y119.950 E0.04949
G1 X102.495 Y118.296 E0.07229
G1 X101.482 Y116.998 E0.05162
G1 X100.616 Y115.609 E0.05132
G1 X99.623 Y113.662 E0.06853
G1 X98.990 Y112.027 E0.05498
G1 X98.546 Y110.340 E0.05468
G1 X98.193 Y108.130 E0.07017
G1 X98.090 Y106.584 E0.04857
G1 X98.105 Y102.903 E0.11541
G1 X98.251 Y101.430 E0.04644
G1 X98.652 Y99.186 E0.07147
G1 X99.131 Y97.570 E0.05285
G1 X99.782 Y96.015 E0.05285
G1 X100.836 Y93.998 E0.07136
G1 X101.953 Y92.367 E0.06200
G1 X102.730 Y91.458 E0.03750
G1 F8640
G1 X104.261 Y89.900 E-0.50430
G1 X105.283 Y89.026 E-0.31049
G1 X106.377 Y88.245 E-0.31049
G1 X107.141 Y87.794 E-0.20472
G1 E-0.07000 F2100.00000
G1 Z0.400 F10800.000
G1 X101.196 Y94.130
G1 Z0.200
G1 E1.40000 F2100.00000
G1 F900
G1 X102.326 Y92.501 E0.06214
G1 X103.178 Y91.520 E0.04074
G1 X104.580 Y90.118 E0.06217
G1 X105.580 Y89.273 E0.04104
G1 X106.650 Y88.518 E0.04104
G1 X107.763 Y87.866 E0.04044
G1 X109.682 Y86.911 E0.06722
G1 X111.014 Y86.407 E0.04466
G1 X112.388 Y86.029 E0.04466
G1 X114.665 Y85.642 E0.07242
G1 X116.277 Y85.516 E0.05069
G1 X133.360 Y85.511 E0.53563
G1 X135.614 Y85.681 E0.07088
G1 X137.344 Y85.971 E0.05502
G1 X138.706 Y86.318 E0.04406
G1 X140.822 Y87.141 E0.07118
G1 X142.418 Y87.956 E0.05618
G1 X143.489 Y88.603 E0.03923
G1 X145.369 Y90.070 E0.07479
G1 X147.471 Y92.248 E0.09491
G1 X148.782 Y94.102 E0.07118
G1 X150.060 Y96.557 E0.08680
G1 X150.533 Y97.747 E0.04014
G1 X150.903 Y98.973 E0.04014
G1 X151.430 Y101.888 E0.09289
G1 X151.539 Y103.674 E0.05612
G1 X151.535 Y106.647 E0.09319
G1 X151.440 Y108.029 E0.04346
G1 X150.996 Y110.666 E0.08383
G1 X150.318 Y112.822 E0.07088
G1 X148.999 Y115.537 E0.09464
G1 X147.660 Y117.523 E0.07509
G1 X146.641 Y118.677 E0.04828
G1 X144.949 Y120.298 E0.07346
G1 X143.622 Y121.303 E0.05220
G1 X142.184 Y122.161 E0.05250
G1 X140.301 Y123.096 E0.06593
G1 X138.582 Y123.719 E0.05732
G1 X136.924 Y124.109 E0.05341
G1 X134.454 Y124.448 E0.07816
G1 X116.583 Y124.488 E0.56035
G1 X114.663 Y124.358 E0.06034
G1 X112.139 Y123.913 E0.08035
G1 X110.015 Y123.228 E0.06997
G1 X107.364 Y121.922 E0.09265
G1 X105.429 Y120.612 E0.07329
G1 X104.302 Y119.620 E0.04708
G1 X102.721 Y117.980 E0.07142
G1 X101.745 Y116.715 E0.05009
G1 X100.902 Y115.347 E0.05039
G1 X99.943 Y113.453 E0.06656
G1 X99.327 Y111.844 E0.05401
G1 X98.903 Y110.204 E0.05310
G1 X98.557 Y107.993 E0.07019
G1 X98.467 Y106.542 E0.04557
G1 X98.484 Y102.874 E0.11500
G1 X98.629 Y101.448 E0.04496
G1 X99.036 Y99.203 E0.07152
G1 X99.514 Y97.619 E0.05190
G1 X100.158 Y96.104 E0.05160
G1 X101.168 Y94.183 E0.06807
G1 F8640
G1 X102.326 Y92.501 E-0.47141
G1 X103.178 Y91.520 E-0.30004
G1 X104.580 Y90.118 E-0.45787
G1 X104.913 Y89.836 E-0.10069
G1 E-0.07000 F2100.00000
G1 Z0.400 F10800.000
G1 X129.908 Y105.000
G1 Z0.200
G1 E1.40000 F2100.00000
G1 F900
G1 X129.972 Y104.498 E0.01585
G1 X130.064 Y104.214 E0.00939
G1 X130.299 Y103.787 E0.01527
G1 X130.478 Y103.570 E0.00880
G1 X130.682 Y103.378 E0.00880
G1 X131.109 Y103.107 E0.01585
G1 X131.585 Y102.953 E0.01568
G1 X131.886 Y102.913 E0.00954
G1 X132.373 Y102.944 E0.01530
G1 X132.645 Y103.014 E0.00880
G1 X132.906 Y103.117 E0.00880
G1 X133.318 Y103.378 E0.01527
G1 X133.536 Y103.583 E0.00939
G1 X133.833 Y103.992 E0.01585
G1 X134.026 Y104.480 E0.01644
G1 X134.092 Y105.000 E0.01644
G1 X134.028 Y105.502 E0.01585
G1 X133.941 Y105.770 E0.00883
G1 X133.819 Y106.028 E0.00896
G1 X133.536 Y106.417 E0.01509
G1 X133.318 Y106.622 E0.00938
G1 X132.891 Y106.893 E0.01585
G1 X132.415 Y107.047 E0.01568
G1 X132.114 Y107.086 E0.00954
G1 X131.627 Y107.056 E0.01530
G1 X131.355 Y106.986 E0.00880
G1 X131.094 Y106.883 E0.00880
G1 X130.667 Y106.612 E0.01585
G1 X130.321 Y106.243 E0.01585
G1 X130.160 Y105.990 E0.00939
G1 X129.974 Y105.520 E0.01585
G1 X129.916 Y105.060 E0.01456
G1 X130.290 Y105.012 F10800.000
G1 F900
G1 X130.341 Y104.581 E0.01362
G1 X130.412 Y104.364 E0.00715
G1 X130.612 Y104.000 E0.01303
G1 X130.753 Y103.829 E0.00694
G1 X130.915 Y103.678 E0.00694
G1 X131.271 Y103.451 E0.01324
G1 X131.668 Y103.322 E0.01309
G1 X131.899 Y103.292 E0.00730
G1 X132.314 Y103.318 E0.01304
G1 X132.529 Y103.373 E0.00694
G1 X132.734 Y103.455 E0.00694
G1 X133.085 Y103.678 E0.01303
G1 X133.252 Y103.834 E0.00715
G1 X133.500 Y104.175 E0.01324
G1 X133.658 Y104.574 E0.01345
G1 X133.712 Y105.000 E0.01345
G1 X133.659 Y105.419 E0.01324
G1 X133.590 Y105.630 E0.00695
G1 X133.493 Y105.834 E0.00709
G1 X133.252 Y106.166 E0.01288
G1 X133.085 Y106.322 E0.00715
G1 X132.729 Y106.549 E0.01324
G1 X132.332 Y106.678 E0.01309
G1 X132.101 Y106.708 E0.00730
G1 X131.686 Y106.682 E0.01304
G1 X131.471 Y106.627 E0.00694
G1 X131.266 Y106.545 E0.00694
G1 X130.909 Y106.319 E0.01324
G1 X130.620 Y106.011 E0.01324
G1 X130.498 Y105.818 E0.00715
G1 X130.342 Y105.426 E0.01324
G1 X130.297 Y105.072 E0.01118
G1 X129.942 Y104.814 F10800.000
G1 F8640
G1 X130.341 Y104.581 E-0.11379
G1 X130.412 Y104.364 E-0.05266
G1 X130.612 Y104.000 E-0.09599
G1 X130.753 Y103.829 E-0.05113
G1 X130.915 Y103.678 E-0.05113
G1 X131.271 Y103.451 E-0.09751
G1 X131.668 Y103.322 E-0.09637
G1 X131.899 Y103.292 E-0.05376
G1 X132.314 Y103.318 E-0.09606
G1 X132.529 Y103.373 E-0.05113
G1 X132.734 Y103.455 E-0.05113
G1 X133.085 Y103.678 E-0.09599
G1 X133.252 Y103.834 E-0.05266
G1 X133.500 Y104.175 E-0.09753
G1 X133.658 Y104.574 E-0.09907
G1 X133.712 Y105.000 E-0.09907
G1 X133.671 Y105.322 E-0.07502
G1 E-0.07000 F2100.00000
G1 Z0.400 F10800.000
G1 X127.026 Y104.480
G1 Z0.200
G1 E1.40000 F2100.00000
G1 F900
G1 X127.089 Y104.981 E0.01585
G1 X127.071 Y105.280 E0.00939
G1 X126.949 Y105.752 E0.01527
G1 X126.822 Y106.023 E0.00939
G1 X126.536 Y106.417 E0.01527
G1 X126.318 Y106.622 E0.00939
G1 X125.891 Y106.893 E0.01585
G1 X125.410 Y107.049 E0.01585
G1 X125.113 Y107.086 E0.00939
G1 X124.627 Y107.056 E0.01527
G1 X124.355 Y106.986 E0.00880
G1 X124.094 Y106.883 E0.00880
G1 X123.667 Y106.612 E0.01585
G1 X123.320 Y106.242 E0.01588
G1 X123.158 Y105.985 E0.00955
G1 X122.974 Y105.520 E0.01567
G1 X122.911 Y105.019 E0.01585
G1 X122.929 Y104.720 E0.00939
G1 X123.051 Y104.248 E0.01527
G1 X123.178 Y103.977 E0.00939
G1 X123.464 Y103.583 E0.01527
G1 X123.682 Y103.378 E0.00939
G1 X124.109 Y103.107 E0.01585
G1 X124.590 Y102.951 E0.01585
G1 X124.887 Y102.914 E0.00939
G1 X125.373 Y102.944 E0.01527
G1 X125.645 Y103.014 E0.00880
G1 X125.906 Y103.117 E0.00880
G1 X126.333 Y103.388 E0.01585
G1 X126.680 Y103.758 E0.01588
G1 X126.842 Y104.015 E0.00955
G1 X127.004 Y104.424 E0.01379
G1 X126.653 Y104.563 F10800.000
G1 F900
G1 X126.711 Y104.993 E0.01362
G1 X126.697 Y105.221 E0.00715
G1 X126.593 Y105.624 E0.01303
G1 X126.496 Y105.830 E0.00715
G1 X126.252 Y106.166 E0.01303
G1 X126.085 Y106.322 E0.00715
G1 X125.729 Y106.549 E0.01324
G1 X125.327 Y106.679 E0.01324
G1 X125.101 Y106.708 E0.00715
G1 X124.686 Y106.682 E0.01303
G1 X124.471 Y106.627 E0.00694
G1 X124.266 Y106.545 E0.00694
G1 X123.909 Y106.319 E0.01324
G1 X123.620 Y106.011 E0.01325
G1 X123.495 Y105.814 E0.00731
G1 X123.342 Y105.426 E0.01308
G1 X123.289 Y105.007 E0.01324
G1 X123.303 Y104.779 E0.00715
G1 X123.407 Y104.376 E0.01303
G1 X123.504 Y104.170 E0.00715
G1 X123.748 Y103.834 E0.01303
G1 X123.915 Y103.678 E0.00715
G1 X124.271 Y103.451 E0.01324
G1 X124.673 Y103.321 E0.01324
G1 X124.899 Y103.292 E0.00715
G1 X125.314 Y103.318 E0.01303
G1 X125.529 Y103.373 E0.00694
G1 X125.734 Y103.455 E0.00694
G1 X126.091 Y103.681 E0.01324
G1 X126.380 Y103.989 E0.01325
G1 X126.505 Y104.186 E0.00731
G1 X126.631 Y104.507 E0.01080
G1 X127.037 Y104.676 F10800.000
G1 F8640
G1 X126.711 Y104.993 E-0.11381
G1 X126.697 Y105.221 E-0.05266
G1 X126.593 Y105.624 E-0.09599
G1 X126.496 Y105.830 E-0.05266
G1 X126.252 Y106.166 E-0.09599
G1 X126.085 Y106.322 E-0.05266
G1 X125.729 Y106.549 E-0.09753
G1 X125.327 Y106.679 E-0.09753
G1 X125.101 Y106.708 E-0.05266
G1 X124.686 Y106.682 E-0.09599
G1 X124.471 Y106.627 E-0.05113
G1 X124.266 Y106.545 E-0.05113
G1 X123.909 Y106.319 E-0.09753
G1 X123.620 Y106.011 E-0.09761
G1 X123.495 Y105.814 E-0.05382
G1 X123.342 Y105.426 E-0.09631
G1 X123.301 Y105.103 E-0.07500
G1 E-0.07000 F2100.00000
G1 Z0.400 F10800.000
G1 X120.092 Y105.000
G1 Z0.200
G1 E1.40000 F2100.00000
G1 F900
G1 X120.028 Y105.502 E0.01585
G1 X119.936 Y105.786 E0.00939
G1 X119.701 Y106.213 E0.01527
G1 X119.522 Y106.429 E0.00880
G1 X119.318 Y106.622 E0.00880
G1 X118.891 Y106.893 E0.01585
G1 X118.415 Y107.047 E0.01568
G1 X118.114 Y107.086 E0.00954
G1 X117.627 Y107.056 E0.01530
G1 X117.355 Y106.986 E0.00880
G1 X117.094 Y106.883 E0.00880
G1 X116.667 Y106.612 E0.01586
G1 X116.321 Y106.243 E0.01585
G1 X116.160 Y105.990 E0.00939
G1 X115.974 Y105.520 E0.01585
G1 X115.910 Y105.018 E0.01588
G1 X115.931 Y104.714 E0.00954
G1 X116.051 Y104.247 E0.01512
G1 X116.181 Y103.972 E0.00953
G1 X116.464 Y103.583 E0.01509
G1 X116.682 Y103.378 E0.00938
G1 X117.109 Y103.107 E0.01585
G1 X117.585 Y102.953 E0.01568
G1 X117.886 Y102.913 E0.00954
G1 X118.373 Y102.944 E0.01530
G1 X118.645 Y103.014 E0.00880
G1 X118.906 Y103.117 E0.00880
G1 X119.333 Y103.388 E0.01585
G1 X119.679 Y103.757 E0.01585
G1 X119.840 Y104.010 E0.00939
G1 X120.026 Y104.480 E0.01585
G1 X120.084 Y104.940 E0.01456
G1 X119.710 Y104.988 F10800.000
G1 F900
G1 X119.659 Y105.419 E0.01362
G1 X119.588 Y105.636 E0.00715
G1 X119.388 Y106.000 E0.01303
G1 X119.247 Y106.171 E0.00694
G1 X119.085 Y106.322 E0.00694
G1 X118.729 Y106.549 E0.01324
G1 X118.332 Y106.678 E0.01309
G1 X118.101 Y106.708 E0.00730
G1 X117.686 Y106.682 E0.01304
G1 X117.471 Y106.627 E0.00694
G1 X117.266 Y106.545 E0.00694
G1 X116.909 Y106.319 E0.01324
G1 X116.620 Y106.011 E0.01324
G1 X116.498 Y105.818 E0.00715
G1 X116.342 Y105.426 E0.01324
G1 X116.289 Y105.006 E0.01325
G1 X116.304 Y104.774 E0.00730
G1 X116.407 Y104.376 E0.01289
G1 X116.507 Y104.166 E0.00730
G1 X116.748 Y103.834 E0.01288
G1 X116.915 Y103.678 E0.00715
G1 X117.271 Y103.451 E0.01324
G1 X117.668 Y103.322 E0.01309
G1 X117.899 Y103.292 E0.00730
G1 X118.314 Y103.318 E0.01304
G1 X118.529 Y103.373 E0.00694
G1 X118.734 Y103.455 E0.00694
G1 X119.091 Y103.681 E0.01324
G1 X119.380 Y103.989 E0.01324
G1 X119.502 Y104.182 E0.00715
G1 X119.658 Y104.574 E0.01324
G1 X119.703 Y104.928 E0.01118
G1 X120.058 Y105.186 F10800.000
G1 F8640
G1 X119.659 Y105.419 E-0.11379
G1 X119.588 Y105.636 E-0.05266
G1 X119.388 Y106.000 E-0.09599
G1 X119.247 Y106.171 E-0.05113
G1 X119.085 Y106.322 E-0.05113
G1 X118.729 Y106.549 E-0.09751
G1 X118.332 Y106.678 E-0.09637
G1 X118.101 Y106.708 E-0.05376
G1 X117.686 Y106.682 E-0.09606
G1 X117.471 Y106.627 E-0.05113
G1 X117.266 Y106.545 E-0.05113
G1 X116.909 Y106.319 E-0.09753
G1 X116.620 Y106.011 E-0.09753
G1 X116.498 Y105.818 E-0.05266
G1 X116.342 Y105.426 E-0.09753
G1 X116.289 Y105.006 E-0.09760
G1 X116.304 Y104.774 E-0.05376
G1 X116.329 Y104.679 E-0.02273
G1 E-0.07000 F2100.00000
G1 Z0.400 F10800.000
G1 X115.909 Y101.412
G1 Z0.200
G1 E1.40000 F2100.00000
G1 F900
G1 X116.696 Y101.287 E0.02499
G1 X133.327 Y101.291 E0.52145
G1 X134.093 Y101.412 E0.02433
G1 X134.764 Y101.754 E0.02360
G1 X135.296 Y102.286 E0.02360
G1 X135.638 Y102.957 E0.02360
G1 X135.763 Y103.746 E0.02506
G1 X135.763 Y106.254 E0.07862
G1 X135.638 Y107.043 E0.02506
G1 X135.296 Y107.714 E0.02360
G1 X134.779 Y108.231 E0.02293
G1 X134.091 Y108.588 E0.02430
G1 X133.304 Y108.713 E0.02499
G1 X116.696 Y108.713 E0.52072
G1 X115.907 Y108.588 E0.02507
G1 X115.236 Y108.246 E0.02360
G1 X114.704 Y107.714 E0.02360
