; generated by Slic3r Prusa Edition 1.41.1 on 2018-11-17 at 17:49:31

; 

; external perimeters extrusion width = 0.45mm
; perimeters extrusion width = 0.45mm
; infill extrusion width = 0.45mm
; solid infill extrusion width = 0.45mm
; top infill extrusion width = 0.40mm
; first layer extrusion width = 0.42mm

M73 P0 R22
M73 Q0 S23
M201 X1000 Y1000 Z1000 E5000 ; sets maximum accelerations, mm/sec^2
M203 X200 Y200 Z12 E120 ; sets maximum feedrates, mm/sec
M204 P1250 R1250 T1250 ; sets acceleration (P, T) and retract acceleration (R), mm/sec^2
M205 X8.00 Y8.00 Z0.40 E1.50 ; sets the jerk limits, mm/sec
M205 S0 T0 ; sets the minimum extruding and travel feed rate, mm/sec
M107
M115 U3.4.0 ; tell printer latest fw version
M83  ; extruder relative mode
M104 S140 ; set extruder to warm-up temp
M140 S0 ; set bed temp
M190 S0 ; wait for bed temp
G28 W ; home all without mesh bed level
G80 ; mesh bed leveling
M104 S230 ; set extruder temp
M109 S230 ; wait for extruder temp
G1 Y-3.0 F1000.0 ; go outside print area
G92 E0.0
G1 X60.0 E9.0  F1000.0 ; intro line
M73 Q0 S23
M73 P0 R22
G1 X100.0 E12.5  F1000.0 ; intro line
G92 E0.0
M221 S95
M900 K10; Filament gcode
G21 ; set units to millimeters
G90 ; use absolute coordinates
M83 ; use relative distances for extrusion
;BEFORE_LAYER_CHANGE
G92 E0.0
;0.2


G1 E-2.00000 F2100.00000
G1 Z0.200 F10800.000
;AFTER_LAYER_CHANGE
;0.2
G1 X136.708 Y128.291
G1 E2.00000 F2100.00000
M204 S20
G1 F1800
G1 X137.747 Y127.033 E0.05115
G1 X169.164 Y94.365 E1.42108
G1 X170.078 Y93.500 E0.03947
G1 X171.651 Y92.362 E0.06086
G1 X172.798 Y91.742 E0.04090
G1 X174.103 Y91.222 E0.04403
G1 X175.874 Y90.780 E0.05725
G1 X177.153 Y90.627 E0.04039
G1 X178.394 Y90.617 E0.03891
G1 X180.120 Y90.805 E0.05443
G1 X181.645 Y91.192 E0.04932
G1 X183.106 Y91.775 E0.04933
G1 X184.613 Y92.637 E0.05443
G1 X185.608 Y93.370 E0.03874
G1 X186.519 Y94.213 E0.03891
G1 X187.563 Y95.423 E0.05013
G1 X188.498 Y96.868 E0.05395
G1 X189.219 Y98.453 E0.05460
G1 X189.656 Y99.892 E0.04716
G1 X195.839 Y130.927 E0.99221
G1 X195.932 Y132.630 E0.05345
G1 X195.696 Y134.424 E0.05675
G1 X195.139 Y136.115 E0.05580
G1 X194.242 Y137.724 E0.05777
G1 X193.039 Y139.145 E0.05838
G1 X192.232 Y139.847 E0.03354
G1 X191.333 Y140.464 E0.03417
G1 X189.620 Y141.284 E0.05955
G1 X187.793 Y141.745 E0.05908
G1 X147.328 Y147.363 E1.28093
G1 X145.523 Y147.347 E0.05658
G1 X144.251 Y147.177 E0.04024
G1 X143.027 Y146.872 E0.03957
G1 X141.380 Y146.246 E0.05526
G1 X139.863 Y145.390 E0.05460
G1 X138.817 Y144.620 E0.04073
G1 X137.849 Y143.722 E0.04139
G1 X136.593 Y142.188 E0.06217
G1 X135.916 Y141.098 E0.04024
G1 X135.291 Y139.764 E0.04619
G1 X134.834 Y138.363 E0.04619
G1 X134.580 Y137.095 E0.04056
G1 X134.450 Y135.105 E0.06251
G1 X134.543 Y133.789 E0.04139
G1 X134.808 Y132.388 E0.04470
G1 X135.396 Y130.643 E0.05773
G1 X135.952 Y129.487 E0.04023
G1 X136.676 Y128.341 E0.04249
M204 S1000
G1 X136.995 Y128.543 F10800.000
M204 S20
G1 F1800
G1 X138.021 Y127.291 E0.05076
G1 X169.435 Y94.627 E1.42094
G1 X170.322 Y93.788 E0.03828
G1 X171.837 Y92.690 E0.05866
G1 X172.960 Y92.083 E0.04001
G1 X174.229 Y91.577 E0.04285
G1 X175.932 Y91.153 E0.05503
G1 X177.179 Y91.003 E0.03937
G1 X178.394 Y90.994 E0.03810
G1 X180.053 Y91.176 E0.05234
G1 X181.530 Y91.551 E0.04776
G1 X182.940 Y92.114 E0.04761
G1 X184.394 Y92.944 E0.05249
G1 X185.369 Y93.662 E0.03795
G1 X186.260 Y94.488 E0.03810
G1 X187.267 Y95.656 E0.04838
G1 X188.166 Y97.046 E0.05188
G1 X188.864 Y98.579 E0.05281
G1 X189.287 Y99.968 E0.04553
G1 X195.464 Y130.966 E0.99104
G1 X195.555 Y132.612 E0.05167
G1 X195.329 Y134.336 E0.05452
G1 X194.795 Y135.960 E0.05360
G1 X193.926 Y137.518 E0.05596
G1 X192.779 Y138.871 E0.05560
G1 X192.000 Y139.550 E0.03239
G1 X191.133 Y140.145 E0.03299
G1 X189.491 Y140.929 E0.05703
G1 X187.742 Y141.371 E0.05658
G1 X147.305 Y146.986 E1.28003
G1 X145.565 Y146.972 E0.05456
G1 X144.321 Y146.807 E0.03937
G1 X143.122 Y146.507 E0.03873
G1 X141.539 Y145.904 E0.05313
G1 X140.071 Y145.076 E0.05282
G1 X139.056 Y144.328 E0.03953
G1 X138.114 Y143.453 E0.04032
G1 X136.909 Y141.983 E0.05960
G1 X136.249 Y140.921 E0.03922
G1 X135.641 Y139.624 E0.04492
G1 X135.198 Y138.267 E0.04476
G1 X134.950 Y137.020 E0.03984
G1 X134.827 Y135.118 E0.05976
G1 X134.917 Y133.835 E0.04032
G1 X135.177 Y132.468 E0.04365
G1 X135.741 Y130.795 E0.05534
G1 X136.282 Y129.668 E0.03921
G1 X136.963 Y128.594 E0.03987
M204 S1000
; PURGING FINISHED
G1 F8640
G1 X138.021 Y127.291 E-0.38760
G1 X142.562 Y122.570 E-1.51240
G1 E-0.10000 F2100.00000
G1 X160.257 Y119.885 F10800.000
G1 E2.00000 F2100.00000
M204 S20
G1 F1800
G1 X160.167 Y119.605 E0.00921
G1 X160.112 Y119.317 E0.00921
G1 X160.093 Y119.024 E0.00921
G1 X160.112 Y118.731 E0.00921
G1 X160.167 Y118.442 E0.00921
G1 X160.257 Y118.163 E0.00921
G1 X160.382 Y117.897 E0.00921
G1 X160.540 Y117.649 E0.00921
G1 X160.727 Y117.423 E0.00921
G1 X160.941 Y117.222 E0.00921
G1 X161.179 Y117.049 E0.00921
G1 X161.436 Y116.908 E0.00921
G1 X161.709 Y116.799 E0.00921
G1 X161.994 Y116.726 E0.00921
G1 X162.285 Y116.690 E0.00921
G1 X162.579 Y116.690 E0.00921
G1 X162.870 Y116.726 E0.00921
G1 X163.155 Y116.799 E0.00921
G1 X163.428 Y116.908 E0.00921
G1 X163.685 Y117.049 E0.00921
G1 X163.923 Y117.222 E0.00921
G1 X164.137 Y117.423 E0.00921
G1 X164.324 Y117.649 E0.00921
G1 X164.481 Y117.897 E0.00921
G1 X164.606 Y118.163 E0.00921
G1 X164.697 Y118.442 E0.00921
G1 X164.752 Y118.731 E0.00921
G1 X164.771 Y119.024 E0.00921
G1 X164.752 Y119.317 E0.00921
G1 X164.697 Y119.605 E0.00921
G1 X164.606 Y119.885 E0.00921
G1 X164.481 Y120.150 E0.00921
G1 X164.324 Y120.398 E0.00921
G1 X164.137 Y120.625 E0.00921
G1 X163.923 Y120.826 E0.00921
G1 X163.685 Y120.998 E0.00921
G1 X163.428 Y121.140 E0.00921
G1 X163.155 Y121.248 E0.00921
G1 X162.870 Y121.321 E0.00921
G1 X162.579 Y121.358 E0.00921
G1 X162.285 Y121.358 E0.00921
G1 X161.994 Y121.321 E0.00921
G1 X161.709 Y121.248 E0.00921
G1 X161.436 Y121.140 E0.00921
G1 X161.179 Y120.998 E0.00921
G1 X160.941 Y120.826 E0.00921
G1 X160.727 Y120.625 E0.00921
G1 X160.540 Y120.398 E0.00921
G1 X160.382 Y120.150 E0.00921
G1 X160.283 Y119.939 E0.00733
M204 S1000
G1 X160.624 Y119.778 F10800.000
M204 S20
G1 F1800
G1 X160.533 Y119.511 E0.00885
G1 X160.486 Y119.269 E0.00772
G1 X160.471 Y119.024 E0.00772
G1 X160.486 Y118.778 E0.00772
G1 X160.533 Y118.536 E0.00772
G1 X160.609 Y118.302 E0.00772
G1 X160.714 Y118.079 E0.00772
G1 X160.845 Y117.871 E0.00772
G1 X161.002 Y117.681 E0.00772
G1 X161.182 Y117.513 E0.00772
G1 X161.381 Y117.368 E0.00772
G1 X161.597 Y117.249 E0.00772
G1 X161.826 Y117.159 E0.00772
G1 X162.064 Y117.098 E0.00772
G1 X162.309 Y117.067 E0.00772
G1 X162.555 Y117.067 E0.00772
G1 X162.799 Y117.098 E0.00772
G1 X163.038 Y117.159 E0.00772
G1 X163.267 Y117.249 E0.00772
G1 X163.483 Y117.368 E0.00772
G1 X163.682 Y117.513 E0.00772
G1 X163.861 Y117.681 E0.00772
G1 X164.018 Y117.871 E0.00772
G1 X164.150 Y118.079 E0.00772
G1 X164.255 Y118.302 E0.00772
G1 X164.331 Y118.536 E0.00772
G1 X164.377 Y118.778 E0.00772
G1 X164.393 Y119.024 E0.00772
G1 X164.377 Y119.269 E0.00772
G1 X164.331 Y119.511 E0.00772
G1 X164.255 Y119.746 E0.00772
G1 X164.150 Y119.968 E0.00772
G1 X164.018 Y120.176 E0.00772
G1 X163.861 Y120.366 E0.00772
G1 X163.682 Y120.535 E0.00772
G1 X163.483 Y120.679 E0.00772
G1 X163.267 Y120.798 E0.00772
G1 X163.038 Y120.889 E0.00772
G1 X162.799 Y120.950 E0.00772
G1 X162.555 Y120.981 E0.00772
G1 X162.309 Y120.981 E0.00772
G1 X162.064 Y120.950 E0.00772
G1 X161.826 Y120.889 E0.00772
G1 X161.597 Y120.798 E0.00772
G1 X161.381 Y120.679 E0.00772
G1 X161.182 Y120.535 E0.00772
G1 X161.002 Y120.366 E0.00772
G1 X160.845 Y120.176 E0.00772
G1 X160.650 Y119.833 E0.01240
M204 S1000
G1 X160.344 Y119.747 F10800.000
G1 F8640
G1 X160.533 Y119.511 E-0.07897
G1 X160.486 Y119.269 E-0.05686
G1 X160.471 Y119.024 E-0.05686
G1 X160.486 Y118.778 E-0.05686
G1 X160.533 Y118.536 E-0.05686
G1 X160.609 Y118.302 E-0.05686
G1 X160.714 Y118.079 E-0.05685
G1 X160.845 Y117.871 E-0.05686
G1 X161.002 Y117.681 E-0.05686
G1 X161.182 Y117.513 E-0.05686
G1 X161.381 Y117.368 E-0.05686
G1 X161.597 Y117.249 E-0.05686
G1 X161.826 Y117.159 E-0.05686
G1 X162.064 Y117.098 E-0.05685
G1 X162.309 Y117.067 E-0.05686
G1 X162.555 Y117.067 E-0.05686
G1 X162.799 Y117.098 E-0.05686
G1 X163.038 Y117.159 E-0.05685
G1 X163.267 Y117.249 E-0.05686
G1 X163.483 Y117.368 E-0.05686
G1 X163.682 Y117.513 E-0.05686
G1 X163.861 Y117.681 E-0.05686
G1 X164.018 Y117.871 E-0.05686
G1 X164.150 Y118.079 E-0.05686
G1 X164.255 Y118.302 E-0.05686
G1 X164.331 Y118.536 E-0.05686
G1 X164.377 Y118.778 E-0.05686
G1 X164.393 Y119.024 E-0.05686
G1 X164.377 Y119.269 E-0.05686
G1 X164.331 Y119.511 E-0.05686
G1 X164.255 Y119.746 E-0.05686
G1 X164.150 Y119.968 E-0.05686
G1 X164.018 Y120.176 E-0.05686
G1 X164.014 Y120.181 E-0.00150
G1 E-0.10000 F2100.00000
G1 X156.238 Y121.476 F10800.000
G1 E2.00000 F2100.00000
M204 S20
G1 F1800
G1 X155.980 Y120.680 E0.02623
G1 X155.823 Y119.859 E0.02623
G1 X155.771 Y119.024 E0.02623
G1 X155.823 Y118.189 E0.02623
G1 X155.980 Y117.367 E0.02623
G1 X156.238 Y116.571 E0.02623
G1 X156.595 Y115.815 E0.02623
G1 X157.043 Y115.108 E0.02623
G1 X157.576 Y114.464 E0.02623
G1 X158.186 Y113.891 E0.02623
G1 X158.863 Y113.399 E0.02623
G1 X159.596 Y112.996 E0.02623
G1 X160.373 Y112.688 E0.02623
G1 X161.184 Y112.480 E0.02623
G1 X162.014 Y112.376 E0.02623
G1 X162.850 Y112.376 E0.02623
G1 X163.680 Y112.480 E0.02623
G1 X164.490 Y112.688 E0.02623
G1 X165.268 Y112.996 E0.02623
G1 X166.001 Y113.399 E0.02623
G1 X166.678 Y113.891 E0.02623
G1 X167.288 Y114.464 E0.02623
G1 X167.821 Y115.108 E0.02623
G1 X168.269 Y115.815 E0.02623
G1 X168.625 Y116.571 E0.02623
G1 X168.884 Y117.367 E0.02623
G1 X169.041 Y118.189 E0.02623
G1 X169.093 Y119.024 E0.02623
G1 X169.041 Y119.859 E0.02623
G1 X168.884 Y120.680 E0.02623
G1 X168.625 Y121.476 E0.02623
G1 X168.269 Y122.233 E0.02623
G1 X167.821 Y122.939 E0.02623
G1 X167.288 Y123.584 E0.02623
G1 X166.678 Y124.156 E0.02623
G1 X166.001 Y124.648 E0.02623
G1 X165.268 Y125.051 E0.02623
G1 X164.490 Y125.359 E0.02623
G1 X163.680 Y125.567 E0.02623
G1 X162.850 Y125.672 E0.02623
G1 X162.014 Y125.672 E0.02623
G1 X161.184 Y125.567 E0.02623
G1 X160.373 Y125.359 E0.02623
G1 X159.596 Y125.051 E0.02623
G1 X158.863 Y124.648 E0.02623
G1 X158.186 Y124.156 E0.02623
G1 X157.576 Y123.584 E0.02623
G1 X157.043 Y122.939 E0.02623
G1 X156.595 Y122.233 E0.02623
G1 X156.264 Y121.530 E0.02435
M204 S1000
G1 X155.923 Y121.691 F10800.000
M204 S20
G1 F1800
G1 X155.614 Y120.774 E0.03032
G1 X155.448 Y119.906 E0.02772
G1 X155.393 Y119.024 E0.02772
G1 X155.448 Y118.141 E0.02772
G1 X155.614 Y117.273 E0.02772
G1 X155.887 Y116.432 E0.02772
G1 X156.263 Y115.633 E0.02772
G1 X156.737 Y114.886 E0.02772
G1 X157.301 Y114.205 E0.02772
G1 X157.945 Y113.600 E0.02772
G1 X158.660 Y113.080 E0.02772
G1 X159.435 Y112.655 E0.02772
G1 X160.257 Y112.329 E0.02772
G1 X161.113 Y112.109 E0.02772
G1 X161.990 Y111.998 E0.02772
G1 X162.874 Y111.998 E0.02772
G1 X163.751 Y112.109 E0.02772
G1 X164.607 Y112.329 E0.02772
G1 X165.429 Y112.655 E0.02772
G1 X166.204 Y113.080 E0.02772
G1 X166.919 Y113.600 E0.02772
G1 X167.563 Y114.205 E0.02772
G1 X168.127 Y114.886 E0.02772
G1 X168.600 Y115.633 E0.02772
G1 X168.977 Y116.432 E0.02772
G1 X169.250 Y117.273 E0.02772
G1 X169.415 Y118.141 E0.02772
G1 X169.471 Y119.024 E0.02772
G1 X169.415 Y119.906 E0.02772
G1 X169.250 Y120.774 E0.02772
G1 X168.977 Y121.615 E0.02772
G1 X168.600 Y122.415 E0.02772
G1 X168.127 Y123.161 E0.02772
G1 X167.563 Y123.842 E0.02772
G1 X166.919 Y124.447 E0.02772
G1 X166.204 Y124.967 E0.02772
G1 X165.429 Y125.393 E0.02772
G1 X164.607 Y125.718 E0.02772
G1 X163.751 Y125.938 E0.02772
G1 X162.874 Y126.049 E0.02772
G1 X161.990 Y126.049 E0.02772
G1 X161.113 Y125.938 E0.02772
G1 X160.257 Y125.718 E0.02772
G1 X159.435 Y125.393 E0.02772
G1 X158.660 Y124.967 E0.02772
G1 X157.945 Y124.447 E0.02772
G1 X157.301 Y123.842 E0.02772
G1 X156.737 Y123.161 E0.02772
G1 X156.263 Y122.415 E0.02772
G1 X155.948 Y121.745 E0.02321
M204 S1000
G1 X156.169 Y121.375 F10800.000
G1 X156.327 Y121.382
M204 S20
G1 F1800
G1 X159.755 Y124.810 E0.15563
G1 X160.461 Y125.089 E0.02439
G1 X160.622 Y125.131 E0.00532
G1 X156.328 Y120.837 E0.19492
G1 X156.254 Y120.610 E0.00768
G1 X156.162 Y120.125 E0.01585
G1 X161.338 Y125.301 E0.23502
G1 X161.963 Y125.380 E0.02022
G1 X156.084 Y119.501 E0.26693
G1 X156.060 Y118.931 E0.01832
G1 X162.518 Y125.389 E0.29321
G1 X162.832 Y125.389 E0.01009
G1 X163.038 Y125.363 E0.00666
G1 X156.092 Y118.417 E0.31535
G1 X156.104 Y118.224 E0.00620
G1 X156.159 Y117.938 E0.00936
G1 X163.523 Y125.302 E0.33433
G1 X163.968 Y125.201 E0.01466
G1 X156.246 Y117.479 E0.35058
G1 X156.376 Y117.063 E0.01400
G1 X164.533 Y125.220 E0.37035
M204 S1000
G1 F8640
G1 X158.715 Y119.402 E-1.90000
G1 E-0.10000 F2100.00000
G1 X158.985 Y124.586 F10800.000
G1 E2.00000 F2100.00000
M204 S20
G1 F1800
G1 X156.897 Y122.498 E0.09481
M204 S1000
G1 F8640
G1 X158.985 Y124.586 E-0.68194
G1 E-1.31806 F2100.00000
G1 X159.558 Y113.146 F10800.000
G1 E2.00000 F2100.00000
M204 S20
G1 F1800
G1 X162.850 Y116.439 E0.14948
G1 X162.597 Y116.407 E0.00820
G1 X162.272 Y116.407 E0.01042
G1 X159.330 Y113.465 E0.13356
G1 X158.982 Y113.662 E0.01286
G1 X161.803 Y116.483 E0.12808
G1 X161.622 Y116.530 E0.00600
G1 X161.393 Y116.620 E0.00788
G1 X158.665 Y113.892 E0.12386
G1 X158.351 Y114.124 E0.01254
G1 X161.033 Y116.806 E0.12178
G1 X160.721 Y117.040 E0.01252
G1 X158.069 Y114.388 E0.12040
G1 X157.788 Y114.653 E0.01240
G1 X160.450 Y117.314 E0.12085
G1 X160.218 Y117.629 E0.01254
G1 X157.540 Y114.951 E0.12157
G1 X157.293 Y115.250 E0.01245
G1 X160.028 Y117.985 E0.12420
G1 X159.888 Y118.391 E0.01379
G1 X157.078 Y115.581 E0.12760
G1 X156.866 Y115.915 E0.01270
G1 X159.820 Y118.868 E0.13410
G1 X159.810 Y119.024 E0.00499
G1 X159.848 Y119.443 E0.01351
G1 X156.687 Y116.282 E0.14350
G1 X156.512 Y116.653 E0.01317
G1 X164.794 Y124.935 E0.37598
G1 X165.181 Y124.776 E0.01344
G1 X162.014 Y121.609 E0.14381
G1 X162.267 Y121.641 E0.00821
G1 X162.592 Y121.641 E0.01042
G1 X165.533 Y124.582 E0.13356
G1 X165.882 Y124.385 E0.01286
G1 X163.061 Y121.564 E0.12808
G1 X163.242 Y121.517 E0.00600
G1 X163.470 Y121.427 E0.00788
G1 X166.198 Y124.155 E0.12386
G1 X166.513 Y123.924 E0.01254
G1 X163.830 Y121.241 E0.12178
G1 X164.142 Y121.007 E0.01252
G1 X166.794 Y123.659 E0.12040
G1 X167.076 Y123.395 E0.01240
G1 X164.414 Y120.733 E0.12084
G1 X164.646 Y120.419 E0.01254
G1 X167.324 Y123.097 E0.12157
G1 X167.571 Y122.798 E0.01245
G1 X164.835 Y120.062 E0.12420
G1 X164.975 Y119.656 E0.01379
G1 X167.786 Y122.467 E0.12760
G1 X167.998 Y122.133 E0.01270
G1 X165.044 Y119.179 E0.13410
G1 X165.054 Y119.024 E0.00500
G1 X165.016 Y118.605 E0.01350
G1 X168.177 Y121.765 E0.14349
G1 X168.351 Y121.394 E0.01317
G1 X160.070 Y113.113 E0.37598
G1 X160.461 Y112.958 E0.01351
G1 X168.488 Y120.984 E0.36442
G1 X168.617 Y120.568 E0.01400
G1 X160.896 Y112.846 E0.35058
G1 X161.341 Y112.746 E0.01466
G1 X168.705 Y120.110 E0.33433
G1 X168.760 Y119.823 E0.00936
G1 X168.772 Y119.630 E0.00620
G1 X161.826 Y112.684 E0.31536
G1 X162.031 Y112.658 E0.00666
G1 X162.346 Y112.658 E0.01009
G1 X168.804 Y119.117 E0.29322
G1 X168.780 Y118.546 E0.01832
G1 X162.900 Y112.667 E0.26694
G1 X163.525 Y112.746 E0.02022
G1 X168.702 Y117.923 E0.23503
G1 X168.609 Y117.438 E0.01585
G1 X168.536 Y117.210 E0.00768
G1 X164.242 Y112.917 E0.19493
G1 X164.403 Y112.958 E0.00533
G1 X165.109 Y113.237 E0.02438
G1 X168.537 Y116.666 E0.15564
M204 S1000
G1 F8640
G1 X165.109 Y113.237 E-1.11943
G1 X164.403 Y112.958 E-0.17536
G1 X164.242 Y112.917 E-0.03832
G1 X165.978 Y114.653 E-0.56689
G1 E-0.10000 F2100.00000
G1 X167.967 Y115.550 F10800.000
G1 E2.00000 F2100.00000
M204 S20
G1 F1800
G1 X165.878 Y113.461 E0.09483
M204 S1000
G1 F8640
G1 X167.967 Y115.550 E-0.68209
G1 E-1.31791 F2100.00000
G1 X176.213 Y104.269 F10800.000
G1 E2.00000 F2100.00000
M204 S20
G1 F1800
G1 X176.026 Y104.043 E0.00921
G1 X175.869 Y103.795 E0.00921
G1 X175.744 Y103.529 E0.00921
G1 X175.653 Y103.250 E0.00921
G1 X175.598 Y102.961 E0.00921
G1 X175.579 Y102.668 E0.00921
G1 X175.598 Y102.375 E0.00921
G1 X175.653 Y102.086 E0.00921
G1 X175.744 Y101.807 E0.00921
G1 X175.869 Y101.541 E0.00921
