; generated by Slic3r Prusa Edition 1.41.1 on 2018-11-16 at 14:18:49

; 

; external perimeters extrusion width = 0.45mm
; perimeters extrusion width = 0.45mm
; infill extrusion width = 0.45mm
; solid infill extrusion width = 0.45mm
; top infill extrusion width = 0.40mm
; first layer extrusion width = 0.42mm

M73 P0 R41
M73 Q0 S41
M201 X1000 Y1000 Z1000 E5000 ; sets maximum accelerations, mm/sec^2
M203 X200 Y200 Z12 E120 ; sets maximum feedrates, mm/sec
M204 P1250 R1250 T1250 ; sets acceleration (P, T) and retract acceleration (R), mm/sec^2
M205 X8.00 Y8.00 Z0.40 E1.50 ; sets the jerk limits, mm/sec
M205 S0 T0 ; sets the minimum extruding and travel feed rate, mm/sec
M107
M115 U3.4.0 ; tell printer latest fw version
M83  ; extruder relative mode
M104 S140 ; set extruder to warm-up temp
M140 S0 ; set bed temp
M190 S0 ; wait for bed temp
G28 W ; home all without mesh bed level
G80 ; mesh bed leveling
M104 S225 ; set extruder temp
M109 S225 ; wait for extruder temp
G1 Y-3.0 F1000.0 ; go outside print area
G92 E0.0
G1 X60.0 E9.0  F1000.0 ; intro line
M73 Q0 S41
M73 P0 R41
G1 X100.0 E12.5  F1000.0 ; intro line
G92 E0.0
M221 S95
M900 K10; Filament gcode
G21 ; set units to millimeters
G90 ; use absolute coordinates
M83 ; use relative distances for extrusion
;BEFORE_LAYER_CHANGE
G92 E0.0
;0.2


G1 E-2.00000 F2100.00000
G1 Z0.200 F10800.000
;AFTER_LAYER_CHANGE
;0.2
G1 X107.366 Y88.052
G1 E2.00000 F2100.00000
M204 S20
G1 F1800
G1 X109.420 Y86.137 E0.08806
G1 X111.889 Y84.344 E0.09568
G1 X114.562 Y82.873 E0.09567
G1 X117.170 Y81.829 E0.08806
G1 X120.643 Y80.930 E0.11249
G1 X123.462 Y80.583 E0.08906
G1 X126.255 Y80.574 E0.08757
G1 X129.835 Y81.023 E0.11314
G1 X132.574 Y81.736 E0.08873
G1 X135.391 Y82.851 E0.09501
G1 X138.344 Y84.502 E0.10606
G1 X140.610 Y86.161 E0.08806
G1 X142.834 Y88.251 E0.09568
G1 X144.780 Y90.601 E0.09567
G1 X146.293 Y92.967 E0.08806
G1 X147.757 Y96.017 E0.10606
G1 X148.693 Y98.899 E0.09501
G1 X149.233 Y101.676 E0.08873
G1 X149.458 Y105.257 E0.11248
G1 X149.273 Y108.065 E0.08823
G1 X148.749 Y110.856 E0.08905
G1 X147.634 Y114.270 E0.11260
G1 X146.430 Y116.803 E0.08795
G1 X144.794 Y119.379 E0.09567
G1 X142.850 Y121.731 E0.09567
G1 X140.795 Y123.676 E0.08872
G1 X137.889 Y125.789 E0.11265
G1 X135.399 Y127.145 E0.08889
G1 X132.587 Y128.259 E0.09484
G1 X129.305 Y129.077 E0.10606
G1 X126.517 Y129.418 E0.08806
G1 X123.492 Y129.419 E0.09485
G1 X120.139 Y128.971 E0.10606
G1 X117.421 Y128.262 E0.08806
G1 X114.585 Y127.138 E0.09567
G1 X111.910 Y125.669 E0.09567
G1 X109.632 Y124.027 E0.08806
G1 X107.152 Y121.734 E0.10590
G1 X105.217 Y119.395 E0.09517
G1 X103.704 Y117.029 E0.08806
G1 X102.243 Y113.983 E0.10590
G1 X101.307 Y111.101 E0.09501
G1 X100.767 Y108.324 E0.08873
G1 X100.542 Y104.743 E0.11248
G1 X100.727 Y101.935 E0.08823
G1 X101.245 Y99.170 E0.08823
G1 X102.272 Y95.946 E0.10607
G1 X103.552 Y93.229 E0.09418
G1 X105.063 Y90.830 E0.08889
G1 X107.327 Y88.098 E0.11126
M204 S1000
G1 X107.616 Y88.337 F10800.000
M204 S20
G1 F1800
G1 X109.661 Y86.427 E0.08774
G1 X112.093 Y84.661 E0.09422
G1 X114.725 Y83.213 E0.09422
G1 X117.309 Y82.180 E0.08724
G1 X120.701 Y81.303 E0.10984
G1 X123.487 Y80.959 E0.08804
G1 X126.255 Y80.951 E0.08677
G1 X129.741 Y81.388 E0.11016
G1 X132.458 Y82.095 E0.08804
G1 X135.233 Y83.193 E0.09358
G1 X138.120 Y84.806 E0.10369
G1 X140.370 Y86.452 E0.08740
G1 X142.560 Y88.510 E0.09422
G1 X144.476 Y90.825 E0.09421
G1 X145.975 Y93.169 E0.08724
G1 X147.404 Y96.151 E0.10369
G1 X148.328 Y98.994 E0.09374
G1 X148.862 Y101.746 E0.08788
G1 X149.082 Y105.237 E0.10969
G1 X148.899 Y108.019 E0.08740
G1 X148.380 Y110.778 E0.08803
G1 X147.292 Y114.109 E0.10986
G1 X146.099 Y116.622 E0.08723
G1 X144.488 Y119.159 E0.09422
G1 X142.574 Y121.475 E0.09422
G1 X140.541 Y123.397 E0.08772
G1 X137.703 Y125.460 E0.11001
G1 X135.243 Y126.802 E0.08788
G1 X132.468 Y127.902 E0.09358
G1 X129.259 Y128.702 E0.10369
G1 X126.498 Y129.042 E0.08724
G1 X123.513 Y129.042 E0.09358
G1 X120.229 Y128.604 E0.10386
G1 X117.537 Y127.903 E0.08723
G1 X114.744 Y126.796 E0.09421
G1 X112.110 Y125.350 E0.09421
G1 X109.853 Y123.722 E0.08724
G1 X107.426 Y121.475 E0.10370
G1 X105.521 Y119.171 E0.09374
G1 X104.022 Y116.827 E0.08724
G1 X102.594 Y113.844 E0.10369
G1 X101.672 Y111.006 E0.09358
G1 X101.138 Y108.254 E0.08788
G1 X100.918 Y104.763 E0.10969
G1 X101.101 Y101.981 E0.08740
G1 X101.615 Y99.246 E0.08724
G1 X102.620 Y96.090 E0.10386
G1 X103.884 Y93.409 E0.09295
G1 X105.380 Y91.033 E0.08804
G1 X107.577 Y88.383 E0.10793
M204 S1000
; PURGING FINISHED
G1 F8640
G1 X109.661 Y86.427 E-0.65990
G1 X112.093 Y84.661 E-0.69388
G1 X114.165 Y83.521 E-0.54622
G1 E-0.10000 F2100.00000
G1 X122.056 Y102.235 F10800.000
G1 E2.00000 F2100.00000
M204 S20
G1 F1800
G1 X122.426 Y101.888 E0.01590
G1 X122.836 Y101.590 E0.01590
G1 X123.280 Y101.346 E0.01590
G1 X123.752 Y101.159 E0.01590
G1 X124.243 Y101.033 E0.01590
G1 X124.746 Y100.969 E0.01590
G1 X125.254 Y100.969 E0.01590
G1 X125.757 Y101.033 E0.01590
G1 X126.248 Y101.159 E0.01590
G1 X126.720 Y101.346 E0.01590
G1 X127.144 Y101.579 E0.01518
G1 X127.575 Y101.888 E0.01663
G1 X127.959 Y102.253 E0.01663
G1 X128.267 Y102.626 E0.01517
G1 X128.539 Y103.054 E0.01590
G1 X128.755 Y103.513 E0.01590
G1 X128.912 Y103.996 E0.01590
G1 X129.007 Y104.494 E0.01590
G1 X129.039 Y105.000 E0.01590
G1 X129.007 Y105.508 E0.01596
G1 X128.905 Y106.026 E0.01657
G1 X128.755 Y106.487 E0.01517
G1 X128.539 Y106.946 E0.01590
G1 X128.267 Y107.374 E0.01590
G1 X127.944 Y107.765 E0.01590
G1 X127.574 Y108.112 E0.01590
G1 X127.164 Y108.410 E0.01590
G1 X126.720 Y108.654 E0.01590
G1 X126.248 Y108.841 E0.01590
G1 X125.757 Y108.967 E0.01590
G1 X125.254 Y109.031 E0.01590
G1 X124.746 Y109.031 E0.01590
G1 X124.243 Y108.967 E0.01590
G1 X123.752 Y108.841 E0.01590
G1 X123.280 Y108.654 E0.01590
G1 X122.856 Y108.421 E0.01518
G1 X122.425 Y108.112 E0.01663
G1 X122.041 Y107.747 E0.01663
G1 X121.733 Y107.374 E0.01517
G1 X121.461 Y106.946 E0.01590
G1 X121.245 Y106.487 E0.01590
G1 X121.088 Y106.004 E0.01590
G1 X120.993 Y105.506 E0.01590
G1 X120.961 Y105.000 E0.01590
G1 X120.993 Y104.492 E0.01596
G1 X121.095 Y103.974 E0.01657
G1 X121.245 Y103.513 E0.01517
G1 X121.461 Y103.054 E0.01590
G1 X121.733 Y102.626 E0.01590
G1 X122.018 Y102.282 E0.01402
M204 S1000
G1 X122.308 Y102.522 F10800.000
M204 S20
G1 F1800
G1 X122.666 Y102.179 E0.01554
G1 X123.038 Y101.909 E0.01441
G1 X123.441 Y101.688 E0.01442
G1 X123.869 Y101.518 E0.01442
G1 X124.314 Y101.404 E0.01441
G1 X124.770 Y101.346 E0.01442
G1 X125.230 Y101.346 E0.01441
G1 X125.686 Y101.404 E0.01441
G1 X126.131 Y101.518 E0.01442
G1 X126.559 Y101.688 E0.01441
G1 X126.942 Y101.898 E0.01372
G1 X127.334 Y102.179 E0.01510
G1 X127.683 Y102.511 E0.01510
G1 X127.962 Y102.848 E0.01372
G1 X128.208 Y103.236 E0.01441
G1 X128.404 Y103.652 E0.01441
G1 X128.546 Y104.090 E0.01441
G1 X128.632 Y104.541 E0.01442
G1 X128.661 Y105.000 E0.01441
G1 X128.632 Y105.459 E0.01443
G1 X128.539 Y105.931 E0.01508
G1 X128.404 Y106.348 E0.01372
G1 X128.208 Y106.764 E0.01441
G1 X127.962 Y107.152 E0.01441
G1 X127.669 Y107.506 E0.01441
G1 X127.334 Y107.821 E0.01441
G1 X126.962 Y108.091 E0.01441
G1 X126.559 Y108.312 E0.01442
G1 X126.131 Y108.482 E0.01442
G1 X125.686 Y108.596 E0.01441
G1 X125.230 Y108.654 E0.01442
G1 X124.770 Y108.654 E0.01441
G1 X124.314 Y108.596 E0.01441
G1 X123.869 Y108.482 E0.01442
G1 X123.441 Y108.312 E0.01441
G1 X123.058 Y108.102 E0.01372
G1 X122.666 Y107.821 E0.01510
G1 X122.317 Y107.489 E0.01510
G1 X122.038 Y107.152 E0.01372
G1 X121.792 Y106.764 E0.01441
G1 X121.596 Y106.348 E0.01441
G1 X121.454 Y105.910 E0.01441
G1 X121.368 Y105.459 E0.01442
G1 X121.339 Y105.000 E0.01441
G1 X121.368 Y104.541 E0.01443
G1 X121.461 Y104.069 E0.01508
G1 X121.596 Y103.652 E0.01372
G1 X121.792 Y103.236 E0.01441
G1 X122.038 Y102.848 E0.01441
G1 X122.270 Y102.568 E0.01140
M204 S1000
G1 X122.190 Y102.140 F10800.000
G1 F8640
G1 X122.666 Y102.179 E-0.12824
G1 X123.038 Y101.909 E-0.10616
G1 X123.441 Y101.688 E-0.10616
G1 X123.869 Y101.518 E-0.10616
G1 X124.314 Y101.404 E-0.10615
G1 X124.770 Y101.346 E-0.10616
G1 X125.230 Y101.346 E-0.10615
G1 X125.686 Y101.404 E-0.10615
G1 X126.131 Y101.518 E-0.10616
G1 X126.559 Y101.688 E-0.10615
G1 X126.942 Y101.898 E-0.10106
G1 X127.334 Y102.179 E-0.11122
G1 X127.683 Y102.511 E-0.11122
G1 X127.962 Y102.848 E-0.10105
G1 X128.208 Y103.236 E-0.10616
G1 X128.404 Y103.652 E-0.10615
G1 X128.546 Y104.090 E-0.10615
G1 X128.605 Y104.402 E-0.07335
G1 E-0.10000 F2100.00000
G1 X111.056 Y91.906 F10800.000
G1 E2.00000 F2100.00000
M204 S20
G1 F1800
G1 X112.807 Y90.262 E0.07532
G1 X114.751 Y88.850 E0.07532
G1 X116.856 Y87.693 E0.07531
G1 X119.089 Y86.808 E0.07532
G1 X121.416 Y86.211 E0.07532
G1 X123.799 Y85.910 E0.07532
G1 X126.201 Y85.910 E0.07532
G1 X128.584 Y86.211 E0.07532
G1 X130.911 Y86.808 E0.07532
G1 X133.144 Y87.693 E0.07532
G1 X135.249 Y88.850 E0.07531
G1 X137.193 Y90.262 E0.07532
G1 X138.944 Y91.906 E0.07532
G1 X140.475 Y93.757 E0.07531
G1 X141.762 Y95.785 E0.07532
G1 X142.785 Y97.959 E0.07532
G1 X143.527 Y100.243 E0.07532
G1 X143.977 Y102.603 E0.07532
G1 X144.128 Y105.000 E0.07532
G1 X143.977 Y107.397 E0.07532
G1 X143.527 Y109.757 E0.07532
G1 X142.785 Y112.041 E0.07532
G1 X141.762 Y114.215 E0.07532
G1 X140.475 Y116.243 E0.07532
G1 X138.944 Y118.094 E0.07531
G1 X137.193 Y119.738 E0.07532
G1 X135.249 Y121.150 E0.07532
G1 X133.144 Y122.307 E0.07531
G1 X130.911 Y123.192 E0.07532
G1 X128.584 Y123.789 E0.07532
G1 X126.201 Y124.090 E0.07532
G1 X123.799 Y124.090 E0.07532
G1 X121.416 Y123.789 E0.07532
G1 X119.089 Y123.192 E0.07532
G1 X116.856 Y122.307 E0.07532
G1 X114.751 Y121.150 E0.07531
G1 X112.807 Y119.738 E0.07532
G1 X111.056 Y118.094 E0.07532
G1 X109.525 Y116.243 E0.07531
G1 X108.238 Y114.215 E0.07532
G1 X107.215 Y112.041 E0.07532
G1 X106.473 Y109.757 E0.07532
G1 X106.023 Y107.397 E0.07532
G1 X105.872 Y105.000 E0.07532
G1 X106.023 Y102.603 E0.07532
G1 X106.473 Y100.243 E0.07532
G1 X107.215 Y97.959 E0.07532
G1 X108.238 Y95.785 E0.07532
G1 X109.525 Y93.757 E0.07532
G1 X111.018 Y91.952 E0.07343
M204 S1000
G1 X110.728 Y91.712 F10800.000
M204 S20
G1 F1800
G1 X112.567 Y89.971 E0.07941
G1 X114.548 Y88.531 E0.07681
G1 X116.695 Y87.351 E0.07680
G1 X118.972 Y86.449 E0.07680
G1 X121.345 Y85.840 E0.07680
G1 X123.775 Y85.533 E0.07680
G1 X126.225 Y85.533 E0.07680
G1 X128.655 Y85.840 E0.07680
G1 X131.028 Y86.449 E0.07680
G1 X133.305 Y87.351 E0.07680
G1 X135.452 Y88.531 E0.07680
G1 X137.433 Y89.971 E0.07681
G1 X139.219 Y91.647 E0.07681
G1 X140.780 Y93.535 E0.07680
G1 X142.093 Y95.603 E0.07680
G1 X143.136 Y97.819 E0.07680
G1 X143.893 Y100.149 E0.07680
G1 X144.352 Y102.555 E0.07680
G1 X144.506 Y105.000 E0.07680
G1 X144.352 Y107.445 E0.07680
G1 X143.893 Y109.851 E0.07680
G1 X143.136 Y112.181 E0.07680
G1 X142.093 Y114.397 E0.07680
G1 X140.780 Y116.465 E0.07680
G1 X139.219 Y118.353 E0.07680
G1 X137.433 Y120.029 E0.07681
G1 X135.452 Y121.469 E0.07681
G1 X133.305 Y122.649 E0.07680
G1 X131.028 Y123.551 E0.07680
G1 X128.655 Y124.160 E0.07680
G1 X126.225 Y124.467 E0.07680
G1 X123.775 Y124.467 E0.07680
G1 X121.345 Y124.160 E0.07680
G1 X118.972 Y123.551 E0.07680
G1 X116.695 Y122.649 E0.07680
G1 X114.548 Y121.469 E0.07680
G1 X112.567 Y120.029 E0.07681
G1 X110.781 Y118.353 E0.07681
G1 X109.220 Y116.465 E0.07680
G1 X107.907 Y114.397 E0.07680
G1 X106.864 Y112.181 E0.07680
G1 X106.107 Y109.851 E0.07680
G1 X105.648 Y107.445 E0.07680
G1 X105.494 Y105.000 E0.07680
G1 X105.648 Y102.555 E0.07680
G1 X106.107 Y100.149 E0.07680
G1 X106.864 Y97.819 E0.07680
G1 X107.907 Y95.603 E0.07680
G1 X109.220 Y93.535 E0.07680
G1 X110.689 Y91.758 E0.07230
M204 S1000
G1 X111.117 Y91.802 F10800.000
G1 F8640
G1 X112.567 Y89.971 E-0.59856
G1 X114.548 Y88.531 E-0.56562
G1 X116.695 Y87.351 E-0.56559
G1 X117.380 Y87.079 E-0.17023
G1 E-0.10000 F2100.00000
G1 X121.381 Y107.031 F10800.000
G1 E2.00000 F2100.00000
M204 S20
G1 F1800
G1 X109.180 Y94.829 E0.54591
G1 X109.388 Y94.500 E0.01233
G1 X120.778 Y105.890 E0.50961
G1 X120.712 Y105.542 E0.01123
G1 X120.695 Y105.269 E0.00866
G1 X109.597 Y94.171 E0.49652
G1 X109.815 Y93.850 E0.01226
G1 X120.695 Y104.730 E0.48679
G1 X120.712 Y104.456 E0.00871
G1 X120.753 Y104.250 E0.00663
G1 X110.058 Y93.556 E0.47848
G1 X110.302 Y93.261 E0.01209
G1 X120.851 Y103.810 E0.47198
G1 X120.983 Y103.405 E0.01350
G1 X110.546 Y92.967 E0.46700
G1 X110.789 Y92.673 E0.01209
G1 X121.156 Y103.039 E0.46381
G1 X121.352 Y102.698 E0.01246
G1 X111.033 Y92.378 E0.46171
G1 X111.263 Y92.100 E0.01142
G1 X111.278 Y92.085 E0.00067
G1 X121.571 Y102.378 E0.46050
G1 X121.814 Y102.083 E0.01209
G1 X111.556 Y91.825 E0.45899
G1 X111.833 Y91.564 E0.01204
G1 X122.087 Y101.818 E0.45877
G1 X122.379 Y101.572 E0.01208
G1 X112.111 Y91.304 E0.45943
G1 X112.388 Y91.043 E0.01204
G1 X122.692 Y101.347 E0.46099
G1 X123.039 Y101.156 E0.01254
G1 X112.666 Y90.783 E0.46411
G1 X112.943 Y90.522 E0.01204
G1 X123.411 Y100.990 E0.46835
G1 X123.811 Y100.852 E0.01339
G1 X113.249 Y90.290 E0.47255
G1 X113.561 Y90.064 E0.01219
G1 X124.245 Y100.748 E0.47802
G1 X124.723 Y100.687 E0.01523
G1 X113.873 Y89.837 E0.48545
G1 X114.184 Y89.611 E0.01219
G1 X125.260 Y100.686 E0.49555
G1 X125.886 Y100.774 E0.01998
G1 X114.496 Y89.384 E0.50959
G1 X114.808 Y89.158 E0.01219
G1 X127.046 Y101.396 E0.54755
M204 S1000
G1 F8640
G1 X121.227 Y95.577 E-1.90000
G1 E-0.10000 F2100.00000
G1 X133.669 Y88.110 F10800.000
G1 E2.00000 F2100.00000
M204 S20
G1 F1800
G1 X141.897 Y96.338 E0.36815
M204 S1000
G1 F8640
G1 X136.079 Y90.520 E-1.90000
G1 E-0.10000 F2100.00000
G1 X142.376 Y97.355 F10800.000
G1 E2.00000 F2100.00000
M204 S20
G1 F1800
G1 X132.934 Y87.914 E0.42241
G1 X132.044 Y87.561 E0.03031
G1 X142.500 Y98.017 E0.46782
G1 X142.769 Y98.824 E0.02691
G1 X131.153 Y87.208 E0.51970
G1 X130.823 Y87.078 E0.01121
G1 X130.367 Y86.961 E0.01490
G1 X143.028 Y99.621 E0.56645
G1 X143.269 Y100.401 E0.02583
G1 X129.643 Y86.775 E0.60965
M73 Q2 S40
M73 P2 R40
G1 X128.919 Y86.589 E0.02365
G1 X143.396 Y101.066 E0.64771
G1 X143.523 Y101.731 E0.02142
G1 X128.245 Y86.453 E0.68354
G1 X127.630 Y86.375 E0.01964
G1 X143.650 Y102.396 E0.71677
G1 X143.696 Y102.638 E0.00781
G1 X143.719 Y103.003 E0.01156
G1 X127.014 Y86.298 E0.74742
G1 X126.398 Y86.220 E0.01964
G1 X143.755 Y103.577 E0.77659
G1 X143.791 Y104.151 E0.01820
G1 X125.833 Y86.193 E0.80350
G1 X125.295 Y86.193 E0.01702
G1 X143.827 Y104.725 E0.82919
G1 X143.845 Y105.000 E0.00870
G1 X143.828 Y105.264 E0.00837
G1 X124.756 Y86.193 E0.85329
G1 X124.218 Y86.193 E0.01702
G1 X143.796 Y105.770 E0.87594
G1 X143.764 Y106.277 E0.01605
G1 X123.696 Y86.208 E0.89791
G1 X123.218 Y86.268 E0.01523
G1 X143.732 Y106.783 E0.91786
G1 X143.701 Y107.289 E0.01605
G1 X122.740 Y86.329 E0.93781
G1 X122.262 Y86.389 E0.01523
G1 X143.622 Y107.749 E0.95567
G1 X143.536 Y108.201 E0.01455
G1 X121.785 Y86.449 E0.97319
G1 X121.469 Y86.489 E0.01007
G1 X121.324 Y86.527 E0.00474
G1 X143.450 Y108.653 E0.98996
G1 X143.364 Y109.104 E0.01455
G1 X120.896 Y86.636 E1.00526
G1 X120.467 Y86.746 E0.01398
G1 X143.277 Y109.556 E1.02056
G1 X143.159 Y109.976 E0.01379
G1 X120.039 Y86.856 E1.03440
G1 X119.611 Y86.966 E0.01398
G1 X143.027 Y110.382 E1.04765
G1 X142.895 Y110.788 E0.01351
G1 X119.183 Y87.076 E1.06090
G1 X118.797 Y87.228 E0.01313
G1 X142.763 Y111.194 E1.07227
G1 X142.631 Y111.600 E0.01351
G1 X118.411 Y87.381 E1.08361
G1 X118.026 Y87.533 E0.01312
G1 X142.492 Y111.999 E1.09465
G1 X142.320 Y112.365 E0.01279
G1 X117.641 Y87.686 E1.10419
G1 X117.255 Y87.839 E0.01312
G1 X142.148 Y112.731 E1.11373
G1 X141.975 Y113.097 E0.01279
G1 X116.880 Y88.002 E1.12280
G1 X116.533 Y88.193 E0.01254
G1 X141.803 Y113.463 E1.13063
G1 X141.631 Y113.829 E0.01279
G1 X116.186 Y88.384 E1.13846
G1 X115.839 Y88.574 E0.01254
G1 X141.447 Y114.183 E1.14577
G1 X141.238 Y114.512 E0.01233
G1 X115.491 Y88.765 E1.15196
G1 X115.144 Y88.956 E0.01254
G1 X141.029 Y114.841 E1.15815
G1 X140.820 Y115.171 E0.01233
G1 X128.983 Y103.333 E0.52964
G1 X129.186 Y103.925 E0.01981
G1 X129.222 Y104.110 E0.00595
G1 X140.612 Y115.500 E0.50961
G1 X140.403 Y115.829 E0.01233
G1 X129.305 Y104.732 E0.49652
G1 X129.322 Y105.000 E0.00851
G1 X129.305 Y105.270 E0.00854
G1 X140.185 Y116.150 E0.48679
G1 X139.942 Y116.444 E0.01209
