; generated by Slic3r Prusa Edition 1.41.1 on 2018-11-16 at 16:37:36

; 

; external perimeters extrusion width = 0.45mm
; perimeters extrusion width = 0.45mm
; infill extrusion width = 0.45mm
; solid infill extrusion width = 0.45mm
; top infill extrusion width = 0.40mm
; first layer extrusion width = 0.42mm

M73 P0 R48
M73 Q0 S48
M201 X1000 Y1000 Z1000 E5000 ; sets maximum accelerations, mm/sec^2
M203 X200 Y200 Z12 E120 ; sets maximum feedrates, mm/sec
M204 P1250 R1250 T1250 ; sets acceleration (P, T) and retract acceleration (R), mm/sec^2
M205 X8.00 Y8.00 Z0.40 E1.50 ; sets the jerk limits, mm/sec
M205 S0 T0 ; sets the minimum extruding and travel feed rate, mm/sec
M107
M115 U3.4.0 ; tell printer latest fw version
M83  ; extruder relative mode
M104 S140 ; set extruder to warm-up temp
M140 S0 ; set bed temp
M190 S0 ; wait for bed temp
G28 W ; home all without mesh bed level
G80 ; mesh bed leveling
M104 S230 ; set extruder temp
M109 S230 ; wait for extruder temp
G1 Y-3.0 F1000.0 ; go outside print area
G92 E0.0
G1 X60.0 E9.0  F1000.0 ; intro line
M73 Q0 S48
M73 P0 R48
G1 X100.0 E12.5  F1000.0 ; intro line
G92 E0.0
M221 S95
M900 K10; Filament gcode
G21 ; set units to millimeters
G90 ; use absolute coordinates
M83 ; use relative distances for extrusion
;BEFORE_LAYER_CHANGE
G92 E0.0
;0.2


G1 E-2.00000 F2100.00000
G1 Z0.200 F10800.000
;AFTER_LAYER_CHANGE
;0.2
G1 X107.353 Y88.040
G1 E2.00000 F2100.00000
M204 S20
G1 F1800
G1 X109.409 Y86.124 E0.08812
G1 X111.880 Y84.330 E0.09575
G1 X114.555 Y82.858 E0.09574
G1 X117.165 Y81.813 E0.08812
G1 X120.645 Y80.913 E0.11272
G1 X123.461 Y80.566 E0.08896
G1 X126.256 Y80.557 E0.08763
G1 X129.838 Y81.007 E0.11321
G1 X132.579 Y81.720 E0.08880
G1 X135.399 Y82.836 E0.09507
G1 X138.353 Y84.488 E0.10613
G1 X140.620 Y86.148 E0.08813
G1 X142.846 Y88.240 E0.09574
G1 X144.793 Y90.591 E0.09573
G1 X146.308 Y92.959 E0.08813
G1 X147.772 Y96.010 E0.10613
G1 X148.709 Y98.894 E0.09507
G1 X149.249 Y101.674 E0.08879
G1 X149.475 Y105.257 E0.11255
G1 X149.289 Y108.072 E0.08846
G1 X148.766 Y110.860 E0.08895
G1 X147.649 Y114.276 E0.11266
G1 X146.445 Y116.811 E0.08802
G1 X144.804 Y119.393 E0.09590
G1 X142.862 Y121.743 E0.09558
G1 X140.805 Y123.689 E0.08878
G1 X137.898 Y125.803 E0.11272
G1 X135.411 Y127.158 E0.08879
G1 X132.592 Y128.275 E0.09507
G1 X129.313 Y129.092 E0.10596
G1 X126.518 Y129.435 E0.08829
G1 X123.491 Y129.436 E0.09491
G1 X120.136 Y128.987 E0.10613
G1 X117.416 Y128.278 E0.08813
G1 X114.578 Y127.153 E0.09574
G1 X111.901 Y125.683 E0.09574
G1 X109.621 Y124.040 E0.08813
G1 X107.140 Y121.745 E0.10597
G1 X105.204 Y119.405 E0.09524
G1 X103.689 Y117.037 E0.08813
G1 X102.228 Y113.990 E0.10596
G1 X101.291 Y111.106 E0.09508
G1 X100.751 Y108.326 E0.08879
G1 X100.525 Y104.743 E0.11255
G1 X100.711 Y101.933 E0.08830
G1 X101.229 Y99.166 E0.08829
G1 X102.256 Y95.940 E0.10613
G1 X103.540 Y93.216 E0.09441
G1 X105.052 Y90.816 E0.08896
G1 X107.315 Y88.087 E0.11116
M204 S1000
G1 X107.604 Y88.326 F10800.000
M204 S20
G1 F1800
G1 X109.650 Y86.414 E0.08781
G1 X112.084 Y84.647 E0.09429
G1 X114.718 Y83.198 E0.09428
G1 X117.303 Y82.164 E0.08731
G1 X120.697 Y81.287 E0.10991
G1 X123.486 Y80.942 E0.08810
G1 X126.256 Y80.934 E0.08684
G1 X129.749 Y81.373 E0.11038
G1 X132.463 Y82.079 E0.08795
G1 X135.240 Y83.178 E0.09364
G1 X138.129 Y84.792 E0.10376
G1 X140.377 Y86.436 E0.08731
G1 X142.572 Y88.499 E0.09445
G1 X144.489 Y90.815 E0.09428
G1 X145.990 Y93.161 E0.08731
G1 X147.420 Y96.145 E0.10376
G1 X148.344 Y98.990 E0.09380
G1 X148.879 Y101.744 E0.08795
G1 X149.098 Y105.237 E0.10975
G1 X148.915 Y108.021 E0.08747
G1 X148.397 Y110.783 E0.08810
G1 X147.308 Y114.115 E0.10993
G1 X146.116 Y116.626 E0.08714
G1 X144.502 Y119.168 E0.09444
G1 X142.586 Y121.486 E0.09429
G1 X140.548 Y123.413 E0.08794
G1 X137.712 Y125.474 E0.10992
G1 X135.250 Y126.817 E0.08794
G1 X132.473 Y127.917 E0.09364
G1 X129.262 Y128.719 E0.10376
G1 X126.499 Y129.059 E0.08731
G1 X123.512 Y129.059 E0.09365
G1 X120.226 Y128.621 E0.10393
G1 X117.537 Y127.921 E0.08714
G1 X114.737 Y126.811 E0.09444
G1 X112.101 Y125.364 E0.09428
G1 X109.843 Y123.735 E0.08731
G1 X107.414 Y121.486 E0.10376
G1 X105.508 Y119.181 E0.09380
G1 X104.008 Y116.835 E0.08731
G1 X102.578 Y113.850 E0.10376
G1 X101.656 Y111.010 E0.09365
G1 X101.121 Y108.256 E0.08794
G1 X100.902 Y104.763 E0.10975
G1 X101.085 Y101.979 E0.08747
G1 X101.598 Y99.242 E0.08731
G1 X102.603 Y96.089 E0.10376
G1 X103.869 Y93.401 E0.09317
G1 X105.367 Y91.023 E0.08810
G1 X107.565 Y88.372 E0.10799
M204 S1000
; PURGING FINISHED
G1 F8640
G1 X109.650 Y86.414 E-0.66039
G1 X112.084 Y84.647 E-0.69438
G1 X114.152 Y83.509 E-0.54523
G1 E-0.10000 F2100.00000
G1 X121.327 Y101.551 F10800.000
G1 E2.00000 F2100.00000
M204 S20
G1 F1800
G1 X121.788 Y101.118 E0.01984
G1 X122.300 Y100.746 E0.01984
G1 X122.855 Y100.441 E0.01984
G1 X123.443 Y100.208 E0.01984
G1 X124.056 Y100.051 E0.01984
G1 X124.684 Y99.971 E0.01984
G1 X125.316 Y99.971 E0.01984
G1 X125.944 Y100.051 E0.01984
G1 X126.557 Y100.208 E0.01984
G1 X127.145 Y100.441 E0.01984
G1 X127.700 Y100.746 E0.01984
G1 X128.212 Y101.118 E0.01984
G1 X128.656 Y101.535 E0.01912
G1 X129.076 Y102.037 E0.02051
G1 X129.415 Y102.573 E0.01988
G1 X129.685 Y103.145 E0.01984
G1 X129.880 Y103.747 E0.01984
G1 X129.999 Y104.368 E0.01984
G1 X130.039 Y105.000 E0.01984
G1 X129.999 Y105.632 E0.01984
G1 X129.880 Y106.253 E0.01984
G1 X129.684 Y106.856 E0.01988
G1 X129.403 Y107.447 E0.02051
G1 X129.076 Y107.962 E0.01912
G1 X128.673 Y108.449 E0.01984
G1 X128.212 Y108.882 E0.01984
G1 X127.700 Y109.254 E0.01984
G1 X127.145 Y109.559 E0.01984
G1 X126.557 Y109.792 E0.01984
G1 X125.966 Y109.944 E0.01912
G1 X125.318 Y110.029 E0.02051
G1 X124.684 Y110.029 E0.01988
G1 X124.056 Y109.949 E0.01984
G1 X123.443 Y109.792 E0.01984
G1 X122.855 Y109.559 E0.01984
G1 X122.300 Y109.254 E0.01984
G1 X121.788 Y108.882 E0.01984
G1 X121.344 Y108.465 E0.01912
G1 X120.924 Y107.963 E0.02051
G1 X120.585 Y107.427 E0.01988
G1 X120.315 Y106.855 E0.01984
G1 X120.120 Y106.253 E0.01984
G1 X120.001 Y105.632 E0.01984
G1 X119.961 Y105.000 E0.01984
G1 X120.001 Y104.368 E0.01984
G1 X120.120 Y103.747 E0.01984
G1 X120.316 Y103.144 E0.01988
G1 X120.597 Y102.553 E0.02051
G1 X120.924 Y102.038 E0.01912
G1 X121.289 Y101.597 E0.01796
M204 S1000
G1 X121.579 Y101.837 F10800.000
M204 S20
G1 F1800
G1 X122.029 Y101.409 E0.01948
G1 X122.503 Y101.065 E0.01835
G1 X123.015 Y100.783 E0.01835
G1 X123.560 Y100.567 E0.01835
G1 X124.127 Y100.422 E0.01835
G1 X124.707 Y100.348 E0.01835
G1 X125.293 Y100.348 E0.01835
G1 X125.873 Y100.422 E0.01835
G1 X126.440 Y100.567 E0.01835
G1 X126.985 Y100.783 E0.01835
G1 X127.497 Y101.065 E0.01835
G1 X127.971 Y101.409 E0.01835
G1 X128.382 Y101.794 E0.01766
G1 X128.770 Y102.260 E0.01902
G1 X129.084 Y102.755 E0.01837
G1 X129.334 Y103.284 E0.01835
G1 X129.514 Y103.841 E0.01835
G1 X129.624 Y104.416 E0.01835
G1 X129.661 Y105.000 E0.01835
G1 X129.624 Y105.584 E0.01835
G1 X129.514 Y106.159 E0.01835
G1 X129.333 Y106.716 E0.01837
G1 X129.073 Y107.264 E0.01902
G1 X128.771 Y107.740 E0.01766
G1 X128.398 Y108.191 E0.01835
G1 X127.971 Y108.591 E0.01835
G1 X127.497 Y108.935 E0.01835
G1 X126.985 Y109.217 E0.01835
G1 X126.440 Y109.433 E0.01835
G1 X125.895 Y109.573 E0.01766
G1 X125.293 Y109.652 E0.01902
G1 X124.707 Y109.652 E0.01837
G1 X124.127 Y109.578 E0.01835
G1 X123.560 Y109.433 E0.01835
G1 X123.015 Y109.217 E0.01835
G1 X122.503 Y108.935 E0.01835
G1 X122.029 Y108.591 E0.01835
G1 X121.618 Y108.206 E0.01766
G1 X121.230 Y107.740 E0.01902
G1 X120.916 Y107.245 E0.01837
G1 X120.666 Y106.716 E0.01835
G1 X120.486 Y106.159 E0.01835
G1 X120.376 Y105.584 E0.01835
G1 X120.339 Y105.000 E0.01835
G1 X120.376 Y104.416 E0.01835
G1 X120.486 Y103.841 E0.01835
G1 X120.667 Y103.284 E0.01837
G1 X120.927 Y102.736 E0.01902
G1 X121.229 Y102.260 E0.01766
G1 X121.541 Y101.884 E0.01533
M204 S1000
G1 X121.462 Y101.455 F10800.000
G1 F8640
G1 X122.029 Y101.409 E-0.15723
G1 X122.503 Y101.065 E-0.13515
G1 X123.015 Y100.783 E-0.13515
G1 X123.560 Y100.567 E-0.13515
G1 X124.127 Y100.422 E-0.13515
G1 X124.707 Y100.348 E-0.13515
G1 X125.293 Y100.348 E-0.13515
G1 X125.873 Y100.422 E-0.13515
G1 X126.440 Y100.567 E-0.13515
G1 X126.985 Y100.783 E-0.13515
G1 X127.497 Y101.065 E-0.13515
G1 X127.971 Y101.409 E-0.13515
G1 X128.382 Y101.794 E-0.13005
G1 X128.731 Y102.213 E-0.12604
G1 E-0.10000 F2100.00000
G1 X111.052 Y91.902 F10800.000
G1 E2.00000 F2100.00000
M204 S20
G1 F1800
G1 X112.804 Y90.257 E0.07534
G1 X114.748 Y88.845 E0.07534
G1 X116.853 Y87.688 E0.07534
G1 X119.087 Y86.803 E0.07534
G1 X121.415 Y86.205 E0.07534
G1 X123.799 Y85.904 E0.07534
G1 X126.201 Y85.904 E0.07534
G1 X128.585 Y86.205 E0.07534
G1 X130.913 Y86.803 E0.07534
G1 X133.147 Y87.688 E0.07534
G1 X135.252 Y88.845 E0.07534
G1 X137.196 Y90.257 E0.07534
G1 X138.948 Y91.902 E0.07534
G1 X140.479 Y93.754 E0.07534
G1 X141.767 Y95.782 E0.07534
G1 X142.790 Y97.957 E0.07534
G1 X143.532 Y100.242 E0.07534
G1 X143.983 Y102.602 E0.07534
G1 X144.133 Y105.000 E0.07534
G1 X143.983 Y107.398 E0.07534
G1 X143.532 Y109.758 E0.07534
G1 X142.790 Y112.043 E0.07534
G1 X141.767 Y114.218 E0.07534
G1 X140.479 Y116.246 E0.07534
G1 X138.948 Y118.098 E0.07534
G1 X137.196 Y119.743 E0.07534
G1 X135.252 Y121.155 E0.07534
G1 X133.147 Y122.312 E0.07534
G1 X130.913 Y123.197 E0.07534
G1 X128.585 Y123.795 E0.07534
G1 X126.201 Y124.096 E0.07534
G1 X123.799 Y124.096 E0.07534
G1 X121.415 Y123.795 E0.07534
G1 X119.087 Y123.197 E0.07534
G1 X116.853 Y122.312 E0.07534
G1 X114.748 Y121.155 E0.07534
G1 X112.804 Y119.743 E0.07534
G1 X111.052 Y118.098 E0.07534
G1 X109.521 Y116.246 E0.07534
G1 X108.233 Y114.218 E0.07534
G1 X107.210 Y112.043 E0.07534
G1 X106.468 Y109.758 E0.07534
G1 X106.017 Y107.398 E0.07534
G1 X105.867 Y105.000 E0.07534
G1 X106.017 Y102.602 E0.07534
G1 X106.468 Y100.242 E0.07534
G1 X107.210 Y97.957 E0.07534
G1 X108.233 Y95.782 E0.07534
G1 X109.521 Y93.754 E0.07534
G1 X111.014 Y91.948 E0.07345
M204 S1000
G1 X110.723 Y91.708 F10800.000
M204 S20
G1 F1800
G1 X112.563 Y89.966 E0.07943
G1 X114.545 Y88.526 E0.07683
G1 X116.692 Y87.346 E0.07682
G1 X118.971 Y86.444 E0.07683
G1 X121.344 Y85.834 E0.07683
G1 X123.775 Y85.527 E0.07683
G1 X126.225 Y85.527 E0.07683
G1 X128.656 Y85.834 E0.07683
G1 X131.029 Y86.444 E0.07683
G1 X133.308 Y87.346 E0.07683
G1 X135.455 Y88.526 E0.07682
G1 X137.437 Y89.966 E0.07683
G1 X139.223 Y91.644 E0.07683
G1 X140.785 Y93.532 E0.07682
G1 X142.098 Y95.600 E0.07683
G1 X143.141 Y97.817 E0.07683
G1 X143.898 Y100.148 E0.07683
G1 X144.357 Y102.555 E0.07683
G1 X144.511 Y105.000 E0.07683
G1 X144.357 Y107.445 E0.07683
G1 X143.898 Y109.852 E0.07683
G1 X143.141 Y112.183 E0.07683
G1 X142.098 Y114.400 E0.07683
G1 X140.785 Y116.468 E0.07683
G1 X139.223 Y118.356 E0.07682
G1 X137.437 Y120.034 E0.07683
G1 X135.455 Y121.474 E0.07683
G1 X133.308 Y122.654 E0.07682
G1 X131.029 Y123.556 E0.07683
G1 X128.656 Y124.166 E0.07683
G1 X126.225 Y124.473 E0.07683
G1 X123.775 Y124.473 E0.07683
G1 X121.344 Y124.166 E0.07683
G1 X118.971 Y123.556 E0.07683
G1 X116.692 Y122.654 E0.07683
G1 X114.545 Y121.474 E0.07682
G1 X112.563 Y120.034 E0.07683
G1 X110.777 Y118.356 E0.07683
G1 X109.215 Y116.468 E0.07682
G1 X107.902 Y114.400 E0.07683
G1 X106.859 Y112.183 E0.07683
G1 X106.102 Y109.852 E0.07683
G1 X105.643 Y107.445 E0.07683
G1 X105.489 Y105.000 E0.07683
G1 X105.643 Y102.555 E0.07683
G1 X106.102 Y100.148 E0.07683
G1 X106.859 Y97.817 E0.07683
G1 X107.902 Y95.600 E0.07683
G1 X109.215 Y93.532 E0.07683
G1 X110.685 Y91.754 E0.07232
M204 S1000
G1 X111.113 Y91.798 F10800.000
G1 F8640
G1 X112.563 Y89.966 E-0.59872
G1 X114.545 Y88.526 E-0.56578
G1 X116.692 Y87.346 E-0.56575
G1 X117.376 Y87.075 E-0.16974
G1 E-0.10000 F2100.00000
G1 X108.098 Y113.664 F10800.000
G1 E2.00000 F2100.00000
M204 S20
G1 F1800
G1 X116.329 Y121.895 E0.36837
M204 S1000
G1 F8640
G1 X110.510 Y116.076 E-1.90000
G1 E-0.10000 F2100.00000
G1 X117.366 Y122.394 F10800.000
G1 E2.00000 F2100.00000
M204 S20
G1 F1800
G1 X107.974 Y113.002 E0.42033
G1 X107.495 Y111.985 E0.03556
G1 X117.954 Y122.444 E0.46810
G1 X118.845 Y122.797 E0.03033
G1 X107.226 Y111.178 E0.52002
G1 X106.967 Y110.380 E0.02653
G1 X119.631 Y123.045 E0.56678
G1 X120.355 Y123.231 E0.02366
G1 X106.725 Y109.601 E0.61001
G1 X106.599 Y108.935 E0.02143
G1 X121.080 Y123.417 E0.64810
G1 X121.468 Y123.516 E0.01268
G1 X121.754 Y123.552 E0.00912
G1 X106.472 Y108.270 E0.68394
G1 X106.345 Y107.605 E0.02143
G1 X122.370 Y123.630 E0.71719
G1 X122.986 Y123.708 E0.01965
G1 X106.276 Y106.998 E0.74786
G1 X106.239 Y106.423 E0.01821
G1 X123.602 Y123.786 E0.77705
G1 X123.816 Y123.813 E0.00684
G1 X124.167 Y123.813 E0.01110
G1 X106.203 Y105.849 E0.80397
G1 X106.167 Y105.275 E0.01821
G1 X124.705 Y123.813 E0.82968
G1 X125.244 Y123.813 E0.01703
G1 X106.166 Y104.736 E0.85379
G1 X106.198 Y104.229 E0.01606
G1 X125.782 Y123.813 E0.87646
G1 X126.305 Y123.798 E0.01656
G1 X106.230 Y103.723 E0.89843
G1 X106.262 Y103.217 E0.01606
G1 X126.783 Y123.737 E0.91840
G1 X127.261 Y123.677 E0.01524
G1 X106.294 Y102.710 E0.93836
G1 X106.372 Y102.250 E0.01476
G1 X127.738 Y123.616 E0.95623
G1 X128.216 Y123.556 E0.01524
G1 X106.459 Y101.798 E0.97376
M73 Q2 S47
M73 P2 R47
G1 X106.545 Y101.346 E0.01456
G1 X128.677 Y123.479 E0.99054
G1 X129.106 Y123.369 E0.01399
G1 X106.631 Y100.894 E1.00585
G1 X106.717 Y100.442 E0.01456
G1 X129.534 Y123.259 E1.02116
G1 X129.962 Y123.149 E0.01399
G1 X106.836 Y100.023 E1.03500
G1 X106.968 Y99.617 E0.01352
G1 X130.390 Y123.039 E1.04826
G1 X130.819 Y122.929 E0.01399
G1 X107.100 Y99.210 E1.06152
G1 X107.232 Y98.804 E0.01352
G1 X131.205 Y122.777 E1.07290
G1 X131.591 Y122.624 E0.01312
G1 X107.364 Y98.398 E1.08425
G1 X107.503 Y97.999 E0.01338
G1 X131.976 Y122.472 E1.09529
G1 X132.362 Y122.319 E0.01312
G1 X107.675 Y97.633 E1.10484
G1 X107.847 Y97.267 E0.01280
G1 X132.747 Y122.166 E1.11439
G1 X133.122 Y122.003 E0.01294
G1 X108.020 Y96.901 E1.12346
G1 X108.192 Y96.535 E0.01280
G1 X133.594 Y121.937 E1.13689
M204 S1000
G1 F8640
G1 X127.776 Y116.119 E-1.90000
G1 E-0.10000 F2100.00000
G1 X141.575 Y114.309 F10800.000
G1 E2.00000 F2100.00000
M204 S20
G1 F1800
G1 X129.597 Y102.331 E0.53608
G1 X129.664 Y102.436 E0.00395
G1 X129.948 Y103.041 E0.02115
G1 X130.035 Y103.307 E0.00885
G1 X141.243 Y114.515 E0.50162
G1 X141.034 Y114.844 E0.01234
G1 X130.223 Y104.033 E0.48385
G1 X130.280 Y104.333 E0.00966
G1 X130.300 Y104.648 E0.01000
G1 X140.825 Y115.174 E0.47105
G1 X140.616 Y115.503 E0.01234
G1 X130.310 Y105.196 E0.46126
G1 X130.274 Y105.699 E0.01594
G1 X140.407 Y115.832 E0.45351
G1 X140.190 Y116.153 E0.01226
G1 X130.188 Y106.151 E0.44763
G1 X130.155 Y106.324 E0.00556
G1 X130.073 Y106.575 E0.00836
G1 X139.946 Y116.447 E0.44185
G1 X139.702 Y116.742 E0.01210
G1 X129.939 Y106.979 E0.43694
G1 X129.766 Y107.344 E0.01278
G1 X139.459 Y117.037 E0.43381
G1 X139.215 Y117.331 E0.01210
G1 X129.580 Y107.696 E0.43121
G1 X129.371 Y108.025 E0.01234
G1 X138.971 Y117.626 E0.42966
G1 X138.726 Y117.918 E0.01209
G1 X129.138 Y108.331 E0.42909
G1 X128.894 Y108.625 E0.01210
G1 X138.448 Y118.179 E0.42757
G1 X138.171 Y118.440 E0.01205
G1 X128.619 Y108.888 E0.42748
G1 X128.335 Y109.142 E0.01206
G1 X137.893 Y118.700 E0.42776
G1 X137.615 Y118.961 E0.01205
G1 X128.023 Y109.369 E0.42929
G1 X127.696 Y109.579 E0.01233
G1 X137.338 Y119.222 E0.43154
G1 X137.060 Y119.482 E0.01205
G1 X127.348 Y109.770 E0.43466
G1 X126.972 Y109.932 E0.01297
G1 X136.754 Y119.714 E0.43780
G1 X136.442 Y119.941 E0.01219
G1 X126.580 Y110.078 E0.44140
G1 X126.151 Y110.188 E0.01399
G1 X136.131 Y120.167 E0.44661
G1 X135.819 Y120.394 E0.01219
G1 X125.690 Y110.265 E0.45330
G1 X125.336 Y110.312 E0.01130
G1 X125.198 Y110.312 E0.00436
G1 X135.507 Y120.620 E0.46136
G1 X135.195 Y120.847 E0.01219
G1 X124.659 Y110.311 E0.47154
G1 X124.043 Y110.233 E0.01965
G1 X134.859 Y121.049 E0.48405
G1 X134.511 Y121.239 E0.01254
G1 X123.319 Y110.047 E0.50090
G1 X122.734 Y109.816 E0.01992
G1 X122.324 Y109.590 E0.01481
G1 X134.164 Y121.430 E0.52991
G1 X133.817 Y121.621 E0.01254
G1 X108.364 Y96.169 E1.13913
G1 X108.548 Y95.814 E0.01263
G1 X120.403 Y107.669 E0.53057
G1 X120.336 Y107.564 E0.00395
G1 X120.052 Y106.959 E0.02115
G1 X119.965 Y106.693 E0.00885
G1 X108.757 Y95.485 E0.50162
