; generated by Slic3r Prusa Edition 1.41.1 on 2018-11-16 at 17:40:59

; 

; external perimeters extrusion width = 0.45mm
; perimeters extrusion width = 0.45mm
; infill extrusion width = 0.45mm
; solid infill extrusion width = 0.45mm
; top infill extrusion width = 0.40mm
; first layer extrusion width = 0.42mm

M73 P0 R141
M73 Q0 S143
M201 X1000 Y1000 Z1000 E5000 ; sets maximum accelerations, mm/sec^2
M203 X200 Y200 Z12 E120 ; sets maximum feedrates, mm/sec
M204 P1250 R1250 T1250 ; sets acceleration (P, T) and retract acceleration (R), mm/sec^2
M205 X8.00 Y8.00 Z0.40 E1.50 ; sets the jerk limits, mm/sec
M205 S0 T0 ; sets the minimum extruding and travel feed rate, mm/sec
M107
M115 U3.4.0 ; tell printer latest fw version
M83  ; extruder relative mode
M104 S140 ; set extruder to warm-up temp
M140 S0 ; set bed temp
M190 S0 ; wait for bed temp
G28 W ; home all without mesh bed level
G80 ; mesh bed leveling
M104 S230 ; set extruder temp
M109 S230 ; wait for extruder temp
G1 Y-3.0 F1000.0 ; go outside print area
G92 E0.0
G1 X60.0 E9.0  F1000.0 ; intro line
M73 Q0 S143
M73 P0 R141
G1 X100.0 E12.5  F1000.0 ; intro line
G92 E0.0
M221 S95
M900 K10; Filament gcode
G21 ; set units to millimeters
G90 ; use absolute coordinates
M83 ; use relative distances for extrusion
;BEFORE_LAYER_CHANGE
G92 E0.0
;0.2


G1 E-2.00000 F2100.00000
G1 Z0.200 F10800.000
;AFTER_LAYER_CHANGE
;0.2
G1 X87.229 Y88.257
G1 E2.00000 F2100.00000
M204 S20
G1 F1800
G1 X89.468 Y86.151 E0.09639
G1 X91.749 Y84.481 E0.08863
G1 X131.960 Y61.266 E1.45582
G1 X134.407 Y59.925 E0.08747
G1 X137.331 Y58.759 E0.09871
G1 X140.288 Y57.997 E0.09574
G1 X143.348 Y57.607 E0.09673
G1 X146.164 Y57.597 E0.08829
G1 X149.463 Y57.985 E0.10414
G1 X152.472 Y58.755 E0.09739
G1 X155.359 Y59.900 E0.09738
G1 X158.264 Y61.530 E0.10441
G1 X160.512 Y63.174 E0.08736
G1 X162.556 Y65.081 E0.08764
G1 X164.572 Y67.463 E0.09786
G1 X166.364 Y70.248 E0.10382
G1 X167.762 Y73.278 E0.10464
G1 X168.621 Y75.949 E0.08796
G1 X169.155 Y78.698 E0.08780
G1 X169.389 Y81.906 E0.10084
G1 X169.389 Y128.087 E1.44799
G1 X169.199 Y131.017 E0.09205
G1 X168.681 Y133.785 E0.08829
G1 X167.656 Y137.011 E0.10613
G1 X166.371 Y139.739 E0.09458
G1 X164.859 Y142.140 E0.08896
G1 X162.555 Y144.920 E0.11321
G1 X160.499 Y146.837 E0.08812
G1 X158.028 Y148.631 E0.09574
G1 X155.353 Y150.103 E0.09574
G1 X152.734 Y151.151 E0.08846
G1 X149.253 Y152.049 E0.11272
G1 X146.442 Y152.395 E0.08879
G1 X143.531 Y152.402 E0.09127
G1 X140.359 Y152.016 E0.10019
G1 X137.613 Y151.323 E0.08879
G1 X134.297 Y150.019 E0.11173
G1 X131.959 Y148.734 E0.08366
G1 X92.121 Y125.761 E1.44189
G1 X89.645 Y123.990 E0.09545
G1 X87.275 Y121.791 E0.10135
G1 X85.458 Y119.613 E0.08895
G1 X83.511 Y116.547 E0.11386
G1 X82.320 Y113.990 E0.08846
G1 X81.370 Y111.054 E0.09673
G1 X80.801 Y108.054 E0.09574
G1 X80.611 Y104.875 E0.09986
G1 X80.804 Y101.923 E0.09276
G1 X81.381 Y98.903 E0.09639
G1 X82.328 Y95.989 E0.09607
G1 X83.632 Y93.216 E0.09607
G1 X85.284 Y90.611 E0.09673
G1 X87.191 Y88.304 E0.09386
M204 S1000
G1 X87.481 Y88.544 F10800.000
M204 S20
G1 F1800
G1 X89.711 Y86.440 E0.09611
G1 X91.974 Y84.783 E0.08795
G1 X132.148 Y61.592 E1.45444
G1 X134.572 Y60.264 E0.08665
G1 X137.449 Y59.117 E0.09712
G1 X140.366 Y58.366 E0.09444
G1 X143.374 Y57.983 E0.09507
G1 X146.164 Y57.974 E0.08747
G1 X149.400 Y58.357 E0.10218
G1 X152.362 Y59.116 E0.09587
G1 X155.199 Y60.241 E0.09570
G1 X158.067 Y61.853 E0.10316
G1 X160.273 Y63.466 E0.08568
G1 X162.298 Y65.356 E0.08684
G1 X164.277 Y67.698 E0.09615
G1 X166.034 Y70.431 E0.10186
G1 X167.408 Y73.408 E0.10281
G1 X168.256 Y76.044 E0.08683
G1 X168.784 Y78.768 E0.08700
G1 X169.012 Y81.918 E0.09901
G1 X169.012 Y128.077 E1.44728
G1 X168.825 Y130.971 E0.09095
G1 X168.311 Y133.713 E0.08746
G1 X167.308 Y136.867 E0.10376
G1 X166.039 Y139.560 E0.09333
G1 X164.544 Y141.933 E0.08794
G1 X162.298 Y144.644 E0.11039
G1 X160.258 Y146.547 E0.08746
G1 X157.825 Y148.313 E0.09429
G1 X155.190 Y149.763 E0.09428
G1 X152.595 Y150.800 E0.08762
G1 X149.201 Y151.675 E0.10991
G1 X146.417 Y152.018 E0.08794
G1 X143.541 Y152.025 E0.09016
G1 X140.426 Y151.645 E0.09839
G1 X137.707 Y150.958 E0.08794
G1 X134.473 Y149.686 E0.10896
G1 X132.148 Y148.408 E0.08319
G1 X92.310 Y125.435 E1.44190
G1 X89.878 Y123.693 E0.09381
G1 X87.544 Y121.527 E0.09982
G1 X85.748 Y119.373 E0.08794
G1 X83.851 Y116.383 E0.11101
G1 X82.672 Y113.855 E0.08747
G1 X81.736 Y110.966 E0.09523
G1 X81.175 Y108.006 E0.09444
G1 X80.988 Y104.884 E0.09807
G1 X81.178 Y101.969 E0.09159
G1 X81.746 Y98.996 E0.09491
G1 X82.679 Y96.126 E0.09460
G1 X83.963 Y93.396 E0.09459
G1 X85.590 Y90.832 E0.09523
G1 X87.443 Y88.590 E0.09119
M204 S1000
; PURGING FINISHED
G1 F8640
G1 X89.711 Y86.440 E-0.72153
G1 X91.974 Y84.783 E-0.64770
G1 X93.965 Y83.634 E-0.53076
G1 E-0.10000 F2100.00000
G1 X139.909 Y82.671 F10800.000
G1 E2.00000 F2100.00000
M204 S20
G1 F1800
G1 X139.870 Y82.040 E0.01984
G1 X139.909 Y81.408 E0.01984
G1 X140.028 Y80.786 E0.01984
G1 X140.224 Y80.183 E0.01988
G1 X140.505 Y79.593 E0.02051
G1 X140.832 Y79.078 E0.01912
G1 X141.235 Y78.590 E0.01984
G1 X141.696 Y78.157 E0.01984
G1 X142.208 Y77.785 E0.01984
G1 X142.763 Y77.480 E0.01984
G1 X143.351 Y77.247 E0.01984
G1 X143.964 Y77.090 E0.01984
G1 X144.592 Y77.011 E0.01984
G1 X145.225 Y77.011 E0.01984
G1 X145.852 Y77.090 E0.01984
G1 X146.465 Y77.247 E0.01984
G1 X147.054 Y77.480 E0.01984
G1 X147.608 Y77.785 E0.01984
G1 X148.120 Y78.157 E0.01984
G1 X148.565 Y78.575 E0.01912
G1 X148.984 Y79.077 E0.02051
G1 X149.324 Y79.612 E0.01988
G1 X149.593 Y80.185 E0.01984
G1 X149.789 Y80.786 E0.01984
G1 X149.907 Y81.408 E0.01984
G1 X149.947 Y82.040 E0.01984
G1 X149.907 Y82.671 E0.01984
G1 X149.789 Y83.293 E0.01984
G1 X149.593 Y83.896 E0.01988
G1 X149.311 Y84.486 E0.02051
G1 X148.985 Y85.001 E0.01912
G1 X148.581 Y85.489 E0.01984
G1 X148.120 Y85.922 E0.01984
G1 X147.608 Y86.294 E0.01984
G1 X147.054 Y86.599 E0.01984
G1 X146.465 Y86.832 E0.01984
G1 X145.875 Y86.983 E0.01912
G1 X145.226 Y87.068 E0.02051
G1 X144.592 Y87.068 E0.01988
G1 X143.964 Y86.989 E0.01984
G1 X143.351 Y86.832 E0.01984
G1 X142.763 Y86.599 E0.01984
G1 X142.208 Y86.294 E0.01984
G1 X141.696 Y85.922 E0.01984
G1 X141.252 Y85.504 E0.01912
G1 X140.833 Y85.002 E0.02051
G1 X140.493 Y84.467 E0.01988
G1 X140.223 Y83.894 E0.01984
G1 X140.028 Y83.293 E0.01984
G1 X139.920 Y82.730 E0.01796
M204 S1000
G1 X140.291 Y82.659 F10800.000
M204 S20
G1 F1800
G1 X140.247 Y82.040 E0.01948
G1 X140.284 Y81.455 E0.01835
G1 X140.394 Y80.880 E0.01835
G1 X140.575 Y80.323 E0.01837
G1 X140.836 Y79.775 E0.01902
G1 X141.137 Y79.300 E0.01766
G1 X141.511 Y78.849 E0.01835
G1 X141.937 Y78.448 E0.01835
G1 X142.411 Y78.104 E0.01835
G1 X142.924 Y77.822 E0.01835
G1 X143.468 Y77.607 E0.01835
G1 X144.035 Y77.461 E0.01835
G1 X144.616 Y77.388 E0.01835
G1 X145.201 Y77.388 E0.01835
G1 X145.782 Y77.461 E0.01835
G1 X146.349 Y77.607 E0.01835
G1 X146.893 Y77.822 E0.01835
G1 X147.406 Y78.104 E0.01835
G1 X147.879 Y78.448 E0.01835
G1 X148.290 Y78.834 E0.01766
G1 X148.679 Y79.299 E0.01902
G1 X148.993 Y79.794 E0.01837
G1 X149.242 Y80.324 E0.01835
G1 X149.423 Y80.880 E0.01835
G1 X149.532 Y81.455 E0.01835
G1 X149.569 Y82.040 E0.01835
G1 X149.532 Y82.624 E0.01835
G1 X149.423 Y83.199 E0.01835
G1 X149.242 Y83.756 E0.01837
G1 X148.981 Y84.304 E0.01902
G1 X148.679 Y84.779 E0.01766
G1 X148.306 Y85.230 E0.01835
G1 X147.879 Y85.631 E0.01835
G1 X147.406 Y85.975 E0.01835
G1 X146.893 Y86.257 E0.01835
G1 X146.349 Y86.472 E0.01835
G1 X145.803 Y86.612 E0.01766
G1 X145.201 Y86.691 E0.01902
G1 X144.616 Y86.691 E0.01837
G1 X144.035 Y86.618 E0.01835
G1 X143.468 Y86.472 E0.01835
G1 X142.924 Y86.257 E0.01835
G1 X142.411 Y85.975 E0.01835
G1 X141.937 Y85.631 E0.01835
G1 X141.527 Y85.245 E0.01766
G1 X141.138 Y84.780 E0.01902
G1 X140.824 Y84.285 E0.01837
G1 X140.575 Y83.755 E0.01835
G1 X140.394 Y83.199 E0.01835
G1 X140.302 Y82.718 E0.01533
M204 S1000
G1 X139.921 Y82.506 F10800.000
G1 F8640
G1 X140.247 Y82.040 E-0.15723
G1 X140.284 Y81.455 E-0.13515
G1 X140.394 Y80.880 E-0.13516
G1 X140.575 Y80.323 E-0.13526
G1 X140.836 Y79.775 E-0.14010
G1 X141.137 Y79.300 E-0.13005
G1 X141.511 Y78.849 E-0.13515
G1 X141.937 Y78.448 E-0.13515
G1 X142.411 Y78.104 E-0.13515
G1 X142.924 Y77.822 E-0.13515
G1 X143.468 Y77.607 E-0.13515
G1 X144.035 Y77.461 E-0.13515
G1 X144.616 Y77.388 E-0.13515
G1 X145.140 Y77.388 E-0.12097
G1 E-0.10000 F2100.00000
G1 X125.926 Y84.438 F10800.000
G1 E2.00000 F2100.00000
M204 S20
G1 F1800
G1 X125.775 Y82.040 E0.07534
G1 X125.926 Y79.641 E0.07534
G1 X126.376 Y77.281 E0.07534
G1 X127.118 Y74.996 E0.07534
G1 X128.141 Y72.822 E0.07534
G1 X129.429 Y70.793 E0.07534
G1 X130.960 Y68.942 E0.07534
G1 X132.712 Y67.297 E0.07534
G1 X134.656 Y65.885 E0.07534
G1 X136.762 Y64.727 E0.07534
G1 X138.996 Y63.843 E0.07534
G1 X141.323 Y63.245 E0.07534
G1 X143.707 Y62.944 E0.07534
G1 X146.110 Y62.944 E0.07534
G1 X148.493 Y63.245 E0.07534
G1 X150.821 Y63.843 E0.07534
G1 X153.055 Y64.727 E0.07534
G1 X155.160 Y65.885 E0.07534
G1 X157.104 Y67.297 E0.07534
G1 X158.856 Y68.942 E0.07534
G1 X160.388 Y70.793 E0.07534
G1 X161.675 Y72.822 E0.07534
G1 X162.698 Y74.996 E0.07534
G1 X163.441 Y77.281 E0.07534
G1 X163.891 Y79.641 E0.07534
G1 X164.042 Y82.040 E0.07534
G1 X163.891 Y84.438 E0.07534
G1 X163.441 Y86.798 E0.07534
G1 X162.698 Y89.083 E0.07534
G1 X161.675 Y91.257 E0.07534
G1 X160.388 Y93.286 E0.07534
G1 X158.856 Y95.137 E0.07534
G1 X157.104 Y96.782 E0.07534
G1 X155.160 Y98.194 E0.07534
G1 X153.055 Y99.352 E0.07534
G1 X150.821 Y100.236 E0.07534
G1 X148.493 Y100.834 E0.07534
G1 X146.110 Y101.135 E0.07534
G1 X143.707 Y101.135 E0.07534
G1 X141.323 Y100.834 E0.07534
G1 X138.996 Y100.236 E0.07534
G1 X136.762 Y99.352 E0.07534
G1 X134.656 Y98.194 E0.07534
G1 X132.712 Y96.782 E0.07534
G1 X130.960 Y95.137 E0.07534
G1 X129.429 Y93.286 E0.07534
G1 X128.141 Y91.257 E0.07534
G1 X127.118 Y89.083 E0.07534
G1 X126.376 Y86.798 E0.07534
G1 X125.937 Y84.497 E0.07346
M204 S1000
G1 X125.566 Y84.567 F10800.000
M204 S20
G1 F1800
G1 X125.397 Y82.040 E0.07943
G1 X125.551 Y79.594 E0.07683
G1 X126.010 Y77.187 E0.07683
G1 X126.767 Y74.857 E0.07683
G1 X127.810 Y72.640 E0.07683
G1 X129.123 Y70.571 E0.07683
G1 X130.685 Y68.683 E0.07682
G1 X132.471 Y67.006 E0.07683
G1 X134.454 Y65.566 E0.07683
G1 X136.601 Y64.385 E0.07682
G1 X138.879 Y63.483 E0.07683
G1 X141.252 Y62.874 E0.07683
G1 X143.683 Y62.567 E0.07683
G1 X146.133 Y62.567 E0.07683
G1 X148.564 Y62.874 E0.07683
G1 X150.938 Y63.483 E0.07683
G1 X153.216 Y64.385 E0.07683
G1 X155.363 Y65.566 E0.07682
G1 X157.345 Y67.006 E0.07683
G1 X159.131 Y68.683 E0.07683
G1 X160.693 Y70.571 E0.07682
G1 X162.006 Y72.640 E0.07683
G1 X163.049 Y74.857 E0.07683
G1 X163.807 Y77.187 E0.07683
G1 X164.266 Y79.594 E0.07683
G1 X164.420 Y82.040 E0.07683
G1 X164.266 Y84.485 E0.07683
G1 X163.807 Y86.892 E0.07683
G1 X163.049 Y89.222 E0.07683
G1 X162.006 Y91.439 E0.07683
G1 X160.693 Y93.508 E0.07683
G1 X159.131 Y95.396 E0.07682
G1 X157.345 Y97.073 E0.07683
G1 X155.363 Y98.513 E0.07683
G1 X153.216 Y99.694 E0.07682
G1 X150.938 Y100.596 E0.07683
G1 X148.564 Y101.205 E0.07683
G1 X146.133 Y101.512 E0.07683
G1 X143.683 Y101.512 E0.07683
G1 X141.252 Y101.205 E0.07683
G1 X138.879 Y100.596 E0.07683
G1 X136.601 Y99.694 E0.07683
G1 X134.454 Y98.513 E0.07682
G1 X132.471 Y97.073 E0.07683
G1 X130.685 Y95.396 E0.07683
G1 X129.123 Y93.508 E0.07682
G1 X127.810 Y91.439 E0.07683
G1 X126.767 Y89.222 E0.07683
G1 X126.010 Y86.892 E0.07683
G1 X125.578 Y84.626 E0.07232
M204 S1000
G1 X125.884 Y84.324 F10800.000
G1 F8640
G1 X125.397 Y82.040 E-0.59871
G1 X125.551 Y79.594 E-0.56577
G1 X126.010 Y77.187 E-0.56577
G1 X126.237 Y76.488 E-0.16975
G1 E-0.10000 F2100.00000
G1 X128.006 Y90.704 F10800.000
G1 E2.00000 F2100.00000
M204 S20
G1 F1800
G1 X136.237 Y98.934 E0.36837
M204 S1000
G1 F8640
G1 X130.418 Y93.116 E-1.90000
G1 E-0.10000 F2100.00000
G1 X137.274 Y99.433 F10800.000
G1 E2.00000 F2100.00000
M204 S20
G1 F1800
G1 X127.882 Y90.041 E0.42033
G1 X127.403 Y89.025 E0.03556
G1 X137.863 Y99.484 E0.46810
G1 X138.754 Y99.837 E0.03033
G1 X127.134 Y88.217 E0.52002
G1 X126.875 Y87.420 E0.02653
G1 X139.540 Y100.084 E0.56678
G1 X140.264 Y100.270 E0.02366
G1 X126.634 Y86.640 E0.61001
G1 X126.507 Y85.975 E0.02143
G1 X140.988 Y100.456 E0.64810
G1 X141.376 Y100.556 E0.01268
G1 X141.662 Y100.592 E0.00912
G1 X126.380 Y85.310 E0.68394
G1 X126.253 Y84.645 E0.02143
G1 X142.278 Y100.670 E0.71719
G1 X142.894 Y100.747 E0.01965
G1 X126.184 Y84.037 E0.74786
G1 X126.148 Y83.463 E0.01821
G1 X143.510 Y100.825 E0.77705
G1 X143.725 Y100.852 E0.00684
G1 X144.075 Y100.852 E0.01110
G1 X126.111 Y82.888 E0.80397
G1 X126.075 Y82.314 E0.01821
G1 X144.614 Y100.852 E0.82968
G1 X145.152 Y100.852 E0.01703
G1 X126.075 Y81.775 E0.85379
G1 X126.107 Y81.269 E0.01606
G1 X145.690 Y100.852 E0.87646
M73 Q0 S142
M73 P0 R140
G1 X146.213 Y100.837 E0.01656
G1 X126.138 Y80.762 E0.89843
G1 X126.170 Y80.256 E0.01606
G1 X146.691 Y100.777 E0.91840
G1 X147.169 Y100.716 E0.01524
G1 X126.202 Y79.750 E0.93836
G1 X126.281 Y79.290 E0.01476
G1 X147.647 Y100.656 E0.95623
G1 X148.125 Y100.596 E0.01524
G1 X126.367 Y78.838 E0.97376
G1 X126.453 Y78.386 E0.01456
G1 X148.586 Y100.518 E0.99054
G1 X149.014 Y100.408 E0.01399
G1 X126.539 Y77.934 E1.00585
G1 X126.625 Y77.482 E0.01456
G1 X149.442 Y100.299 E1.02116
G1 X149.870 Y100.189 E0.01399
G1 X126.744 Y77.062 E1.03500
G1 X126.876 Y76.656 E0.01352
G1 X150.299 Y100.079 E1.04826
G1 X150.727 Y99.969 E0.01399
G1 X127.008 Y76.250 E1.06152
G1 X127.140 Y75.844 E0.01352
G1 X151.113 Y99.817 E1.07290
G1 X151.499 Y99.664 E0.01312
G1 X127.272 Y75.437 E1.08425
G1 X127.411 Y75.038 E0.01338
G1 X151.884 Y99.511 E1.09529
G1 X152.270 Y99.359 E0.01312
G1 X127.583 Y74.672 E1.10484
G1 X127.756 Y74.306 E0.01280
G1 X152.655 Y99.206 E1.11439
G1 X153.030 Y99.043 E0.01294
G1 X127.928 Y73.940 E1.12346
G1 X128.100 Y73.574 E0.01280
G1 X153.503 Y98.977 E1.13689
M204 S1000
G1 F8640
G1 X147.684 Y93.158 E-1.90000
G1 E-0.10000 F2100.00000
G1 X161.483 Y91.348 F10800.000
G1 E2.00000 F2100.00000
M204 S20
G1 F1800
G1 X149.505 Y79.370 E0.53608
G1 X149.572 Y79.476 E0.00395
G1 X149.857 Y80.080 E0.02115
G1 X149.943 Y80.346 E0.00885
G1 X161.151 Y91.555 E0.50162
G1 X160.942 Y91.884 E0.01234
G1 X150.131 Y81.073 E0.48385
G1 X150.188 Y81.372 E0.00966
G1 X150.208 Y81.688 E0.01000
G1 X160.733 Y92.213 E0.47105
G1 X160.524 Y92.542 E0.01234
G1 X150.218 Y82.236 E0.46126
G1 X150.182 Y82.738 E0.01594
G1 X160.315 Y92.872 E0.45351
G1 X160.098 Y93.192 E0.01226
G1 X150.096 Y83.191 E0.44763
G1 X150.063 Y83.363 E0.00556
G1 X149.982 Y83.614 E0.00836
G1 X159.854 Y93.487 E0.44185
G1 X159.611 Y93.781 E0.01210
G1 X149.847 Y84.018 E0.43694
G1 X149.674 Y84.383 E0.01278
G1 X159.367 Y94.076 E0.43381
G1 X159.123 Y94.371 E0.01210
G1 X149.488 Y84.736 E0.43121
G1 X149.279 Y85.065 E0.01234
G1 X158.879 Y94.665 E0.42966
G1 X158.634 Y94.958 E0.01209
G1 X149.046 Y85.370 E0.42909
G1 X148.803 Y85.665 E0.01210
G1 X158.356 Y95.218 E0.42757
G1 X158.079 Y95.479 E0.01205
G1 X148.527 Y85.928 E0.42748
G1 X148.243 Y86.182 E0.01206
G1 X157.801 Y95.740 E0.42776
G1 X157.524 Y96.000 E0.01205
G1 X147.932 Y86.408 E0.42929
G1 X147.604 Y86.619 E0.01233
G1 X157.246 Y96.261 E0.43154
G1 X156.968 Y96.522 E0.01205
G1 X147.257 Y86.810 E0.43466
G1 X146.880 Y86.972 E0.01297
G1 X156.662 Y96.754 E0.43780
G1 X156.351 Y96.980 E0.01219
G1 X146.488 Y87.118 E0.44140
G1 X146.060 Y87.228 E0.01399
G1 X156.039 Y97.207 E0.44661
G1 X155.727 Y97.433 E0.01219
G1 X145.598 Y87.305 E0.45330
G1 X145.244 Y87.351 E0.01130
G1 X145.107 Y87.351 E0.00436
G1 X155.415 Y97.660 E0.46136
G1 X155.104 Y97.886 E0.01219
G1 X144.567 Y87.350 E0.47154
G1 X143.951 Y87.272 E0.01965
G1 X154.767 Y98.088 E0.48405
M73 Q1 S141
M73 P1 R139
G1 X154.420 Y98.279 E0.01254
G1 X143.228 Y87.087 E0.50090
G1 X142.642 Y86.855 E0.01992
G1 X142.232 Y86.630 E0.01481
G1 X154.072 Y98.470 E0.52991
G1 X153.725 Y98.661 E0.01254
G1 X128.272 Y73.208 E1.13913
G1 X128.456 Y72.854 E0.01263
G1 X140.311 Y84.709 E0.53057
G1 X140.244 Y84.603 E0.00395
G1 X139.960 Y83.999 E0.02115
G1 X139.873 Y83.733 E0.00885
G1 X128.665 Y72.524 E0.50162
G1 X128.874 Y72.195 E0.01234
G1 X139.685 Y83.006 E0.48385
G1 X139.628 Y82.707 E0.00966
G1 X139.608 Y82.391 E0.01000
