; generated by Slic3r Prusa Edition 1.41.1 on 2018-11-14 at 21:54:49

; 

; external perimeters extrusion width = 0.45mm
; perimeters extrusion width = 0.45mm
; infill extrusion width = 0.45mm
; solid infill extrusion width = 0.45mm
; top infill extrusion width = 0.40mm
; first layer extrusion width = 0.42mm

M73 P0 R42
M73 Q0 S43
M201 X1000 Y1000 Z1000 E5000 ; sets maximum accelerations, mm/sec^2
M203 X200 Y200 Z12 E120 ; sets maximum feedrates, mm/sec
M204 P1250 R1250 T1250 ; sets acceleration (P, T) and retract acceleration (R), mm/sec^2
M205 X8.00 Y8.00 Z0.40 E1.50 ; sets the jerk limits, mm/sec
M205 S0 T0 ; sets the minimum extruding and travel feed rate, mm/sec
M107
M115 U3.4.0 ; tell printer latest fw version
M83  ; extruder relative mode
M104 S140 ; set extruder to warm-up temp
M140 S80 ; set bed temp
M190 S80 ; wait for bed temp
G28 W ; home all without mesh bed level
G80 ; mesh bed leveling
M104 S245 ; set extruder temp
M109 S245 ; wait for extruder temp
G1 Y-3.0 F1000.0 ; go outside print area
G92 E0.0
G1 X60.0 E9.0  F1000.0 ; intro line
M73 Q0 S43
M73 P0 R42
G1 X100.0 E12.5  F1000.0 ; intro line
G92 E0.0
M221 S95
M900 K45; Filament gcode
G21 ; set units to millimeters
G90 ; use absolute coordinates
M83 ; use relative distances for extrusion
;BEFORE_LAYER_CHANGE
G92 E0.0
;0.2


G1 E-0.80000 F2100.00000
G1 Z0.600 F10800.000
;AFTER_LAYER_CHANGE
;0.2
G1 X72.699 Y52.384
G1 Z0.200
G1 E0.80000 F2100.00000
M204 S20
G1 F1800
G1 X73.356 Y51.678 E0.03023
G1 X74.151 Y51.124 E0.03040
G1 X75.041 Y50.751 E0.03023
G1 X114.098 Y40.649 E1.26492
G1 X114.979 Y40.559 E0.02776
G1 X135.005 Y40.559 E0.62791
G1 X136.128 Y40.701 E0.03549
G1 X174.982 Y50.758 E1.25836
G1 X175.970 Y51.193 E0.03385
G1 X176.825 Y51.844 E0.03369
G1 X177.503 Y52.676 E0.03369
G1 X177.971 Y53.650 E0.03385
G1 X178.153 Y54.370 E0.02331
G1 X178.216 Y55.117 E0.02348
G1 X178.216 Y162.886 E3.37902
G1 X178.025 Y164.410 E0.04817
G1 X177.698 Y165.406 E0.03286
G1 X177.221 Y166.336 E0.03278
G1 X176.827 Y166.910 E0.02183
G1 X175.969 Y167.804 E0.03884
G1 X175.408 Y168.258 E0.02265
G1 X173.692 Y169.115 E0.06011
G1 X171.808 Y169.438 E0.05994
G1 X78.324 Y169.441 E2.93115
G1 X76.809 Y169.248 E0.04786
G1 X75.819 Y168.922 E0.03270
G1 X74.889 Y168.445 E0.03277
G1 X74.315 Y168.052 E0.02183
G1 X73.420 Y167.194 E0.03885
G1 X72.963 Y166.628 E0.02282
G1 X72.107 Y164.907 E0.06028
G1 X71.787 Y163.017 E0.06010
G1 X71.784 Y55.109 E3.38337
G1 X71.892 Y54.140 E0.03056
G1 X72.205 Y53.212 E0.03073
G1 X72.668 Y52.435 E0.02835
M204 S1000
G1 X72.990 Y52.628 F10800.000
M204 S20
G1 F1800
G1 X73.608 Y51.959 E0.02855
G1 X74.337 Y51.452 E0.02785
G1 X75.157 Y51.110 E0.02785
G1 X114.182 Y41.017 E1.26387
G1 X114.986 Y40.936 E0.02533
G1 X135.005 Y40.936 E0.62768
G1 X136.036 Y41.067 E0.03257
G1 X174.855 Y51.114 E1.25725
G1 X175.762 Y51.508 E0.03100
G1 X176.554 Y52.107 E0.03116
G1 X177.184 Y52.876 E0.03116
G1 X177.614 Y53.772 E0.03116
G1 X177.781 Y54.433 E0.02138
G1 X177.839 Y55.117 E0.02154
G1 X177.839 Y162.885 E3.37898
G1 X177.656 Y164.332 E0.04574
G1 X177.353 Y165.253 E0.03037
G1 X176.538 Y166.668 E0.05122
G1 X175.714 Y167.527 E0.03732
G1 X175.192 Y167.949 E0.02106
G1 X173.567 Y168.759 E0.05691
G1 X171.788 Y169.061 E0.05658
G1 X78.330 Y169.063 E2.93031
G1 X76.887 Y168.879 E0.04560
G1 X75.972 Y168.578 E0.03021
G1 X74.553 Y167.760 E0.05136
G1 X73.694 Y166.935 E0.03733
G1 X73.272 Y166.412 E0.02106
G1 X72.464 Y164.787 E0.05691
G1 X72.163 Y163.002 E0.05674
G1 X72.161 Y55.110 E3.38288
G1 X72.261 Y54.217 E0.02816
G1 X72.549 Y53.366 E0.02816
G1 X72.959 Y52.679 E0.02509
M204 S1000
; PURGING FINISHED
G1 F8640
G1 X73.608 Y51.959 E-0.22386
G1 X74.337 Y51.452 E-0.20509
G1 X75.157 Y51.110 E-0.20509
G1 X75.685 Y50.973 E-0.12596
G1 E-0.04000 F2100.00000
G1 Z0.800 F10800.000
G1 X77.663 Y66.688
G1 Z0.200
G1 E0.80000 F2100.00000
M204 S20
G1 F1800
G1 X172.337 Y66.688 E2.96844
G1 X172.337 Y162.772 E3.01266
G1 X172.229 Y163.452 E0.02157
G1 X171.548 Y163.562 E0.02163
G1 X78.452 Y163.562 E2.91894
G1 X77.771 Y163.452 E0.02163
G1 X77.663 Y162.772 E0.02157
G1 X77.663 Y66.748 E3.01078
M204 S1000
G1 X78.040 Y67.065 F10800.000
M204 S20
G1 F1800
G1 X171.960 Y67.065 E2.94480
G1 X171.960 Y162.743 E2.99990
G1 X171.899 Y163.123 E0.01209
G1 X171.517 Y163.185 E0.01213
G1 X78.483 Y163.185 E2.91704
M73 Q2 S42
M73 P2 R41
G1 X78.101 Y163.123 E0.01213
G1 X78.040 Y162.743 E0.01209
G1 X78.040 Y67.125 E2.99802
M204 S1000
G1 X78.040 Y66.665 F10800.000
G1 F8640
G1 X81.331 Y67.123 E-0.76000
G1 E-0.04000 F2100.00000
G1 Z0.800 F10800.000
G1 X134.313 Y55.812
G1 Z0.200
G1 E0.80000 F2100.00000
M204 S20
G1 F1800
G1 X172.963 Y55.812 E1.21184
G1 X172.963 Y162.821 E3.35519
G1 X172.890 Y163.278 E0.01451
G1 X172.705 Y163.642 E0.01280
G1 X172.417 Y163.930 E0.01278
G1 X172.053 Y164.115 E0.01280
G1 X171.596 Y164.188 E0.01451
G1 X78.404 Y164.188 E2.92196
G1 X77.947 Y164.115 E0.01451
G1 X77.583 Y163.930 E0.01280
G1 X77.295 Y163.642 E0.01278
G1 X77.109 Y163.278 E0.01280
G1 X77.037 Y162.821 E0.01451
G1 X77.037 Y55.812 E3.35519
G1 X115.687 Y55.812 E1.21184
G1 X115.687 Y45.812 E0.31354
G1 X134.313 Y45.812 E0.58400
G1 X134.313 Y55.752 E0.31166
M204 S1000
G1 X134.690 Y55.435 F10800.000
M204 S20
G1 F1800
G1 X173.340 Y55.435 E1.21184
G1 X173.340 Y162.851 E3.36794
G1 X173.254 Y163.396 E0.01732
G1 X173.014 Y163.866 E0.01655
G1 X172.641 Y164.239 E0.01653
G1 X172.171 Y164.479 E0.01654
G1 X171.626 Y164.565 E0.01732
G1 X78.374 Y164.565 E2.92382
G1 X77.829 Y164.479 E0.01732
G1 X77.359 Y164.239 E0.01654
G1 X76.986 Y163.866 E0.01653
G1 X76.746 Y163.396 E0.01655
G1 X76.660 Y162.851 E0.01732
G1 X76.660 Y55.435 E3.36794
G1 X115.310 Y55.435 E1.21184
G1 X115.310 Y45.435 E0.31354
G1 X134.690 Y45.435 E0.60765
G1 X134.690 Y55.375 E0.31166
M204 S1000
G1 X134.833 Y55.809 F10800.000
G1 X134.200 Y55.408
M204 S20
G1 F1800
G1 X124.887 Y46.095 E0.41339
G1 X125.421 Y46.095 E0.01676
G1 X134.030 Y54.704 E0.38217
G1 X134.030 Y54.170 E0.01676
G1 X125.955 Y46.095 E0.35847
G1 X126.489 Y46.095 E0.01676
G1 X134.030 Y53.636 E0.33477
G1 X134.030 Y53.103 E0.01676
G1 X127.022 Y46.095 E0.31107
G1 X127.556 Y46.095 E0.01676
G1 X134.030 Y52.569 E0.28738
G1 X134.030 Y52.035 E0.01676
G1 X128.090 Y46.095 E0.26368
G1 X128.624 Y46.095 E0.01676
G1 X134.030 Y51.501 E0.23998
G1 X134.030 Y50.967 E0.01676
G1 X129.158 Y46.095 E0.21628
G1 X129.692 Y46.095 E0.01676
G1 X134.030 Y50.433 E0.19259
G1 X134.030 Y49.900 E0.01676
G1 X130.225 Y46.095 E0.16889
G1 X130.759 Y46.095 E0.01676
G1 X134.030 Y49.366 E0.14519
G1 X134.030 Y48.832 E0.01676
G1 X131.293 Y46.095 E0.12149
G1 X131.827 Y46.095 E0.01676
G1 X134.030 Y48.298 E0.09780
G1 X134.030 Y47.764 E0.01676
G1 X132.361 Y46.095 E0.07410
G1 X132.895 Y46.095 E0.01676
G1 X134.030 Y47.230 E0.05040
G1 X134.030 Y46.696 E0.01676
G1 X133.429 Y46.095 E0.02670
G1 X133.962 Y46.095 E0.01676
G1 X134.200 Y46.332 E0.01054
M204 S1000
G1 F8640
G1 X133.962 Y46.095 E-0.07753
G1 X133.429 Y46.095 E-0.12327
G1 X134.030 Y46.696 E-0.19645
G1 X134.030 Y47.230 E-0.12327
G1 X133.297 Y46.497 E-0.23949
G1 E-0.04000 F2100.00000
G1 Z0.800 F10800.000
G1 X134.717 Y55.925
G1 Z0.200
G1 E0.80000 F2100.00000
M204 S20
G1 F1800
G1 X145.197 Y66.405 E0.46520
G1 X145.731 Y66.405 E0.01676
G1 X135.421 Y56.095 E0.45767
G1 X135.955 Y56.095 E0.01676
G1 X146.265 Y66.405 E0.45767
G1 X146.799 Y66.405 E0.01676
G1 X136.489 Y56.095 E0.45767
G1 X137.022 Y56.095 E0.01676
G1 X147.333 Y66.405 E0.45767
G1 X147.866 Y66.405 E0.01676
G1 X137.556 Y56.095 E0.45767
G1 X138.090 Y56.095 E0.01676
G1 X148.400 Y66.405 E0.45767
M73 Q4 S41
M73 P4 R40
G1 X148.934 Y66.405 E0.01676
G1 X138.624 Y56.095 E0.45767
G1 X139.158 Y56.095 E0.01676
G1 X149.468 Y66.405 E0.45767
G1 X150.002 Y66.405 E0.01676
G1 X139.692 Y56.095 E0.45767
G1 X140.225 Y56.095 E0.01676
G1 X150.536 Y66.405 E0.45767
G1 X151.070 Y66.405 E0.01676
G1 X140.759 Y56.095 E0.45767
G1 X141.293 Y56.095 E0.01676
G1 X151.603 Y66.405 E0.45767
G1 X152.137 Y66.405 E0.01676
G1 X141.827 Y56.095 E0.45767
G1 X142.361 Y56.095 E0.01676
G1 X152.671 Y66.405 E0.45767
G1 X153.205 Y66.405 E0.01676
G1 X142.895 Y56.095 E0.45767
G1 X143.429 Y56.095 E0.01676
G1 X153.739 Y66.405 E0.45767
G1 X154.273 Y66.405 E0.01676
G1 X143.962 Y56.095 E0.45767
G1 X144.496 Y56.095 E0.01676
G1 X154.807 Y66.405 E0.45767
G1 X155.340 Y66.405 E0.01676
G1 X145.030 Y56.095 E0.45767
G1 X145.564 Y56.095 E0.01676
G1 X155.874 Y66.405 E0.45767
G1 X156.408 Y66.405 E0.01676
G1 X146.098 Y56.095 E0.45767
G1 X146.632 Y56.095 E0.01676
G1 X156.942 Y66.405 E0.45767
G1 X157.476 Y66.405 E0.01676
G1 X147.165 Y56.095 E0.45767
G1 X147.699 Y56.095 E0.01676
G1 X158.010 Y66.405 E0.45767
G1 X158.543 Y66.405 E0.01676
G1 X148.233 Y56.095 E0.45767
G1 X148.767 Y56.095 E0.01676
G1 X159.077 Y66.405 E0.45767
G1 X159.611 Y66.405 E0.01676
G1 X149.301 Y56.095 E0.45767
G1 X149.835 Y56.095 E0.01676
G1 X160.145 Y66.405 E0.45767
G1 X160.679 Y66.405 E0.01676
G1 X150.369 Y56.095 E0.45767
G1 X150.902 Y56.095 E0.01676
G1 X161.213 Y66.405 E0.45767
G1 X161.747 Y66.405 E0.01676
G1 X151.436 Y56.095 E0.45767
G1 X151.970 Y56.095 E0.01676
G1 X162.280 Y66.405 E0.45767
G1 X162.814 Y66.405 E0.01676
G1 X152.504 Y56.095 E0.45767
G1 X153.038 Y56.095 E0.01676
G1 X163.348 Y66.405 E0.45767
G1 X163.882 Y66.405 E0.01676
G1 X153.572 Y56.095 E0.45767
G1 X154.106 Y56.095 E0.01676
G1 X164.416 Y66.405 E0.45767
G1 X164.950 Y66.405 E0.01676
G1 X154.639 Y56.095 E0.45767
G1 X155.173 Y56.095 E0.01676
G1 X165.483 Y66.405 E0.45767
G1 X166.017 Y66.405 E0.01676
G1 X155.707 Y56.095 E0.45767
G1 X156.241 Y56.095 E0.01676
G1 X166.551 Y66.405 E0.45767
G1 X167.085 Y66.405 E0.01676
G1 X156.775 Y56.095 E0.45767
G1 X157.309 Y56.095 E0.01676
G1 X167.619 Y66.405 E0.45767
G1 X168.153 Y66.405 E0.01676
G1 X157.842 Y56.095 E0.45767
G1 X158.376 Y56.095 E0.01676
G1 X168.687 Y66.405 E0.45767
G1 X169.220 Y66.405 E0.01676
G1 X158.910 Y56.095 E0.45767
G1 X159.444 Y56.095 E0.01676
G1 X169.754 Y66.405 E0.45767
G1 X170.288 Y66.405 E0.01676
G1 X159.978 Y56.095 E0.45767
G1 X160.512 Y56.095 E0.01676
G1 X170.822 Y66.405 E0.45767
G1 X171.356 Y66.405 E0.01676
G1 X161.046 Y56.095 E0.45767
G1 X161.579 Y56.095 E0.01676
G1 X171.890 Y66.405 E0.45767
G1 X172.221 Y66.405 E0.01041
G1 X172.221 Y66.217 E0.00592
G1 X172.235 Y66.217 E0.00043
G1 X162.113 Y56.095 E0.44930
G1 X162.647 Y56.095 E0.01676
G1 X172.680 Y66.128 E0.44536
G1 X172.680 Y65.594 E0.01676
G1 X163.181 Y56.095 E0.42167
G1 X163.715 Y56.095 E0.01676
G1 X172.680 Y65.060 E0.39797
G1 X172.680 Y64.526 E0.01676
G1 X164.249 Y56.095 E0.37427
G1 X164.782 Y56.095 E0.01676
G1 X172.680 Y63.993 E0.35057
G1 X172.680 Y63.459 E0.01676
G1 X165.316 Y56.095 E0.32688
G1 X165.850 Y56.095 E0.01676
G1 X172.680 Y62.925 E0.30318
G1 X172.680 Y62.391 E0.01676
G1 X166.384 Y56.095 E0.27948
G1 X166.918 Y56.095 E0.01676
G1 X172.680 Y61.857 E0.25578
G1 X172.680 Y61.323 E0.01676
G1 X167.452 Y56.095 E0.23209
G1 X167.986 Y56.095 E0.01676
G1 X172.680 Y60.789 E0.20839
G1 X172.680 Y60.256 E0.01676
G1 X168.519 Y56.095 E0.18469
G1 X169.053 Y56.095 E0.01676
G1 X172.680 Y59.722 E0.16100
G1 X172.680 Y59.188 E0.01676
G1 X169.587 Y56.095 E0.13730
G1 X170.121 Y56.095 E0.01676
G1 X172.680 Y58.654 E0.11360
M73 Q7 S40
M73 P7 R39
G1 X172.680 Y58.120 E0.01676
G1 X170.655 Y56.095 E0.08990
G1 X171.189 Y56.095 E0.01676
G1 X172.680 Y57.586 E0.06621
G1 X172.680 Y57.052 E0.01676
G1 X171.723 Y56.095 E0.04251
G1 X172.256 Y56.095 E0.01676
G1 X172.850 Y56.688 E0.02634
M204 S1000
G1 F8640
G1 X172.256 Y56.095 E-0.19379
G1 X171.723 Y56.095 E-0.12327
G1 X172.680 Y57.052 E-0.31271
G1 X172.680 Y57.586 E-0.12327
G1 X172.659 Y57.565 E-0.00697
G1 E-0.04000 F2100.00000
G1 Z0.800 F10800.000
G1 X172.650 Y66.499
G1 Z0.200
G1 E0.80000 F2100.00000
M204 S20
G1 F1800
G1 X172.650 Y162.787 E1.99171
G1 X172.589 Y163.180 E0.00823
G1 X172.539 Y163.334 E0.00334
M204 S1000
M204 S20
G1 X172.489 Y163.488 E0.00290
M204 S1000
M204 S20
G1 X172.439 Y163.641 E0.00245
M204 S1000
G1 X172.418 Y163.662 F10800.000
M204 S20
G1 F1800
G1 X171.955 Y163.814 E0.00810
G1 X171.563 Y163.875 E0.00660
G1 X78.437 Y163.875 E1.54914
G1 X78.045 Y163.814 E0.00660
G1 X77.582 Y163.662 E0.00811
M204 S1000
G1 X77.561 Y163.641 F10800.000
M204 S20
G1 F1800
G1 X77.411 Y163.180 E0.00735
G1 X77.350 Y162.787 E0.00603
G1 X77.350 Y66.499 E1.45970
M204 S1000
G1 X78.102 Y66.575 F10800.000
M204 S20
G1 F1800
G1 X77.320 Y65.793 E0.03472
G1 X77.320 Y65.259 E0.01676
G1 X78.466 Y66.405 E0.05088
G1 X79.000 Y66.405 E0.01676
G1 X77.320 Y64.725 E0.07458
G1 X77.320 Y64.191 E0.01676
G1 X79.534 Y66.405 E0.09828
G1 X80.068 Y66.405 E0.01676
G1 X77.320 Y63.657 E0.12198
G1 X77.320 Y63.123 E0.01676
G1 X80.602 Y66.405 E0.14567
G1 X81.135 Y66.405 E0.01676
G1 X77.320 Y62.590 E0.16937
G1 X77.320 Y62.056 E0.01676
G1 X81.669 Y66.405 E0.19307
G1 X82.203 Y66.405 E0.01676
G1 X77.320 Y61.522 E0.21676
G1 X77.320 Y60.988 E0.01676
G1 X82.737 Y66.405 E0.24046
G1 X83.271 Y66.405 E0.01676
G1 X77.320 Y60.454 E0.26416
G1 X77.320 Y59.920 E0.01676
G1 X83.805 Y66.405 E0.28786
G1 X84.338 Y66.405 E0.01676
G1 X77.320 Y59.387 E0.31155
G1 X77.320 Y58.853 E0.01676
G1 X84.872 Y66.405 E0.33525
G1 X85.406 Y66.405 E0.01676
G1 X77.320 Y58.319 E0.35895
G1 X77.320 Y57.785 E0.01676
G1 X85.940 Y66.405 E0.38265
G1 X86.474 Y66.405 E0.01676
G1 X77.320 Y57.251 E0.40634
G1 X77.320 Y56.717 E0.01676
G1 X87.008 Y66.405 E0.43004
G1 X87.542 Y66.405 E0.01676
G1 X77.320 Y56.183 E0.45374
G1 X77.320 Y56.095 E0.00278
G1 X77.765 Y56.095 E0.01398
G1 X88.075 Y66.405 E0.45767
G1 X88.609 Y66.405 E0.01676
G1 X78.299 Y56.095 E0.45767
G1 X78.833 Y56.095 E0.01676
G1 X89.143 Y66.405 E0.45767
G1 X89.677 Y66.405 E0.01676
G1 X79.367 Y56.095 E0.45767
G1 X79.901 Y56.095 E0.01676
G1 X90.211 Y66.405 E0.45767
G1 X90.745 Y66.405 E0.01676
G1 X80.434 Y56.095 E0.45767
G1 X80.968 Y56.095 E0.01676
G1 X91.279 Y66.405 E0.45767
G1 X91.812 Y66.405 E0.01676
G1 X81.502 Y56.095 E0.45767
G1 X82.036 Y56.095 E0.01676
G1 X92.346 Y66.405 E0.45767
G1 X92.880 Y66.405 E0.01676
G1 X82.570 Y56.095 E0.45767
G1 X83.104 Y56.095 E0.01676
G1 X93.414 Y66.405 E0.45767
G1 X93.948 Y66.405 E0.01676
G1 X83.637 Y56.095 E0.45767
G1 X84.171 Y56.095 E0.01676
G1 X94.482 Y66.405 E0.45767
G1 X95.015 Y66.405 E0.01676
G1 X84.705 Y56.095 E0.45767
G1 X85.239 Y56.095 E0.01676
G1 X95.549 Y66.405 E0.45767
G1 X96.083 Y66.405 E0.01676
G1 X85.773 Y56.095 E0.45767
G1 X86.307 Y56.095 E0.01676
G1 X96.617 Y66.405 E0.45767
G1 X97.151 Y66.405 E0.01676
G1 X86.841 Y56.095 E0.45767
G1 X87.374 Y56.095 E0.01676
G1 X97.685 Y66.405 E0.45767
G1 X98.219 Y66.405 E0.01676
G1 X87.908 Y56.095 E0.45767
G1 X88.442 Y56.095 E0.01676
G1 X98.752 Y66.405 E0.45767
G1 X99.286 Y66.405 E0.01676
G1 X88.976 Y56.095 E0.45767
G1 X89.510 Y56.095 E0.01676
G1 X99.820 Y66.405 E0.45767
G1 X100.354 Y66.405 E0.01676
G1 X90.044 Y56.095 E0.45767
G1 X90.578 Y56.095 E0.01676
G1 X100.888 Y66.405 E0.45767
G1 X101.422 Y66.405 E0.01676
G1 X91.111 Y56.095 E0.45767
G1 X91.645 Y56.095 E0.01676
G1 X101.955 Y66.405 E0.45767
G1 X102.489 Y66.405 E0.01676
G1 X92.179 Y56.095 E0.45767
G1 X92.713 Y56.095 E0.01676
G1 X103.023 Y66.405 E0.45767
G1 X103.557 Y66.405 E0.01676
G1 X93.247 Y56.095 E0.45767
G1 X93.781 Y56.095 E0.01676
G1 X104.091 Y66.405 E0.45767
G1 X104.625 Y66.405 E0.01676
G1 X94.314 Y56.095 E0.45767
M73 Q9 S39
M73 P9 R38
G1 X94.848 Y56.095 E0.01676
G1 X105.159 Y66.405 E0.45767
G1 X105.692 Y66.405 E0.01676
G1 X95.382 Y56.095 E0.45767
G1 X95.916 Y56.095 E0.01676
G1 X106.226 Y66.405 E0.45767
G1 X106.760 Y66.405 E0.01676
G1 X96.450 Y56.095 E0.45767
G1 X96.984 Y56.095 E0.01676
G1 X107.294 Y66.405 E0.45767
G1 X107.828 Y66.405 E0.01676
G1 X97.518 Y56.095 E0.45767
G1 X98.051 Y56.095 E0.01676
G1 X108.362 Y66.405 E0.45767
G1 X108.896 Y66.405 E0.01676
G1 X98.585 Y56.095 E0.45767
G1 X99.119 Y56.095 E0.01676
G1 X109.429 Y66.405 E0.45767
G1 X109.963 Y66.405 E0.01676
G1 X99.653 Y56.095 E0.45767
G1 X100.187 Y56.095 E0.01676
G1 X110.497 Y66.405 E0.45767
G1 X111.031 Y66.405 E0.01676
G1 X100.721 Y56.095 E0.45767
G1 X101.254 Y56.095 E0.01676
G1 X111.565 Y66.405 E0.45767
G1 X112.099 Y66.405 E0.01676
G1 X101.788 Y56.095 E0.45767
G1 X102.322 Y56.095 E0.01676
G1 X112.632 Y66.405 E0.45767
G1 X113.166 Y66.405 E0.01676
G1 X102.856 Y56.095 E0.45767
G1 X103.390 Y56.095 E0.01676
