; generated by Slic3r Prusa Edition 1.41.0 on 2018-10-28 at 20:58:31

; 

; external perimeters extrusion width = 0.45mm
; perimeters extrusion width = 0.45mm
; infill extrusion width = 0.45mm
; solid infill extrusion width = 0.45mm
; top infill extrusion width = 0.40mm
; support material extrusion width = 0.35mm
; first layer extrusion width = 0.42mm

M201 X1000 Y1000 Z1000 E5000 ; sets maximum accelerations, mm/sec^2
M203 X200 Y200 Z12 E120 ; sets maximum feedrates, mm/sec
M204 P1250 R1250 T1250 ; sets acceleration (P, T) and retract acceleration (R), mm/sec^2
M205 X8.00 Y8.00 Z0.40 E1.50 ; sets the jerk limits, mm/sec
M205 S0 T0 ; sets the minimum extruding and travel feed rate, mm/sec
M107
M115 U3.4.0 ; tell printer latest fw version
M83  ; extruder relative mode
M104 S140 ; set extruder to warm-up temp
M140 S80 ; set bed temp
M190 S80 ; wait for bed temp
G28 W ; home all without mesh bed level
G80 ; mesh bed leveling
M104 S245 ; set extruder temp
M109 S245 ; wait for extruder temp
G1 Y-3.0 F1000.0 ; go outside print area
G92 E0.0
G1 X60.0 E9.0  F1000.0 ; intro line
M73 Q0 S116
M73 P0 R115
G1 X100.0 E12.5  F1000.0 ; intro line
G92 E0.0
M221 S95
M900 K45; Filament gcode
G21 ; set units to millimeters
G90 ; use absolute coordinates
M83 ; use relative distances for extrusion
;BEFORE_LAYER_CHANGE
G92 E0.0
;0.2


G1 E-0.80000 F2100.00000
G1 Z0.600 F10800.000
;AFTER_LAYER_CHANGE
;0.2
G1 X64.361 Y42.273
G1 Z0.200
G1 E0.80000 F2100.00000
M204 S20
G1 F1800
G1 X66.458 Y41.139 E0.07474
G1 X67.534 Y40.773 E0.03566
G1 X69.864 Y40.436 E0.07378
G1 X180.005 Y40.434 E3.45342
G1 X182.306 Y40.743 E0.07279
G1 X183.121 Y40.960 E0.02644
G1 X185.211 Y41.995 E0.07313
G1 X186.123 Y42.683 E0.03582
G1 X187.739 Y44.378 E0.07344
G1 X188.859 Y46.454 E0.07393
G1 X189.221 Y47.504 E0.03484
G1 X189.558 Y49.731 E0.07062
G1 X189.565 Y160.084 E3.46005
G1 X189.255 Y162.318 E0.07069
G1 X189.049 Y163.097 E0.02529
G1 X188.031 Y165.165 E0.07225
G1 X187.415 Y166.019 E0.03303
G1 X185.639 Y167.727 E0.07724
G1 X183.527 Y168.868 E0.07526
G1 X182.444 Y169.231 E0.03582
G1 X180.053 Y169.565 E0.07570
G1 X69.916 Y169.565 E3.45328
G1 X67.683 Y169.255 E0.07068
G1 X66.898 Y169.047 E0.02546
G1 X64.831 Y168.029 E0.07225
G1 X63.981 Y167.415 E0.03286
G1 X62.273 Y165.639 E0.07724
G1 X61.132 Y163.528 E0.07526
G1 X60.769 Y162.445 E0.03582
G1 X60.435 Y160.052 E0.07574
G1 X60.435 Y49.916 E3.45325
G1 X60.745 Y47.683 E0.07066
G1 X60.953 Y46.899 E0.02546
G1 X61.972 Y44.830 E0.07230
G1 X62.585 Y43.980 E0.03286
G1 X64.318 Y42.315 E0.07535
M204 S1000
G1 X64.577 Y42.584 F10800.000
M204 S20
G1 F1800
G1 X66.617 Y41.481 E0.07270
G1 X67.614 Y41.141 E0.03305
G1 X69.878 Y40.813 E0.07172
G1 X180.005 Y40.811 E3.45296
G1 X182.235 Y41.113 E0.07056
G1 X182.982 Y41.310 E0.02422
G1 X185.018 Y42.319 E0.07124
G1 X185.864 Y42.957 E0.03320
G1 X187.436 Y44.603 E0.07139
G1 X188.519 Y46.617 E0.07170
G1 X188.853 Y47.590 E0.03226
G1 X189.182 Y49.761 E0.06885
G1 X189.188 Y160.071 E3.45867
G1 X188.884 Y162.246 E0.06887
G1 X188.696 Y162.964 E0.02327
G1 X187.704 Y164.978 E0.07041
G1 X187.134 Y165.768 E0.03053
G1 X185.414 Y167.424 E0.07487
G1 X183.364 Y168.528 E0.07298
G1 X182.365 Y168.862 E0.03305
G1 X180.047 Y169.188 E0.07340
G1 X69.924 Y169.188 E3.45282
G1 X67.754 Y168.884 E0.06870
G1 X67.036 Y168.696 E0.02327
G1 X65.022 Y167.703 E0.07041
G1 X64.232 Y167.134 E0.03053
G1 X62.576 Y165.414 E0.07486
G1 X61.472 Y163.365 E0.07298
G1 X61.136 Y162.361 E0.03320
G1 X60.812 Y160.046 E0.07328
G1 X60.812 Y49.929 E3.45264
G1 X61.115 Y47.755 E0.06884
G1 X61.305 Y47.032 E0.02343
G1 X62.297 Y45.021 E0.07030
G1 X62.866 Y44.232 E0.03053
G1 X64.534 Y42.625 E0.07259
M204 S1000
; PURGING FINISHED
G1 F8640
G1 X66.617 Y41.481 E-0.54877
G1 X67.483 Y41.186 E-0.21123
G1 E-0.04000 F2100.00000
G1 Z0.800 F10800.000
G1 X71.033 Y50.742
G1 Z0.200
G1 E0.80000 F2100.00000
M204 S20
G1 F1800
G1 X71.033 Y54.018 E0.10273
G1 X71.244 Y54.229 E0.00934
G1 X71.787 Y54.506 E0.01913
G1 X71.787 Y50.494 E0.12578
G1 X71.840 Y50.468 E0.00184
G1 X72.500 Y50.363 E0.02096
G1 X72.542 Y50.370 E0.00132
G1 X72.542 Y54.630 E0.13359
G1 X73.160 Y54.532 E0.01964
G1 X73.296 Y54.463 E0.00476
G1 X73.296 Y50.537 E0.12312
G1 X73.756 Y50.771 E0.01620
G1 X74.050 Y51.065 E0.01303
G1 X74.050 Y54.175 E0.09751
M204 S1000
G1 F8640
G1 X74.050 Y51.065 E-0.71812
G1 X73.922 Y50.937 E-0.04188
G1 E-0.04000 F2100.00000
G1 Z0.800 F10800.000
G1 X71.033 Y155.742
G1 Z0.200
G1 E0.80000 F2100.00000
M204 S20
G1 F1800
G1 X71.033 Y159.018 E0.10274
G1 X71.244 Y159.229 E0.00935
G1 X71.787 Y159.506 E0.01912
G1 X71.787 Y155.494 E0.12580
G1 X71.840 Y155.467 E0.00183
G1 X72.500 Y155.363 E0.02096
G1 X72.542 Y155.370 E0.00132
G1 X72.542 Y159.630 E0.13360
G1 X73.160 Y159.533 E0.01964
G1 X73.296 Y159.464 E0.00476
G1 X73.296 Y155.536 E0.12315
G1 X73.756 Y155.771 E0.01619
G1 X74.050 Y156.065 E0.01304
G1 X74.050 Y159.175 E0.09751
M204 S1000
G1 F8640
G1 X74.050 Y156.065 E-0.71813
G1 X73.922 Y155.937 E-0.04187
G1 E-0.04000 F2100.00000
G1 Z0.800 F10800.000
G1 X175.861 Y159.086
G1 Z0.200
G1 E0.80000 F2100.00000
M204 S20
G1 F1800
G1 X175.861 Y156.154 E0.09195
G1 X176.244 Y155.771 E0.01699
G1 X176.616 Y155.581 E0.01306
G1 X176.616 Y159.419 E0.12032
G1 X176.839 Y159.533 E0.00787
G1 X177.370 Y159.616 E0.01684
G1 X177.370 Y155.384 E0.13272
G1 X177.500 Y155.363 E0.00414
G1 X178.124 Y155.461 E0.01980
G1 X178.124 Y159.539 E0.12784
G1 X178.756 Y159.229 E0.02205
G1 X178.878 Y159.107 E0.00543
G1 X178.878 Y155.893 E0.10077
G1 X179.229 Y156.244 E0.01558
G1 X179.533 Y156.839 E0.02093
G1 X179.632 Y157.469 E0.02000
G1 X179.632 Y158.339 E0.02728
M204 S1000
G1 F8640
G1 X179.632 Y157.469 E-0.20092
G1 X179.533 Y156.839 E-0.14728
G1 X179.229 Y156.244 E-0.15415
G1 X178.878 Y155.893 E-0.11474
G1 X178.878 Y156.512 E-0.14290
G1 E-0.04000 F2100.00000
G1 Z0.800 F10800.000
G1 X175.861 Y54.086
G1 Z0.200
G1 E0.80000 F2100.00000
M204 S20
G1 F1800
G1 X175.861 Y51.153 E0.09196
G1 X176.244 Y50.771 E0.01697
G1 X176.616 Y50.582 E0.01307
G1 X176.616 Y54.418 E0.12029
G1 X176.839 Y54.532 E0.00788
G1 X177.370 Y54.616 E0.01684
G1 X177.370 Y50.384 E0.13271
G1 X177.500 Y50.363 E0.00414
G1 X178.124 Y50.462 E0.01980
G1 X178.124 Y54.538 E0.12782
G1 X178.756 Y54.229 E0.02206
G1 X178.878 Y54.107 E0.00542
G1 X178.878 Y50.893 E0.10076
G1 X179.229 Y51.244 E0.01557
G1 X179.533 Y51.840 E0.02095
G1 X179.632 Y52.469 E0.01999
G1 X179.632 Y53.339 E0.02727
M204 S1000
G1 F8640
G1 X179.632 Y52.469 E-0.20083
G1 X179.533 Y51.840 E-0.14721
G1 X179.229 Y51.244 E-0.15431
G1 X178.878 Y50.893 E-0.11464
G1 X178.878 Y51.513 E-0.14300
G1 E-0.04000 F2100.00000
G1 Z0.800 F10800.000
G1 X75.085 Y155.622
G1 Z0.200
G1 E0.80000 F2100.00000
M204 S20
G1 F1800
G1 X75.539 Y156.512 E0.03131
G1 X75.696 Y157.500 E0.03137
G1 X75.539 Y158.488 E0.03137
G1 X75.085 Y159.378 E0.03131
G1 X74.379 Y160.086 E0.03136
G1 X73.487 Y160.540 E0.03136
G1 X72.500 Y160.696 E0.03134
G1 X71.513 Y160.540 E0.03134
G1 X70.621 Y160.086 E0.03136
G1 X69.915 Y159.378 E0.03136
G1 X69.461 Y158.488 E0.03131
G1 X69.304 Y157.500 E0.03137
G1 X69.461 Y156.512 E0.03137
G1 X69.915 Y155.622 E0.03131
G1 X70.621 Y154.914 E0.03136
G1 X71.513 Y154.460 E0.03136
G1 X72.500 Y154.304 E0.03134
G1 X73.487 Y154.460 E0.03134
G1 X74.379 Y154.914 E0.03136
G1 X75.043 Y155.580 E0.02948
M204 S1000
G1 X74.776 Y155.846 F10800.000
M204 S20
G1 F1800
G1 X75.176 Y156.630 E0.02759
G1 X75.314 Y157.500 E0.02762
G1 X75.176 Y158.370 E0.02762
G1 X74.776 Y159.153 E0.02757
G1 X74.154 Y159.777 E0.02762
G1 X73.369 Y160.177 E0.02761
G1 X72.500 Y160.314 E0.02760
G1 X71.631 Y160.177 E0.02760
G1 X70.846 Y159.777 E0.02761
G1 X70.224 Y159.153 E0.02762
G1 X69.824 Y158.370 E0.02757
G1 X69.686 Y157.500 E0.02762
G1 X69.824 Y156.630 E0.02762
G1 X70.224 Y155.847 E0.02757
G1 X70.846 Y155.223 E0.02762
G1 X71.631 Y154.823 E0.02761
G1 X72.500 Y154.686 E0.02760
G1 X73.369 Y154.823 E0.02760
G1 X74.154 Y155.223 E0.02761
G1 X74.734 Y155.804 E0.02572
M204 S1000
G1 X75.174 Y155.804 F10800.000
G1 F8640
G1 X75.176 Y156.630 E-0.21641
G1 X75.314 Y157.500 E-0.20340
G1 X75.176 Y158.370 E-0.20340
G1 X74.907 Y158.898 E-0.13679
G1 E-0.04000 F2100.00000
G1 Z0.800 F10800.000
G1 X75.563 Y154.437
G1 Z0.200
G1 E0.80000 F2100.00000
M204 S20
G1 F1800
G1 X75.563 Y55.563 E3.10013
M73 Q0 S115
M73 P0 R114
G1 X84.062 Y55.563 E0.26649
G1 X84.062 Y154.437 E3.10013
G1 X75.623 Y154.437 E0.26460
M204 S1000
G1 X75.940 Y154.060 F10800.000
M204 S20
G1 F1800
G1 X75.940 Y55.940 E3.07648
G1 X83.685 Y55.940 E0.24284
G1 X83.685 Y154.060 E3.07648
G1 X76.000 Y154.060 E0.24096
M204 S1000
G1 X75.588 Y154.251 F10800.000
G1 F8640
G1 X75.998 Y150.769 E-0.76000
G1 E-0.04000 F2100.00000
G1 Z0.800 F10800.000
G1 X72.500 Y55.696
G1 Z0.200
G1 E0.80000 F2100.00000
M204 S20
G1 F1800
G1 X71.512 Y55.539 E0.03135
G1 X70.622 Y55.085 E0.03135
G1 X70.517 Y54.981 E0.00464
G1 X69.915 Y54.378 E0.02671
G1 X69.461 Y53.488 E0.03135
G1 X69.304 Y52.500 E0.03135
G1 X69.461 Y51.512 E0.03135
G1 X69.915 Y50.622 E0.03135
G1 X70.622 Y49.915 E0.03135
G1 X71.512 Y49.461 E0.03135
G1 X72.500 Y49.304 E0.03135
G1 X73.488 Y49.461 E0.03135
G1 X74.378 Y49.915 E0.03135
G1 X75.085 Y50.622 E0.03135
G1 X75.539 Y51.512 E0.03135
G1 X75.696 Y52.500 E0.03135
G1 X75.539 Y53.488 E0.03135
G1 X75.085 Y54.378 E0.03135
G1 X74.378 Y55.085 E0.03135
G1 X73.488 Y55.539 E0.03135
G1 X72.559 Y55.686 E0.02947
M204 S1000
G1 X72.500 Y55.314 F10800.000
M204 S20
G1 F1800
G1 X71.630 Y55.176 E0.02761
G1 X70.846 Y54.776 E0.02760
G1 X70.224 Y54.154 E0.02760
G1 X69.824 Y53.370 E0.02760
G1 X69.686 Y52.500 E0.02760
G1 X69.824 Y51.630 E0.02760
G1 X70.224 Y50.846 E0.02760
G1 X70.846 Y50.224 E0.02760
G1 X71.630 Y49.824 E0.02760
G1 X72.500 Y49.686 E0.02760
G1 X73.370 Y49.824 E0.02760
G1 X74.154 Y50.224 E0.02760
G1 X74.776 Y50.846 E0.02760
G1 X75.176 Y51.630 E0.02760
G1 X75.314 Y52.500 E0.02760
G1 X75.176 Y53.370 E0.02760
G1 X74.776 Y54.154 E0.02760
G1 X74.154 Y54.776 E0.02760
G1 X73.370 Y55.176 E0.02760
G1 X72.560 Y55.304 E0.02571
M204 S1000
G1 X72.300 Y55.660 F10800.000
G1 F8640
G1 X71.630 Y55.176 E-0.21656
G1 X70.846 Y54.776 E-0.20328
G1 X70.224 Y54.154 E-0.20328
G1 X69.954 Y53.626 E-0.13688
G1 E-0.04000 F2100.00000
G1 Z0.800 F10800.000
G1 X84.688 Y55.563
G1 Z0.200
G1 E0.80000 F2100.00000
M204 S20
G1 F1800
G1 X100.312 Y55.563 E0.48988
G1 X100.312 Y154.437 E3.10013
G1 X84.688 Y154.437 E0.48988
G1 X84.688 Y55.623 E3.09825
M204 S1000
G1 X85.065 Y55.940 F10800.000
M204 S20
G1 F1800
G1 X99.935 Y55.940 E0.46624
G1 X99.935 Y154.060 E3.07648
G1 X85.065 Y154.060 E0.46624
G1 X85.065 Y56.000 E3.07460
M204 S1000
G1 X85.045 Y55.541 F10800.000
G1 F8640
G1 X88.356 Y55.987 E-0.76000
G1 E-0.04000 F2100.00000
G1 Z0.800 F10800.000
G1 X100.938 Y55.563
G1 Z0.200
G1 E0.80000 F2100.00000
M204 S20
G1 F1800
G1 X116.562 Y55.563 E0.48988
G1 X116.562 Y154.437 E3.10013
G1 X100.938 Y154.437 E0.48988
G1 X100.938 Y55.623 E3.09825
M204 S1000
G1 X101.315 Y55.940 F10800.000
M204 S20
G1 F1800
G1 X116.185 Y55.940 E0.46624
G1 X116.185 Y154.060 E3.07648
G1 X101.315 Y154.060 E0.46624
G1 X101.315 Y56.000 E3.07460
M73 Q1 S114
M73 P1 R112
M204 S1000
G1 X101.295 Y55.541 F10800.000
G1 F8640
G1 X104.606 Y55.987 E-0.76000
G1 E-0.04000 F2100.00000
G1 Z0.800 F10800.000
G1 X117.188 Y55.563
G1 Z0.200
G1 E0.80000 F2100.00000
M204 S20
G1 F1800
G1 X132.812 Y55.563 E0.48988
G1 X132.812 Y154.437 E3.10013
G1 X117.188 Y154.437 E0.48988
G1 X117.188 Y55.623 E3.09825
M204 S1000
G1 X117.565 Y55.940 F10800.000
M204 S20
G1 F1800
G1 X132.435 Y55.940 E0.46624
G1 X132.435 Y154.060 E3.07648
G1 X117.565 Y154.060 E0.46624
G1 X117.565 Y56.000 E3.07460
M204 S1000
G1 X117.545 Y55.541 F10800.000
G1 F8640
G1 X120.856 Y55.987 E-0.76000
G1 E-0.04000 F2100.00000
G1 Z0.800 F10800.000
G1 X133.438 Y55.563
G1 Z0.200
G1 E0.80000 F2100.00000
M204 S20
G1 F1800
G1 X149.062 Y55.563 E0.48988
G1 X149.062 Y154.437 E3.10013
G1 X133.438 Y154.437 E0.48988
G1 X133.438 Y55.623 E3.09825
M204 S1000
G1 X133.815 Y55.940 F10800.000
M204 S20
G1 F1800
G1 X148.685 Y55.940 E0.46624
G1 X148.685 Y154.060 E3.07648
G1 X133.815 Y154.060 E0.46624
G1 X133.815 Y56.000 E3.07460
M204 S1000
G1 X133.795 Y55.541 F10800.000
G1 F8640
G1 X137.106 Y55.987 E-0.76000
G1 E-0.04000 F2100.00000
G1 Z0.800 F10800.000
G1 X149.688 Y55.563
G1 Z0.200
G1 E0.80000 F2100.00000
M204 S20
G1 F1800
G1 X165.312 Y55.563 E0.48988
G1 X165.312 Y154.437 E3.10013
G1 X149.688 Y154.437 E0.48988
G1 X149.688 Y55.623 E3.09825
M204 S1000
G1 X150.065 Y55.940 F10800.000
M204 S20
G1 F1800
G1 X164.935 Y55.940 E0.46624
G1 X164.935 Y154.060 E3.07648
G1 X150.065 Y154.060 E0.46624
M73 Q2 S113
M73 P2 R111
G1 X150.065 Y56.000 E3.07460
M204 S1000
G1 X150.045 Y55.541 F10800.000
G1 F8640
G1 X153.356 Y55.987 E-0.76000
G1 E-0.04000 F2100.00000
G1 Z0.800 F10800.000
G1 X165.938 Y55.563
G1 Z0.200
G1 E0.80000 F2100.00000
M204 S20
G1 F1800
G1 X174.437 Y55.563 E0.26649
G1 X174.437 Y154.437 E3.10013
G1 X165.938 Y154.437 E0.26649
G1 X165.938 Y55.623 E3.09825
M204 S1000
G1 X166.315 Y55.940 F10800.000
M204 S20
G1 F1800
G1 X174.060 Y55.940 E0.24284
G1 X174.060 Y154.060 E3.07648
G1 X166.315 Y154.060 E0.24284
G1 X166.315 Y56.000 E3.07460
M204 S1000
G1 X166.304 Y55.540 F10800.000
G1 F8640
G1 X169.606 Y55.975 E-0.76000
G1 E-0.04000 F2100.00000
G1 Z0.800 F10800.000
G1 X174.460 Y53.487
G1 Z0.200
G1 E0.80000 F2100.00000
M204 S20
G1 F1800
G1 X174.304 Y52.500 E0.03134
G1 X174.460 Y51.513 E0.03134
G1 X174.914 Y50.621 E0.03136
G1 X175.622 Y49.915 E0.03136
G1 X176.512 Y49.461 E0.03131
G1 X177.500 Y49.304 E0.03137
G1 X178.488 Y49.461 E0.03137
G1 X179.378 Y49.915 E0.03131
G1 X180.086 Y50.621 E0.03136
G1 X180.540 Y51.513 E0.03136
G1 X180.696 Y52.500 E0.03134
G1 X180.540 Y53.487 E0.03134
G1 X180.086 Y54.379 E0.03136
G1 X179.378 Y55.085 E0.03136
G1 X178.488 Y55.539 E0.03131
G1 X177.500 Y55.696 E0.03137
G1 X176.512 Y55.539 E0.03137
G1 X175.622 Y55.085 E0.03131
G1 X174.914 Y54.379 E0.03136
G1 X174.488 Y53.541 E0.02948
M204 S1000
G1 X174.824 Y53.370 F10800.000
M204 S20
G1 F1800
G1 X174.686 Y52.500 E0.02760
G1 X174.823 Y51.631 E0.02760
G1 X175.223 Y50.846 E0.02761
G1 X175.847 Y50.224 E0.02762
G1 X176.630 Y49.824 E0.02757
G1 X177.500 Y49.686 E0.02762
G1 X178.370 Y49.824 E0.02762
G1 X179.153 Y50.224 E0.02757
G1 X179.777 Y50.846 E0.02762
G1 X180.177 Y51.631 E0.02761
G1 X180.314 Y52.500 E0.02760
G1 X180.177 Y53.369 E0.02760
G1 X179.777 Y54.154 E0.02761
G1 X179.153 Y54.776 E0.02762
G1 X178.370 Y55.176 E0.02757
G1 X177.500 Y55.314 E0.02762
G1 X176.630 Y55.176 E0.02762
G1 X175.847 Y54.776 E0.02757
G1 X175.223 Y54.154 E0.02762
G1 X174.851 Y53.423 E0.02572
M204 S1000
G1 X174.432 Y53.286 F10800.000
G1 F8640
G1 X174.686 Y52.500 E-0.21651
G1 X174.823 Y51.631 E-0.20325
G1 X175.223 Y50.846 E-0.20331
G1 X175.643 Y50.427 E-0.13693
G1 E-0.04000 F2100.00000
G1 Z0.800 F10800.000
G1 X177.500 Y154.304
G1 Z0.200
G1 E0.80000 F2100.00000
M204 S20
G1 F1800
G1 X178.488 Y154.460 E0.03136
G1 X179.378 Y154.914 E0.03133
G1 X180.086 Y155.622 E0.03138
G1 X180.540 Y156.512 E0.03133
G1 X180.696 Y157.500 E0.03136
G1 X180.540 Y158.488 E0.03136
G1 X180.086 Y159.378 E0.03133
G1 X179.378 Y160.086 E0.03138
G1 X178.488 Y160.540 E0.03133
G1 X177.500 Y160.696 E0.03136
G1 X176.512 Y160.540 E0.03136
G1 X175.622 Y160.086 E0.03133
G1 X174.914 Y159.378 E0.03138
G1 X174.460 Y158.488 E0.03133
G1 X174.304 Y157.500 E0.03136
G1 X174.460 Y156.512 E0.03136
G1 X174.914 Y155.622 E0.03133
G1 X175.622 Y154.914 E0.03138
G1 X176.512 Y154.460 E0.03133
G1 X177.441 Y154.314 E0.02948
M204 S1000
G1 X177.500 Y154.686 F10800.000
M204 S20
G1 F1800
G1 X178.370 Y154.823 E0.02763
G1 X179.154 Y155.223 E0.02758
G1 X179.777 Y155.846 E0.02764
G1 X180.177 Y156.630 E0.02758
G1 X180.314 Y157.500 E0.02761
G1 X180.177 Y158.370 E0.02762
G1 X179.777 Y159.154 E0.02758
G1 X179.154 Y159.777 E0.02764
G1 X178.370 Y160.177 E0.02758
G1 X177.500 Y160.314 E0.02762
G1 X176.630 Y160.177 E0.02761
G1 X175.846 Y159.777 E0.02758
G1 X175.223 Y159.154 E0.02764
G1 X174.823 Y158.370 E0.02758
G1 X174.686 Y157.500 E0.02761
G1 X174.823 Y156.630 E0.02762
G1 X175.223 Y155.846 E0.02758
G1 X175.846 Y155.223 E0.02764
G1 X176.630 Y154.823 E0.02758
G1 X177.440 Y154.696 E0.02572
M204 S1000
G1 X177.699 Y154.340 F10800.000
G1 F8640
G1 X178.370 Y154.823 E-0.21670
