; generated by Slic3r Prusa Edition 1.41.0 on 2018-10-28 at 20:56:19

; 

; external perimeters extrusion width = 0.45mm
; perimeters extrusion width = 0.45mm
; infill extrusion width = 0.45mm
; solid infill extrusion width = 0.45mm
; top infill extrusion width = 0.40mm
; first layer extrusion width = 0.42mm

M201 X1000 Y1000 Z1000 E5000 ; sets maximum accelerations, mm/sec^2
M203 X200 Y200 Z12 E120 ; sets maximum feedrates, mm/sec
M204 P1250 R1250 T1250 ; sets acceleration (P, T) and retract acceleration (R), mm/sec^2
M205 X8.00 Y8.00 Z0.40 E1.50 ; sets the jerk limits, mm/sec
M205 S0 T0 ; sets the minimum extruding and travel feed rate, mm/sec
M107
M115 U3.4.0 ; tell printer latest fw version
M83  ; extruder relative mode
M104 S140 ; set extruder to warm-up temp
M140 S80 ; set bed temp
M190 S80 ; wait for bed temp
G28 W ; home all without mesh bed level
G80 ; mesh bed leveling
M104 S245 ; set extruder temp
M109 S245 ; wait for extruder temp
G1 Y-3.0 F1000.0 ; go outside print area
G92 E0.0
G1 X60.0 E9.0  F1000.0 ; intro line
M73 Q0 S96
M73 P0 R96
G1 X100.0 E12.5  F1000.0 ; intro line
G92 E0.0
M221 S95
M900 K45; Filament gcode
G21 ; set units to millimeters
G90 ; use absolute coordinates
M83 ; use relative distances for extrusion
;BEFORE_LAYER_CHANGE
G92 E0.0
;0.2


G1 E-0.80000 F2100.00000
G1 Z0.600 F10800.000
;AFTER_LAYER_CHANGE
;0.2
G1 X64.361 Y42.273
G1 Z0.200
G1 E0.80000 F2100.00000
M204 S20
G1 F1800
G1 X66.458 Y41.139 E0.07474
G1 X67.534 Y40.773 E0.03566
G1 X69.864 Y40.436 E0.07378
G1 X180.005 Y40.434 E3.45342
G1 X182.306 Y40.743 E0.07279
G1 X183.121 Y40.960 E0.02644
G1 X185.211 Y41.995 E0.07313
G1 X186.123 Y42.683 E0.03582
G1 X187.739 Y44.378 E0.07344
G1 X188.859 Y46.454 E0.07393
G1 X189.220 Y47.504 E0.03484
G1 X189.558 Y49.731 E0.07062
G1 X189.565 Y160.084 E3.46006
G1 X189.255 Y162.317 E0.07068
G1 X189.047 Y163.102 E0.02546
G1 X188.029 Y165.169 E0.07225
G1 X187.415 Y166.019 E0.03286
G1 X185.639 Y167.727 E0.07724
G1 X183.527 Y168.868 E0.07526
G1 X182.444 Y169.231 E0.03582
G1 X180.053 Y169.565 E0.07570
G1 X69.916 Y169.565 E3.45328
G1 X67.683 Y169.255 E0.07068
G1 X66.903 Y169.049 E0.02529
G1 X64.835 Y168.031 E0.07225
G1 X63.981 Y167.415 E0.03303
G1 X62.273 Y165.639 E0.07724
G1 X61.132 Y163.528 E0.07526
G1 X60.769 Y162.445 E0.03582
G1 X60.435 Y160.052 E0.07574
G1 X60.435 Y49.916 E3.45325
G1 X60.745 Y47.683 E0.07066
G1 X60.953 Y46.899 E0.02546
G1 X61.972 Y44.830 E0.07230
G1 X62.585 Y43.980 E0.03286
G1 X64.318 Y42.315 E0.07535
M204 S1000
G1 X64.577 Y42.584 F10800.000
M204 S20
G1 F1800
G1 X66.617 Y41.481 E0.07270
G1 X67.614 Y41.141 E0.03305
G1 X69.878 Y40.813 E0.07172
G1 X180.005 Y40.811 E3.45296
G1 X182.235 Y41.113 E0.07056
G1 X182.982 Y41.310 E0.02422
G1 X185.018 Y42.319 E0.07124
G1 X185.864 Y42.957 E0.03320
G1 X187.436 Y44.603 E0.07139
G1 X188.519 Y46.617 E0.07170
G1 X188.853 Y47.590 E0.03226
G1 X189.182 Y49.761 E0.06884
G1 X189.188 Y160.071 E3.45868
G1 X188.884 Y162.246 E0.06886
G1 X188.696 Y162.964 E0.02327
G1 X187.704 Y164.978 E0.07041
G1 X187.134 Y165.768 E0.03053
G1 X185.414 Y167.424 E0.07487
G1 X183.364 Y168.528 E0.07298
G1 X182.365 Y168.862 E0.03305
G1 X180.047 Y169.188 E0.07340
G1 X69.929 Y169.188 E3.45266
G1 X67.754 Y168.884 E0.06886
G1 X67.036 Y168.696 E0.02327
G1 X65.022 Y167.703 E0.07041
G1 X64.232 Y167.134 E0.03053
G1 X62.576 Y165.414 E0.07486
G1 X61.472 Y163.365 E0.07297
G1 X61.136 Y162.361 E0.03320
G1 X60.812 Y160.046 E0.07328
G1 X60.812 Y49.924 E3.45280
G1 X61.116 Y47.750 E0.06884
G1 X61.305 Y47.032 E0.02327
G1 X62.297 Y45.021 E0.07029
G1 X62.866 Y44.232 E0.03053
G1 X64.534 Y42.625 E0.07259
M204 S1000
; PURGING FINISHED
G1 F8640
G1 X66.617 Y41.481 E-0.54877
G1 X67.483 Y41.186 E-0.21123
G1 E-0.04000 F2100.00000
G1 Z0.800 F10800.000
G1 X101.161 Y146.917
G1 Z0.200
G1 E0.80000 F2100.00000
M204 S20
G1 F1800
G1 X104.430 Y148.714 E0.11697
G1 X110.071 Y150.947 E0.19022
G1 X115.947 Y152.456 E0.19022
G1 X121.967 Y153.216 E0.19023
G1 X124.687 Y153.216 E0.08530
G1 X124.687 Y162.575 E0.29345
G1 X121.378 Y162.575 E0.10377
G1 X114.190 Y161.666 E0.22715
G1 X107.173 Y159.865 E0.22715
G1 X100.438 Y157.198 E0.22715
G1 X96.481 Y155.023 E0.14157
G1 X101.131 Y146.969 E0.29161
M204 S1000
G1 X101.303 Y147.425 F10800.000
M204 S20
G1 F1800
G1 X104.269 Y149.056 E0.10613
G1 X109.954 Y151.307 E0.19171
G1 X115.876 Y152.827 E0.19171
G1 X121.943 Y153.593 E0.19172
G1 X124.310 Y153.593 E0.07422
G1 X124.310 Y162.198 E0.26980
G1 X121.401 Y162.198 E0.09120
G1 X114.261 Y161.295 E0.22566
G1 X107.290 Y159.505 E0.22566
G1 X100.598 Y156.856 E0.22566
G1 X97.000 Y154.878 E0.12875
G1 X101.273 Y147.477 E0.26796
M204 S1000
G1 X101.444 Y147.051 F10800.000
G1 F8640
G1 X104.185 Y149.011 E-0.76000
G1 E-0.04000 F2100.00000
G1 Z0.800 F10800.000
G1 X106.152 Y138.271
G1 Z0.200
G1 E0.80000 F2100.00000
M204 S20
G1 F1800
G1 X108.688 Y139.665 E0.09073
G1 X113.161 Y141.436 E0.15085
G1 X117.821 Y142.633 E0.15085
G1 X122.594 Y143.236 E0.15085
G1 X124.687 Y143.236 E0.06561
G1 X124.687 Y152.594 E0.29342
G1 X122.006 Y152.594 E0.08407
G1 X116.064 Y151.843 E0.18777
G1 X110.263 Y150.355 E0.18777
G1 X104.695 Y148.150 E0.18778
G1 X101.472 Y146.378 E0.11533
G1 X106.122 Y138.323 E0.29162
M204 S1000
G1 X106.294 Y138.780 F10800.000
M204 S20
G1 F1800
G1 X108.527 Y140.007 E0.07989
G1 X113.044 Y141.796 E0.15234
G1 X117.750 Y143.004 E0.15234
G1 X122.571 Y143.613 E0.15234
G1 X124.310 Y143.613 E0.05453
G1 X124.310 Y152.217 E0.26977
G1 X122.029 Y152.217 E0.07151
G1 X116.135 Y151.472 E0.18629
G1 X110.380 Y149.995 E0.18628
G1 X104.856 Y147.808 E0.18629
G1 X101.991 Y146.233 E0.10251
G1 X106.264 Y138.832 E0.26797
M204 S1000
G1 X106.445 Y138.409 F10800.000
G1 F8640
G1 X108.527 Y140.007 E-0.58880
G1 X109.216 Y140.280 E-0.17120
G1 E-0.04000 F2100.00000
G1 Z0.800 F10800.000
G1 X111.143 Y129.626
G1 Z0.200
G1 E0.80000 F2100.00000
M204 S20
G1 F1800
G1 X112.946 Y130.617 E0.06448
G1 X116.251 Y131.926 E0.11148
G1 X119.695 Y132.810 E0.11148
G1 X123.222 Y133.256 E0.11148
G1 X124.687 Y133.256 E0.04593
G1 X124.687 Y142.614 E0.29342
G1 X122.634 Y142.614 E0.06439
G1 X117.938 Y142.021 E0.14840
G1 X113.354 Y140.844 E0.14840
M73 Q1 S95
G1 X108.953 Y139.102 E0.14840
G1 X106.463 Y137.733 E0.08909
M73 P1 R95
G1 X111.113 Y129.678 E0.29161
M204 S1000
G1 X111.285 Y130.135 F10800.000
M204 S20
G1 F1800
G1 X112.785 Y130.959 E0.05365
G1 X116.134 Y132.285 E0.11296
G1 X119.624 Y133.181 E0.11296
G1 X123.199 Y133.633 E0.11297
G1 X124.310 Y133.633 E0.03485
G1 X124.310 Y142.237 E0.26978
G1 X122.657 Y142.237 E0.05182
G1 X118.009 Y141.650 E0.14691
G1 X113.470 Y140.485 E0.14691
G1 X109.114 Y138.760 E0.14691
G1 X106.982 Y137.588 E0.07627
G1 X111.255 Y130.187 E0.26796
M204 S1000
G1 X111.447 Y129.769 F10800.000
G1 F8640
G1 X112.785 Y130.959 E-0.39563
G1 X114.252 Y131.540 E-0.36437
G1 E-0.04000 F2100.00000
G1 Z0.800 F10800.000
G1 X116.135 Y120.981
G1 Z0.200
G1 E0.80000 F2100.00000
M204 S20
G1 F1800
G1 X117.203 Y121.569 E0.03824
G1 X119.341 Y122.415 E0.07210
G1 X121.569 Y122.987 E0.07210
G1 X123.850 Y123.275 E0.07210
G1 X124.687 Y123.275 E0.02624
G1 X124.687 Y132.634 E0.29342
G1 X123.261 Y132.634 E0.04470
G1 X119.812 Y132.198 E0.10903
G1 X116.444 Y131.333 E0.10902
G1 X113.211 Y130.053 E0.10902
G1 X111.454 Y129.088 E0.06285
G1 X116.105 Y121.033 E0.29161
M204 S1000
G1 X116.277 Y121.490 F10800.000
M204 S20
G1 F1800
G1 X117.042 Y121.911 E0.02740
G1 X119.225 Y122.775 E0.07359
G1 X121.498 Y123.358 E0.07359
G1 X123.827 Y123.653 E0.07359
G1 X124.310 Y123.653 E0.01516
G1 X124.310 Y132.257 E0.26978
G1 X123.285 Y132.257 E0.03213
G1 X119.882 Y131.827 E0.10754
G1 X116.561 Y130.974 E0.10753
G1 X113.372 Y129.711 E0.10754
G1 X111.973 Y128.943 E0.05003
G1 X116.247 Y121.542 E0.26796
M204 S1000
G1 X116.450 Y121.129 F10800.000
G1 F8640
G1 X117.042 Y121.911 E-0.20258
G1 X119.225 Y122.775 E-0.54194
G1 X119.290 Y122.791 E-0.01547
G1 E-0.04000 F2100.00000
G1 Z0.800 F10800.000
G1 X121.606 Y111.504
G1 Z0.200
G1 E0.80000 F2100.00000
M204 S20
G1 F1800
G1 X122.741 Y111.954 E0.03826
G1 X123.630 Y112.182 E0.02879
G1 X124.687 Y112.316 E0.03341
G1 X124.687 Y122.653 E0.32414
G1 X123.889 Y122.653 E0.02501
G1 X121.686 Y122.375 E0.06965
G1 X119.534 Y121.823 E0.06965
G1 X117.469 Y121.005 E0.06965
G1 X116.446 Y120.443 E0.03661
G1 X121.576 Y111.556 E0.32172
M204 S1000
G1 X121.770 Y111.975 F10800.000
M204 S20
G1 F1800
G1 X122.624 Y112.313 E0.02880
G1 X123.559 Y112.553 E0.03028
G1 X124.310 Y112.648 E0.02373
G1 X124.310 Y122.276 E0.30189
G1 X123.913 Y122.276 E0.01244
G1 X121.756 Y122.004 E0.06816
G1 X119.651 Y121.463 E0.06816
G1 X117.630 Y120.663 E0.06816
G1 X116.965 Y120.298 E0.02379
G1 X121.740 Y112.027 E0.29944
M204 S1000
G1 X121.925 Y111.606 F10800.000
G1 F8640
G1 X122.624 Y112.313 E-0.21458
G1 X123.559 Y112.553 E-0.22298
G1 X124.310 Y112.648 E-0.17474
G1 X124.310 Y113.288 E-0.14770
G1 E-0.04000 F2100.00000
G1 Z0.800 F10800.000
G1 X115.466 Y120.663
G1 Z0.200
G1 E0.80000 F2100.00000
M204 S20
G1 F1800
G1 X115.557 Y120.729 E0.00355
G1 X110.906 Y128.786 E0.29171
G1 X110.164 Y128.378 E0.02655
G1 X107.351 Y126.334 E0.10902
G1 X104.816 Y123.954 E0.10902
G1 X102.600 Y121.275 E0.10902
G1 X101.215 Y119.093 E0.08101
G1 X109.327 Y114.410 E0.29368
G1 X110.186 Y115.763 E0.05025
G1 X111.651 Y117.535 E0.07210
G1 X113.328 Y119.109 E0.07210
G1 X115.417 Y120.627 E0.08098
M204 S1000
G1 X115.061 Y120.835 F10800.000
M204 S20
G1 F1800
G1 X110.764 Y128.278 E0.26948
G1 X110.366 Y128.059 E0.01423
G1 X107.592 Y126.043 E0.10753
G1 X105.091 Y123.695 E0.10753
G1 X102.905 Y121.053 E0.10754
G1 X101.744 Y119.223 E0.06794
G1 X109.202 Y114.917 E0.27002
G1 X109.880 Y115.985 E0.03965
G1 X111.376 Y117.794 E0.07359
G1 X113.087 Y119.400 E0.07359
G1 X115.013 Y120.799 E0.07463
M204 S1000
G1 X115.396 Y121.054 F10800.000
G1 F8640
G1 X113.387 Y123.661 E-0.76000
G1 E-0.04000 F2100.00000
G1 Z0.800 F10800.000
G1 X107.331 Y105.313
G1 Z0.200
G1 E0.80000 F2100.00000
M204 S20
G1 F1800
G1 X117.632 Y105.313 E0.32296
G1 X117.918 Y106.818 E0.04805
G1 X118.202 Y107.691 E0.02878
G1 X118.525 Y108.377 E0.02376
G1 X109.524 Y113.574 E0.32587
G1 X108.554 Y111.512 E0.07146
G1 X107.867 Y109.399 E0.06965
G1 X107.451 Y107.217 E0.06965
G1 X107.335 Y105.373 E0.05794
M204 S1000
G1 X107.733 Y105.690 F10800.000
M204 S20
G1 F1800
G1 X117.319 Y105.690 E0.30058
G1 X117.552 Y106.912 E0.03901
G1 X117.851 Y107.831 E0.03028
G1 X118.036 Y108.224 E0.01363
G1 X109.691 Y113.042 E0.30214
G1 X108.905 Y111.372 E0.05786
G1 X108.233 Y109.305 E0.06816
G1 X107.826 Y107.170 E0.06816
G1 X107.737 Y105.750 E0.04460
M204 S1000
G1 X107.714 Y105.290 F10800.000
G1 F8640
G1 X111.028 Y105.729 E-0.76000
G1 E-0.04000 F2100.00000
G1 Z0.800 F10800.000
G1 X109.524 Y96.426
G1 Z0.200
G1 E0.80000 F2100.00000
M204 S20
G1 F1800
G1 X118.525 Y101.623 E0.32586
G1 X118.202 Y102.308 E0.02376
G1 X117.918 Y103.182 E0.02879
G1 X117.631 Y104.687 E0.04805
G1 X107.331 Y104.687 E0.32296
G1 X107.451 Y102.783 E0.05982
G1 X107.868 Y100.600 E0.06969
G1 X108.589 Y98.414 E0.07216
G1 X109.499 Y96.481 E0.06701
M204 S1000
G1 X109.691 Y96.958 F10800.000
M204 S20
G1 F1800
G1 X118.036 Y101.776 E0.30213
G1 X117.851 Y102.169 E0.01364
G1 X117.552 Y103.088 E0.03028
G1 X117.319 Y104.310 E0.03901
G1 X107.733 Y104.310 E0.30058
G1 X107.826 Y102.830 E0.04648
G1 X108.233 Y100.695 E0.06817
G1 X108.940 Y98.554 E0.07067
G1 X109.665 Y97.012 E0.05343
M204 S1000
G1 X109.873 Y96.602 F10800.000
G1 F8640
G1 X112.526 Y98.640 E-0.76000
G1 E-0.04000 F2100.00000
G1 Z0.800 F10800.000
G1 X100.851 Y91.419
G1 Z0.200
G1 E0.80000 F2100.00000
M204 S20
G1 F1800
G1 X108.984 Y96.114 E0.29446
G1 X107.974 Y98.259 E0.07432
G1 X107.264 Y100.446 E0.07210
G1 X106.833 Y102.705 E0.07210
G1 X106.708 Y104.687 E0.06227
G1 X97.331 Y104.687 E0.29401
G1 X97.530 Y101.530 E0.09919
G1 X98.181 Y98.114 E0.10902
G1 X99.256 Y94.807 E0.10902
G1 X100.825 Y91.473 E0.11554
M204 S1000
G1 X101.017 Y91.950 F10800.000
M204 S20
G1 F1800
G1 X108.495 Y96.267 E0.27073
G1 X107.623 Y98.120 E0.06419
G1 X106.898 Y100.352 E0.07359
G1 X106.458 Y102.658 E0.07359
G1 X106.354 Y104.310 E0.05191
G1 X97.733 Y104.310 E0.27031
G1 X97.905 Y101.577 E0.08586
G1 X98.547 Y98.208 E0.10753
G1 X99.607 Y94.946 E0.10754
G1 X100.992 Y92.004 E0.10194
M204 S1000
G1 X101.200 Y91.594 F10800.000
G1 F8640
G1 X103.853 Y93.630 E-0.76000
G1 E-0.04000 F2100.00000
G1 Z0.800 F10800.000
G1 X92.177 Y86.411
G1 Z0.200
G1 E0.80000 F2100.00000
M204 S20
G1 F1800
G1 X100.310 Y91.107 E0.29446
G1 X98.677 Y94.578 E0.12029
G1 X97.578 Y97.959 E0.11148
G1 X96.912 Y101.452 E0.11148
G1 X96.708 Y104.687 E0.10165
G1 X87.331 Y104.687 E0.29401
G1 X87.609 Y100.276 E0.13857
G1 X88.496 Y95.627 E0.14840
G1 X89.958 Y91.126 E0.14840
G1 X92.151 Y86.465 E0.16151
M204 S1000
G1 X92.344 Y86.942 F10800.000
M204 S20
G1 F1800
G1 X99.821 Y91.260 E0.27073
G1 X98.325 Y94.439 E0.11016
G1 X97.212 Y97.865 E0.11296
G1 X96.537 Y101.404 E0.11296
G1 X96.354 Y104.310 E0.09129
G1 X87.733 Y104.310 E0.27031
G1 X87.984 Y100.324 E0.12523
G1 X88.862 Y95.721 E0.14691
G1 X90.310 Y91.265 E0.14691
G1 X92.318 Y86.997 E0.14791
M204 S1000
G1 X92.526 Y86.587 F10800.000
G1 F8640
G1 X95.180 Y88.623 E-0.76000
G1 E-0.04000 F2100.00000
G1 Z0.800 F10800.000
G1 X83.503 Y81.403
G1 Z0.200
G1 E0.80000 F2100.00000
M204 S20
G1 F1800
G1 X91.637 Y86.099 E0.29446
G1 X89.379 Y90.897 E0.16625
G1 X87.892 Y95.472 E0.15085
G1 X86.991 Y100.198 E0.15085
G1 X86.708 Y104.687 E0.14102
G1 X77.331 Y104.687 E0.29401
G1 X77.688 Y99.023 E0.17794
G1 X78.810 Y93.140 E0.18777
G1 X80.660 Y87.445 E0.18777
G1 X83.478 Y81.457 E0.20747
M204 S1000
G1 X83.670 Y81.935 F10800.000
M204 S20
G1 F1800
G1 X91.148 Y86.252 E0.27073
G1 X89.028 Y90.757 E0.15612
G1 X87.526 Y95.378 E0.15234
G1 X86.616 Y100.151 E0.15234
G1 X86.354 Y104.310 E0.13066
G1 X77.733 Y104.310 E0.27031
G1 X78.062 Y99.070 E0.16461
G1 X79.176 Y93.234 E0.18628
G1 X81.012 Y87.584 E0.18628
G1 X83.644 Y81.989 E0.19387
M204 S1000
G1 X83.853 Y81.579 F10800.000
G1 F8640
G1 X86.506 Y83.615 E-0.76000
G1 E-0.04000 F2100.00000
G1 Z0.800 F10800.000
G1 X74.927 Y76.452
G1 Z0.200
G1 E0.80000 F2100.00000
M204 S20
G1 F1800
G1 X82.963 Y81.091 E0.29093
M73 Q2 S94
M73 P2 R94
G1 X80.081 Y87.215 E0.21222
G1 X78.206 Y92.985 E0.19023
G1 X77.069 Y98.945 E0.19023
G1 X76.708 Y104.687 E0.18040
G1 X67.331 Y104.687 E0.29400
G1 X67.766 Y97.770 E0.21732
G1 X69.124 Y90.653 E0.22715
G1 X71.363 Y83.763 E0.22715
G1 X74.456 Y77.195 E0.22764
G1 X74.895 Y76.502 E0.02571
M204 S1000
G1 X75.052 Y76.959 F10800.000
M204 S20
G1 F1800
G1 X82.474 Y81.244 E0.26872
G1 X79.730 Y87.076 E0.20209
G1 X77.840 Y92.891 E0.19172
G1 X76.695 Y98.898 E0.19172
G1 X76.354 Y104.310 E0.17004
G1 X67.733 Y104.310 E0.27031
G1 X68.141 Y97.817 E0.20398
G1 X69.490 Y90.747 E0.22566
G1 X71.714 Y83.903 E0.22566
G1 X74.787 Y77.377 E0.22615
G1 X75.020 Y77.010 E0.01363
M204 S1000
G1 X75.243 Y76.608 F10800.000
G1 F8640
G1 X77.882 Y78.636 E-0.76000
G1 E-0.04000 F2100.00000
G1 Z0.800 F10800.000
G1 X83.914 Y80.917
G1 Z0.200
G1 E0.80000 F2100.00000
M204 S20
G1 F1800
G1 X86.419 Y76.969 E0.14661
G1 X90.237 Y72.355 E0.18777
G1 X94.602 Y68.255 E0.18777
G1 X99.447 Y64.735 E0.18777
G1 X100.923 Y63.924 E0.05281
G1 X105.604 Y72.030 E0.29349
G1 X104.472 Y72.652 E0.04050
G1 X100.579 Y75.480 E0.15085
G1 X97.072 Y78.774 E0.15085
G1 X94.005 Y82.481 E0.15085
G1 X92.025 Y85.601 E0.11585
G1 X83.966 Y80.947 E0.29180
M204 S1000
G1 X84.443 Y80.788 F10800.000
M204 S20
G1 F1800
G1 X86.725 Y77.192 E0.13354
G1 X90.512 Y72.614 E0.18629
G1 X94.843 Y68.547 E0.18629
G1 X99.650 Y65.054 E0.18628
G1 X100.781 Y64.432 E0.04049
G1 X105.084 Y71.885 E0.26984
G1 X104.269 Y72.333 E0.02917
G1 X100.338 Y75.189 E0.15234
G1 X96.797 Y78.515 E0.15234
G1 X93.700 Y82.259 E0.15234
G1 X91.901 Y85.093 E0.10526
G1 X84.495 Y80.818 E0.26813
M204 S1000
G1 X84.079 Y80.621 F10800.000
G1 F8640
G1 X86.219 Y78.014 E-0.76000
G1 E-0.04000 F2100.00000
G1 Z0.800 F10800.000
G1 X92.564 Y85.912
G1 Z0.200
G1 E0.80000 F2100.00000
M204 S20
G1 F1800
G1 X94.509 Y82.847 E0.11381
G1 X97.526 Y79.201 E0.14840
G1 X100.976 Y75.961 E0.14840
G1 X104.806 Y73.179 E0.14840
G1 X105.915 Y72.569 E0.03968
G1 X110.595 Y80.675 E0.29350
G1 X109.830 Y81.096 E0.02737
G1 X106.954 Y83.186 E0.11147
G1 X104.362 Y85.619 E0.11148
G1 X102.095 Y88.359 E0.11148
