; generated by Slic3r Prusa Edition 1.41.1 on 2018-11-16 at 20:27:26

; 

; external perimeters extrusion width = 0.45mm
; perimeters extrusion width = 0.45mm
; infill extrusion width = 0.45mm
; solid infill extrusion width = 0.45mm
; top infill extrusion width = 0.40mm
; support material extrusion width = 0.35mm
; first layer extrusion width = 0.42mm

M73 P0 R279
M73 Q0 S281
M201 X1000 Y1000 Z1000 E5000 ; sets maximum accelerations, mm/sec^2
M203 X200 Y200 Z12 E120 ; sets maximum feedrates, mm/sec
M204 P1250 R1250 T1250 ; sets acceleration (P, T) and retract acceleration (R), mm/sec^2
M205 X8.00 Y8.00 Z0.40 E1.50 ; sets the jerk limits, mm/sec
M205 S0 T0 ; sets the minimum extruding and travel feed rate, mm/sec
M107
M115 U3.4.0 ; tell printer latest fw version
M83  ; extruder relative mode
M104 S140 ; set extruder to warm-up temp
M140 S80 ; set bed temp
M190 S80 ; wait for bed temp
G28 W ; home all without mesh bed level
G80 ; mesh bed leveling
M104 S245 ; set extruder temp
M109 S245 ; wait for extruder temp
G1 Y-3.0 F1000.0 ; go outside print area
G92 E0.0
G1 X60.0 E9.0  F1000.0 ; intro line
M73 Q0 S281
M73 P0 R279
G1 X100.0 E12.5  F1000.0 ; intro line
G92 E0.0
M221 S95
M900 K45; Filament gcode
G21 ; set units to millimeters
G90 ; use absolute coordinates
M83 ; use relative distances for extrusion
;BEFORE_LAYER_CHANGE
G92 E0.0
;0.2


G1 E-0.80000 F2100.00000
G1 Z0.600 F10800.000
;AFTER_LAYER_CHANGE
;0.2
G1 X61.398 Y40.982
G1 Z0.200
G1 E0.80000 F2100.00000
M204 S20
G1 F1800
G1 X62.032 Y40.291 E0.02941
G1 X62.794 Y39.744 E0.02941
G1 X65.944 Y38.380 E0.10762
G1 X67.193 Y38.047 E0.04053
G1 X69.056 Y37.755 E0.05912
G1 X70.179 Y37.696 E0.03527
G1 X159.339 Y37.523 E2.79556
G1 X171.627 Y37.699 E0.38529
G1 X180.739 Y38.279 E0.28630
G1 X183.348 Y38.724 E0.08299
G1 X187.418 Y40.038 E0.13410
G1 X188.143 Y40.405 E0.02546
G1 X188.791 Y40.894 E0.02546
G1 X189.319 Y41.461 E0.02430
G1 X189.747 Y42.114 E0.02447
G1 X191.342 Y45.294 E0.11158
G1 X191.686 Y46.272 E0.03250
G1 X191.802 Y47.293 E0.03221
G1 X191.765 Y160.086 E3.53655
G1 X191.689 Y161.008 E0.02899
G1 X191.263 Y163.391 E0.07591
G1 X190.008 Y167.297 E0.12864
G1 X189.393 Y168.430 E0.04042
G1 X188.818 Y169.068 E0.02694
G1 X188.134 Y169.588 E0.02694
G1 X184.664 Y171.362 E0.12219
G1 X183.018 Y171.906 E0.05434
G1 X181.017 Y172.235 E0.06359
G1 X180.074 Y172.307 E0.02965
G1 X159.359 Y172.477 E0.64953
G1 X90.693 Y172.477 E2.15297
G1 X78.478 Y172.304 E0.38304
G1 X69.294 Y171.724 E0.28855
G1 X67.261 Y171.414 E0.06448
G1 X66.422 Y171.207 E0.02709
G1 X63.342 Y170.132 E0.10228
G1 X61.588 Y169.103 E0.06377
G1 X60.652 Y168.171 E0.04140
G1 X58.826 Y165.406 E0.10389
G1 X58.385 Y164.324 E0.03664
G1 X58.234 Y163.165 E0.03664
G1 X58.236 Y49.884 E3.55185
G1 X58.577 Y47.308 E0.08147
G1 X58.918 Y46.068 E0.04031
G1 X60.960 Y41.703 E0.15112
G1 X61.367 Y41.033 E0.02456
M204 S1000
G1 X61.688 Y41.229 F10800.000
M204 S20
G1 F1800
G1 X62.293 Y40.564 E0.02818
G1 X63.004 Y40.058 E0.02738
G1 X66.098 Y38.725 E0.10562
G1 X67.262 Y38.417 E0.03776
G1 X69.097 Y38.130 E0.05824
G1 X70.199 Y38.073 E0.03458
G1 X159.340 Y37.900 E2.79495
G1 X171.604 Y38.075 E0.38459
G1 X180.703 Y38.654 E0.28586
G1 X183.229 Y39.082 E0.08032
G1 X187.258 Y40.380 E0.13271
G1 X187.926 Y40.714 E0.02343
G1 X188.529 Y41.165 E0.02359
G1 X189.022 Y41.692 E0.02264
G1 X189.417 Y42.297 E0.02264
G1 X190.999 Y45.449 E0.11059
G1 X191.320 Y46.366 E0.03045
G1 X191.425 Y47.293 E0.02927
G1 X191.388 Y160.077 E3.53627
G1 X191.316 Y160.954 E0.02759
G1 X190.902 Y163.284 E0.07418
G1 X189.659 Y167.154 E0.12747
G1 X189.087 Y168.209 E0.03760
G1 X188.556 Y168.797 E0.02485
G1 X187.919 Y169.277 E0.02501
G1 X184.491 Y171.026 E0.12065
G1 X182.919 Y171.542 E0.05189
G1 X180.953 Y171.864 E0.06247
G1 X180.067 Y171.930 E0.02783
G1 X159.352 Y172.100 E0.64956
G1 X90.694 Y172.100 E2.15272
G1 X78.498 Y171.928 E0.38244
G1 X69.328 Y171.349 E0.28807
G1 X67.340 Y171.045 E0.06306
G1 X66.536 Y170.848 E0.02595
G1 X63.485 Y169.783 E0.10135
G1 X61.804 Y168.794 E0.06114
G1 X60.943 Y167.930 E0.03823
G1 X59.157 Y165.227 E0.10158
G1 X58.751 Y164.233 E0.03367
G1 X58.611 Y163.163 E0.03383
G1 X58.613 Y49.894 E3.55147
G1 X58.948 Y47.376 E0.07965
G1 X59.273 Y46.194 E0.03843
G1 X61.297 Y41.871 E0.14967
G1 X61.657 Y41.280 E0.02168
M204 S1000
; PURGING FINISHED
G1 F8640
G1 X62.293 Y40.564 E-0.22114
G1 X63.004 Y40.058 E-0.20161
G1 X64.346 Y39.480 E-0.33726
G1 E-0.04000 F2100.00000
G1 Z0.800 F10800.000
G1 X65.062 Y43.706
G1 Z0.200
G1 E0.80000 F2100.00000
M204 S20
G1 F1800
G1 X65.062 Y44.335 E0.01972
G1 X65.483 Y43.941 E0.01808
G1 X65.817 Y43.726 E0.01244
G1 X65.817 Y43.512 E0.00670
G1 X66.571 Y43.128 E0.02654
G1 X66.571 Y43.333 E0.00643
G1 X67.325 Y42.951 E0.02652
G1 X67.325 Y42.751 E0.00625
G1 X67.546 Y42.656 E0.00756
G1 X68.079 Y42.529 E0.01717
G1 X68.079 Y42.714 E0.00580
G1 X68.833 Y42.594 E0.02394
G1 X68.833 Y42.409 E0.00580
G1 X69.587 Y42.290 E0.02394
G1 X69.587 Y42.475 E0.00580
G1 X69.977 Y42.442 E0.01226
G1 X70.342 Y42.441 E0.01143
G1 X70.342 Y42.259 E0.00573
G1 X71.096 Y42.259 E0.02365
G1 X71.096 Y42.441 E0.00573
G1 X71.850 Y42.441 E0.02365
G1 X71.850 Y42.259 E0.00573
G1 X72.604 Y42.259 E0.02365
G1 X72.604 Y42.441 E0.00573
G1 X73.358 Y42.441 E0.02365
G1 X73.358 Y42.259 E0.00573
G1 X74.112 Y42.259 E0.02365
G1 X74.112 Y42.441 E0.00573
G1 X74.867 Y42.441 E0.02365
G1 X74.867 Y42.259 E0.00573
G1 X75.621 Y42.259 E0.02365
G1 X75.621 Y42.441 E0.00573
G1 X76.375 Y42.441 E0.02365
G1 X76.375 Y42.259 E0.00573
G1 X77.129 Y42.259 E0.02365
G1 X77.129 Y42.441 E0.00573
G1 X77.883 Y42.441 E0.02365
G1 X77.883 Y42.259 E0.00573
G1 X78.637 Y42.259 E0.02365
G1 X78.637 Y42.441 E0.00573
G1 X79.391 Y42.441 E0.02365
G1 X79.391 Y42.259 E0.00573
G1 X80.146 Y42.259 E0.02365
G1 X80.146 Y42.441 E0.00573
G1 X80.900 Y42.441 E0.02365
G1 X80.900 Y42.259 E0.00573
G1 X81.654 Y42.259 E0.02365
G1 X81.654 Y42.441 E0.00573
G1 X82.408 Y42.441 E0.02365
G1 X82.408 Y42.259 E0.00573
G1 X83.162 Y42.259 E0.02365
G1 X83.162 Y42.441 E0.00573
G1 X83.916 Y42.441 E0.02365
G1 X83.916 Y42.259 E0.00573
G1 X84.671 Y42.259 E0.02365
G1 X84.671 Y42.441 E0.00573
G1 X85.425 Y42.441 E0.02365
G1 X85.425 Y42.259 E0.00573
G1 X86.179 Y42.259 E0.02365
G1 X86.179 Y42.441 E0.00573
G1 X86.933 Y42.441 E0.02365
G1 X86.933 Y42.259 E0.00573
G1 X87.687 Y42.259 E0.02365
G1 X87.687 Y42.441 E0.00573
G1 X88.441 Y42.441 E0.02365
G1 X88.441 Y42.259 E0.00573
G1 X89.196 Y42.259 E0.02365
G1 X89.196 Y42.441 E0.00573
G1 X89.950 Y42.441 E0.02365
G1 X89.950 Y42.259 E0.00573
G1 X90.704 Y42.259 E0.02365
G1 X90.704 Y42.611 E0.01105
M204 S1000
G1 F8640
G1 X90.704 Y42.259 E-0.08139
G1 X89.950 Y42.259 E-0.17414
G1 X89.950 Y42.441 E-0.04221
G1 X89.196 Y42.441 E-0.17414
G1 X89.196 Y42.259 E-0.04221
G1 X88.441 Y42.259 E-0.17414
G1 X88.441 Y42.441 E-0.04221
G1 X88.313 Y42.441 E-0.02955
G1 E-0.04000 F2100.00000
G1 Z0.800 F10800.000
G1 X90.704 Y50.549
G1 Z0.200
G1 E0.80000 F2100.00000
M204 S20
G1 F1800
G1 X90.704 Y45.159 E0.16901
G1 X89.950 Y45.159 E0.02365
G1 X89.950 Y50.379 E0.16369
G1 X89.196 Y50.379 E0.02365
G1 X89.196 Y45.159 E0.16369
G1 X88.441 Y45.159 E0.02365
G1 X88.441 Y52.686 E0.23602
G1 X87.687 Y52.686 E0.02365
G1 X87.687 Y45.159 E0.23602
G1 X86.933 Y45.159 E0.02365
G1 X86.933 Y52.686 E0.23602
G1 X86.529 Y52.686 E0.01268
G1 X86.529 Y54.993 E0.07234
G1 X86.179 Y54.993 E0.01096
G1 X86.179 Y45.159 E0.30836
G1 X85.425 Y45.159 E0.02365
G1 X85.425 Y54.993 E0.30836
G1 X84.671 Y54.993 E0.02365
G1 X84.671 Y45.159 E0.30836
G1 X83.916 Y45.159 E0.02365
G1 X83.916 Y57.300 E0.38070
G1 X83.162 Y57.300 E0.02365
G1 X83.162 Y45.159 E0.38070
G1 X82.408 Y45.159 E0.02365
G1 X82.408 Y57.300 E0.38070
G1 X81.914 Y57.300 E0.01548
G1 X81.914 Y59.607 E0.07234
G1 X81.654 Y59.607 E0.00817
G1 X81.654 Y45.159 E0.45303
G1 X80.900 Y45.159 E0.02365
G1 X80.900 Y59.607 E0.45303
G1 X80.146 Y59.607 E0.02365
G1 X80.146 Y45.159 E0.45303
G1 X79.391 Y45.159 E0.02365
G1 X79.391 Y61.914 E0.52537
G1 X78.637 Y61.914 E0.02365
G1 X78.637 Y45.159 E0.52537
M73 Q0 S280
M73 P0 R278
G1 X77.883 Y45.159 E0.02365
G1 X77.883 Y61.914 E0.52537
G1 X77.300 Y61.914 E0.01828
G1 X77.300 Y64.222 E0.07234
G1 X77.129 Y64.222 E0.00537
G1 X77.129 Y45.159 E0.59771
G1 X76.375 Y45.159 E0.02365
G1 X76.375 Y64.222 E0.59771
G1 X75.621 Y64.222 E0.02365
G1 X75.621 Y45.159 E0.59771
G1 X74.867 Y45.159 E0.02365
G1 X74.867 Y66.529 E0.67004
G1 X74.112 Y66.529 E0.02365
G1 X74.112 Y45.159 E0.67004
G1 X73.358 Y45.159 E0.02365
G1 X73.358 Y66.529 E0.67004
G1 X72.686 Y66.529 E0.02107
G1 X72.686 Y68.836 E0.07234
G1 X72.604 Y68.836 E0.00257
G1 X72.604 Y45.159 E0.74238
G1 X71.850 Y45.159 E0.02365
G1 X71.850 Y68.836 E0.74238
G1 X71.096 Y68.836 E0.02365
G1 X71.096 Y45.159 E0.74238
G1 X70.342 Y45.159 E0.02365
G1 X70.342 Y71.143 E0.81472
G1 X69.587 Y71.143 E0.02365
G1 X69.587 Y45.226 E0.81261
G1 X68.833 Y45.345 E0.02394
G1 X68.833 Y71.143 E0.80886
G1 X68.079 Y71.143 E0.02365
G1 X68.079 Y45.614 E0.80043
G1 X67.325 Y45.998 E0.02654
G1 X67.325 Y71.143 E0.78838
G1 X66.571 Y71.143 E0.02365
G1 X66.571 Y46.669 E0.76734
G1 X66.071 Y47.185 E0.02251
G1 X65.817 Y47.682 E0.01750
G1 X65.817 Y71.312 E0.74093
M204 S1000
G1 F8640
G1 X65.817 Y68.021 E-0.76000
G1 E-0.04000 F2100.00000
G1 Z0.800 F10800.000
G1 X65.817 Y162.692
G1 Z0.200
G1 E0.80000 F2100.00000
M204 S20
G1 F1800
G1 X65.817 Y139.039 E0.74162
G1 X66.571 Y139.039 E0.02365
G1 X66.571 Y163.331 E0.76164
G1 X67.094 Y163.854 E0.02321
G1 X67.186 Y163.930 E0.00371
G1 X67.325 Y164.002 E0.00492
G1 X67.325 Y139.039 E0.78268
G1 X68.079 Y139.039 E0.02365
G1 X68.079 Y164.386 E0.79471
G1 X68.505 Y164.600 E0.01496
G1 X68.833 Y164.655 E0.01043
G1 X68.833 Y139.039 E0.80315
G1 X69.587 Y139.039 E0.02365
G1 X69.587 Y164.774 E0.80689
G1 X69.933 Y164.829 E0.01098
G1 X70.342 Y164.841 E0.01280
G1 X70.342 Y139.039 E0.80900
G1 X70.379 Y139.039 E0.00118
G1 X70.379 Y141.347 E0.07234
G1 X71.096 Y141.347 E0.02247
G1 X71.096 Y164.841 E0.73667
G1 X71.850 Y164.841 E0.02365
G1 X71.850 Y141.347 E0.73667
G1 X72.604 Y141.347 E0.02365
G1 X72.604 Y164.841 E0.73667
G1 X73.358 Y164.841 E0.02365
G1 X73.358 Y143.654 E0.66433
G1 X74.112 Y143.654 E0.02365
G1 X74.112 Y164.841 E0.66433
G1 X74.867 Y164.841 E0.02365
G1 X74.867 Y143.654 E0.66433
G1 X74.993 Y143.654 E0.00397
G1 X74.993 Y145.961 E0.07234
G1 X75.621 Y145.961 E0.01967
G1 X75.621 Y164.841 E0.59199
G1 X76.375 Y164.841 E0.02365
G1 X76.375 Y145.961 E0.59199
G1 X77.129 Y145.961 E0.02365
G1 X77.129 Y164.841 E0.59199
G1 X77.883 Y164.841 E0.02365
G1 X77.883 Y148.268 E0.51966
G1 X78.637 Y148.268 E0.02365
G1 X78.637 Y164.841 E0.51966
G1 X79.391 Y164.841 E0.02365
G1 X79.391 Y148.268 E0.51966
G1 X79.607 Y148.268 E0.00677
G1 X79.607 Y150.575 E0.07234
G1 X80.146 Y150.575 E0.01688
G1 X80.146 Y164.841 E0.44732
G1 X80.900 Y164.841 E0.02365
G1 X80.900 Y150.575 E0.44732
M73 Q0 S279
M73 P0 R277
G1 X81.654 Y150.575 E0.02365
G1 X81.654 Y164.841 E0.44732
G1 X82.408 Y164.841 E0.02365
G1 X82.408 Y152.882 E0.37498
G1 X83.162 Y152.882 E0.02365
G1 X83.162 Y164.841 E0.37498
G1 X83.916 Y164.841 E0.02365
G1 X83.916 Y152.882 E0.37498
G1 X84.222 Y152.882 E0.00957
G1 X84.222 Y155.189 E0.07234
G1 X84.671 Y155.189 E0.01408
G1 X84.671 Y164.841 E0.30265
G1 X85.425 Y164.841 E0.02365
G1 X85.425 Y155.189 E0.30265
G1 X86.179 Y155.189 E0.02365
G1 X86.179 Y164.841 E0.30265
G1 X86.933 Y164.841 E0.02365
G1 X86.933 Y157.496 E0.23031
G1 X87.687 Y157.496 E0.02365
G1 X87.687 Y164.841 E0.23031
G1 X88.441 Y164.841 E0.02365
G1 X88.441 Y157.496 E0.23031
G1 X88.836 Y157.496 E0.01236
G1 X88.836 Y159.803 E0.07234
G1 X89.196 Y159.803 E0.01128
G1 X89.196 Y164.841 E0.15797
G1 X89.950 Y164.841 E0.02365
G1 X89.950 Y159.803 E0.15797
G1 X90.704 Y159.803 E0.02365
G1 X90.704 Y165.011 E0.16329
M204 S1000
G1 F8640
G1 X90.704 Y161.720 E-0.76000
G1 E-0.04000 F2100.00000
G1 Z0.800 F10800.000
G1 X90.704 Y167.911
G1 Z0.200
G1 E0.80000 F2100.00000
M204 S20
G1 F1800
G1 X90.704 Y167.559 E0.01105
G1 X89.950 Y167.559 E0.02365
G1 X89.950 Y167.741 E0.00573
G1 X89.196 Y167.741 E0.02365
G1 X89.196 Y167.559 E0.00573
G1 X88.441 Y167.559 E0.02365
G1 X88.441 Y167.741 E0.00573
G1 X87.687 Y167.741 E0.02365
G1 X87.687 Y167.559 E0.00573
G1 X86.933 Y167.559 E0.02365
G1 X86.933 Y167.741 E0.00573
G1 X86.179 Y167.741 E0.02365
G1 X86.179 Y167.559 E0.00573
G1 X85.425 Y167.559 E0.02365
G1 X85.425 Y167.741 E0.00573
G1 X84.671 Y167.741 E0.02365
G1 X84.671 Y167.559 E0.00573
G1 X83.916 Y167.559 E0.02365
G1 X83.916 Y167.741 E0.00573
G1 X83.162 Y167.741 E0.02365
G1 X83.162 Y167.559 E0.00573
G1 X82.408 Y167.559 E0.02365
G1 X82.408 Y167.741 E0.00573
G1 X81.654 Y167.741 E0.02365
G1 X81.654 Y167.559 E0.00573
G1 X80.900 Y167.559 E0.02365
G1 X80.900 Y167.741 E0.00573
G1 X80.146 Y167.741 E0.02365
G1 X80.146 Y167.559 E0.00573
G1 X79.391 Y167.559 E0.02365
G1 X79.391 Y167.741 E0.00573
G1 X78.637 Y167.741 E0.02365
G1 X78.637 Y167.389 E0.01105
M204 S1000
G1 F8640
G1 X78.637 Y167.741 E-0.08140
G1 X79.391 Y167.741 E-0.17414
G1 X79.391 Y167.559 E-0.04221
G1 X80.146 Y167.559 E-0.17414
G1 X80.146 Y167.741 E-0.04221
G1 X80.900 Y167.741 E-0.17414
G1 X80.900 Y167.559 E-0.04221
G1 X81.028 Y167.559 E-0.02955
G1 E-0.04000 F2100.00000
G1 Z0.800 F10800.000
G1 X65.062 Y165.903
G1 Z0.200
G1 E0.80000 F2100.00000
M204 S20
G1 F1800
G1 X65.062 Y165.665 E0.00745
G1 X64.308 Y164.911 E0.03344
G1 X64.308 Y165.436 E0.01647
G1 X63.554 Y164.254 E0.04395
G1 X63.554 Y163.863 E0.01227
G1 X62.963 Y162.703 E0.04082
G1 X62.800 Y162.285 E0.01407
G1 X62.800 Y163.159 E0.02741
M204 S1000
G1 F8640
G1 X62.800 Y162.285 E-0.20186
G1 X62.963 Y162.703 E-0.10360
G1 X63.554 Y163.863 E-0.30059
G1 X63.554 Y164.254 E-0.09039
G1 X63.702 Y164.487 E-0.06357
G1 E-0.04000 F2100.00000
G1 Z0.800 F10800.000
G1 X159.332 Y165.011
G1 Z0.200
G1 E0.80000 F2100.00000
M204 S20
G1 F1800
G1 X159.332 Y159.803 E0.16329
G1 X160.087 Y159.803 E0.02365
G1 X160.087 Y164.841 E0.15797
G1 X160.841 Y164.841 E0.02365
G1 X160.841 Y159.803 E0.15797
G1 X161.347 Y159.803 E0.01586
G1 X161.347 Y157.496 E0.07234
G1 X161.595 Y157.496 E0.00778
G1 X161.595 Y164.841 E0.23031
G1 X162.349 Y164.841 E0.02365
G1 X162.349 Y157.496 E0.23031
G1 X163.103 Y157.496 E0.02365
G1 X163.103 Y164.841 E0.23031
G1 X163.857 Y164.841 E0.02365
G1 X163.857 Y155.189 E0.30265
G1 X164.611 Y155.189 E0.02365
G1 X164.611 Y164.841 E0.30265
G1 X165.366 Y164.841 E0.02365
G1 X165.366 Y155.189 E0.30265
G1 X165.961 Y155.189 E0.01866
G1 X165.961 Y152.882 E0.07234
G1 X166.120 Y152.882 E0.00499
G1 X166.120 Y164.841 E0.37498
G1 X166.874 Y164.841 E0.02365
G1 X166.874 Y152.882 E0.37498
G1 X167.628 Y152.882 E0.02365
G1 X167.628 Y164.841 E0.37498
G1 X168.382 Y164.841 E0.02365
G1 X168.382 Y150.575 E0.44732
G1 X169.136 Y150.575 E0.02365
G1 X169.136 Y164.841 E0.44732
G1 X169.891 Y164.841 E0.02365
G1 X169.891 Y150.575 E0.44732
G1 X170.575 Y150.575 E0.02146
G1 X170.575 Y148.268 E0.07234
G1 X170.645 Y148.268 E0.00219
G1 X170.645 Y164.841 E0.51966
G1 X171.399 Y164.841 E0.02365
G1 X171.399 Y148.268 E0.51966
G1 X172.153 Y148.268 E0.02365
G1 X172.153 Y164.841 E0.51966
G1 X172.907 Y164.841 E0.02365
G1 X172.907 Y145.961 E0.59199
G1 X173.661 Y145.961 E0.02365
G1 X173.661 Y164.841 E0.59199
G1 X174.416 Y164.841 E0.02365
G1 X174.416 Y145.961 E0.59199
G1 X175.170 Y145.961 E0.02365
G1 X175.170 Y164.841 E0.59199
G1 X175.924 Y164.841 E0.02365
G1 X175.924 Y143.654 E0.66433
G1 X176.678 Y143.654 E0.02365
G1 X176.678 Y164.841 E0.66433
G1 X177.432 Y164.841 E0.02365
G1 X177.432 Y143.654 E0.66433
G1 X177.496 Y143.654 E0.00200
G1 X177.496 Y141.347 E0.07234
G1 X178.186 Y141.347 E0.02164
G1 X178.186 Y164.841 E0.73667
G1 X178.940 Y164.841 E0.02365
G1 X178.940 Y141.347 E0.73667
G1 X179.695 Y141.347 E0.02365
G1 X179.695 Y164.841 E0.73667
G1 X180.067 Y164.829 E0.01167
G1 X180.449 Y164.768 E0.01213
G1 X180.449 Y139.039 E0.80671
G1 X181.203 Y139.039 E0.02365
G1 X181.203 Y164.649 E0.80297
G1 X181.492 Y164.601 E0.00919
G1 X181.957 Y164.368 E0.01631
G1 X181.957 Y139.039 E0.79414
G1 X182.711 Y139.039 E0.02365
G1 X182.711 Y163.983 E0.78209
G1 X182.879 Y163.880 E0.00618
G1 X183.465 Y163.295 E0.02598
G1 X183.465 Y139.039 E0.76050
G1 X184.220 Y139.039 E0.02365
G1 X184.220 Y162.621 E0.73939
M204 S1000
G1 F8640
G1 X184.220 Y159.330 E-0.76000
G1 E-0.04000 F2100.00000
