; generated by Slic3r Prusa Edition 1.41.0 on 2018-10-28 at 20:55:45

; 

; external perimeters extrusion width = 0.45mm
; perimeters extrusion width = 0.45mm
; infill extrusion width = 0.45mm
; solid infill extrusion width = 0.45mm
; top infill extrusion width = 0.40mm
; first layer extrusion width = 0.42mm

M201 X1000 Y1000 Z1000 E5000 ; sets maximum accelerations, mm/sec^2
M203 X200 Y200 Z12 E120 ; sets maximum feedrates, mm/sec
M204 P1250 R1250 T1250 ; sets acceleration (P, T) and retract acceleration (R), mm/sec^2
M205 X8.00 Y8.00 Z0.40 E1.50 ; sets the jerk limits, mm/sec
M205 S0 T0 ; sets the minimum extruding and travel feed rate, mm/sec
M107
M115 U3.4.0 ; tell printer latest fw version
M83  ; extruder relative mode
M104 S140 ; set extruder to warm-up temp
M140 S80 ; set bed temp
M190 S80 ; wait for bed temp
G28 W ; home all without mesh bed level
G80 ; mesh bed leveling
M104 S245 ; set extruder temp
M109 S245 ; wait for extruder temp
G1 Y-3.0 F1000.0 ; go outside print area
G92 E0.0
G1 X60.0 E9.0  F1000.0 ; intro line
M73 Q0 S70
M73 P0 R69
G1 X100.0 E12.5  F1000.0 ; intro line
G92 E0.0
M221 S95
M900 K45; Filament gcode
G21 ; set units to millimeters
G90 ; use absolute coordinates
M83 ; use relative distances for extrusion
;BEFORE_LAYER_CHANGE
G92 E0.0
;0.2


G1 E-0.80000 F2100.00000
G1 Z0.600 F10800.000
;AFTER_LAYER_CHANGE
;0.2
G1 X64.361 Y42.273
G1 Z0.200
G1 E0.80000 F2100.00000
M204 S20
G1 F1800
G1 X66.458 Y41.139 E0.07474
G1 X67.534 Y40.773 E0.03566
G1 X69.864 Y40.436 E0.07378
G1 X180.005 Y40.434 E3.45342
G1 X182.306 Y40.743 E0.07279
G1 X183.121 Y40.960 E0.02644
G1 X185.211 Y41.995 E0.07313
G1 X186.123 Y42.683 E0.03582
G1 X187.739 Y44.378 E0.07344
G1 X188.859 Y46.454 E0.07393
G1 X189.220 Y47.504 E0.03484
G1 X189.558 Y49.731 E0.07062
G1 X189.565 Y160.084 E3.46006
G1 X189.255 Y162.317 E0.07068
G1 X189.047 Y163.102 E0.02546
G1 X188.029 Y165.169 E0.07225
G1 X187.415 Y166.019 E0.03286
G1 X185.639 Y167.727 E0.07724
G1 X183.527 Y168.868 E0.07526
G1 X182.444 Y169.231 E0.03582
G1 X180.053 Y169.565 E0.07570
G1 X69.916 Y169.565 E3.45328
G1 X67.683 Y169.255 E0.07068
G1 X66.903 Y169.049 E0.02529
G1 X64.835 Y168.031 E0.07225
G1 X63.981 Y167.415 E0.03303
G1 X62.273 Y165.639 E0.07724
G1 X61.132 Y163.528 E0.07526
G1 X60.769 Y162.445 E0.03582
G1 X60.435 Y160.052 E0.07574
G1 X60.435 Y49.916 E3.45325
G1 X60.745 Y47.683 E0.07066
G1 X60.953 Y46.899 E0.02546
G1 X61.972 Y44.830 E0.07230
G1 X62.585 Y43.980 E0.03286
G1 X64.318 Y42.315 E0.07535
M204 S1000
G1 X64.577 Y42.584 F10800.000
M204 S20
G1 F1800
G1 X66.617 Y41.481 E0.07270
G1 X67.614 Y41.141 E0.03305
G1 X69.878 Y40.813 E0.07172
G1 X180.005 Y40.811 E3.45296
G1 X182.235 Y41.113 E0.07056
G1 X182.982 Y41.310 E0.02422
G1 X185.018 Y42.319 E0.07124
G1 X185.864 Y42.957 E0.03320
G1 X187.436 Y44.603 E0.07139
G1 X188.519 Y46.617 E0.07170
G1 X188.853 Y47.590 E0.03226
G1 X189.182 Y49.761 E0.06884
G1 X189.188 Y160.071 E3.45868
G1 X188.884 Y162.246 E0.06886
G1 X188.696 Y162.964 E0.02327
G1 X187.704 Y164.978 E0.07041
G1 X187.134 Y165.768 E0.03053
G1 X185.414 Y167.424 E0.07487
G1 X183.364 Y168.528 E0.07298
G1 X182.365 Y168.862 E0.03305
G1 X180.047 Y169.188 E0.07340
G1 X69.929 Y169.188 E3.45266
G1 X67.754 Y168.884 E0.06886
G1 X67.036 Y168.696 E0.02327
G1 X65.022 Y167.703 E0.07041
G1 X64.232 Y167.134 E0.03053
G1 X62.576 Y165.414 E0.07486
G1 X61.472 Y163.365 E0.07297
G1 X61.136 Y162.361 E0.03320
G1 X60.812 Y160.046 E0.07328
G1 X60.812 Y49.924 E3.45280
G1 X61.116 Y47.750 E0.06884
G1 X61.305 Y47.032 E0.02327
G1 X62.297 Y45.021 E0.07029
G1 X62.866 Y44.232 E0.03053
G1 X64.534 Y42.625 E0.07259
M204 S1000
; PURGING FINISHED
G1 F8640
G1 X66.617 Y41.481 E-0.54877
G1 X67.483 Y41.186 E-0.21123
G1 E-0.04000 F2100.00000
G1 Z0.800 F10800.000
G1 X72.468 Y155.309
G1 Z0.200
G1 E0.80000 F2100.00000
M204 S20
G1 F1800
G1 X73.174 Y155.409 E0.02235
G1 X73.791 Y155.723 E0.02170
G1 X74.276 Y156.209 E0.02154
G1 X74.588 Y156.821 E0.02153
G1 X74.696 Y157.500 E0.02155
G1 X74.588 Y158.179 E0.02155
G1 X74.276 Y158.791 E0.02153
G1 X73.791 Y159.277 E0.02154
G1 X73.178 Y159.589 E0.02155
G1 X72.500 Y159.696 E0.02153
G1 X71.817 Y159.588 E0.02168
G1 X71.186 Y159.254 E0.02237
G1 X70.724 Y158.791 E0.02052
G1 X70.412 Y158.179 E0.02153
G1 X70.304 Y157.500 E0.02155
G1 X70.412 Y156.821 E0.02155
G1 X70.724 Y156.209 E0.02153
G1 X71.209 Y155.723 E0.02154
G1 X71.822 Y155.411 E0.02155
G1 X72.409 Y155.319 E0.01863
M204 S1000
G1 X72.467 Y155.691 F10800.000
M204 S20
G1 F1800
G1 X73.059 Y155.774 E0.01872
G1 X73.566 Y156.032 E0.01785
G1 X73.967 Y156.434 E0.01780
G1 X74.225 Y156.939 E0.01779
G1 X74.314 Y157.500 E0.01781
G1 X74.225 Y158.061 E0.01781
G1 X73.967 Y158.566 E0.01779
G1 X73.566 Y158.968 E0.01780
G1 X73.060 Y159.226 E0.01780
G1 X72.500 Y159.314 E0.01779
G1 X71.938 Y159.225 E0.01784
G1 X71.413 Y158.947 E0.01862
G1 X71.033 Y158.566 E0.01688
G1 X70.775 Y158.061 E0.01779
G1 X70.686 Y157.500 E0.01781
G1 X70.775 Y156.939 E0.01781
G1 X71.033 Y156.434 E0.01779
G1 X71.434 Y156.032 E0.01780
G1 X71.940 Y155.774 E0.01780
G1 X72.408 Y155.701 E0.01487
M204 S1000
G1 X72.663 Y155.342 F10800.000
G1 F8640
G1 X73.059 Y155.774 E-0.15117
G1 X73.566 Y156.032 E-0.13148
G1 X73.967 Y156.434 E-0.13106
G1 X74.225 Y156.939 E-0.13100
G1 X74.314 Y157.500 E-0.13115
G1 X74.257 Y157.860 E-0.08415
G1 E-0.04000 F2100.00000
G1 Z0.800 F10800.000
G1 X75.563 Y154.437
G1 Z0.200
G1 E0.80000 F2100.00000
M204 S20
G1 F1800
G1 X75.563 Y55.563 E3.10013
G1 X84.062 Y55.563 E0.26649
G1 X84.062 Y154.437 E3.10013
G1 X75.623 Y154.437 E0.26460
M204 S1000
G1 X75.940 Y154.060 F10800.000
M204 S20
G1 F1800
G1 X75.940 Y55.940 E3.07648
G1 X83.685 Y55.940 E0.24284
G1 X83.685 Y154.060 E3.07648
M73 Q1 S69
G1 X76.000 Y154.060 E0.24096
M73 P1 R68
M204 S1000
G1 X75.588 Y154.251 F10800.000
G1 F8640
G1 X75.998 Y150.769 E-0.76000
G1 E-0.04000 F2100.00000
G1 Z0.800 F10800.000
G1 X72.500 Y54.696
G1 Z0.200
G1 E0.80000 F2100.00000
M204 S20
G1 F1800
G1 X71.817 Y54.587 E0.02169
G1 X71.187 Y54.253 E0.02236
G1 X70.724 Y53.791 E0.02052
G1 X70.412 Y53.178 E0.02154
G1 X70.304 Y52.500 E0.02154
G1 X70.412 Y51.822 E0.02154
G1 X70.724 Y51.209 E0.02154
G1 X71.209 Y50.724 E0.02154
G1 X71.822 Y50.412 E0.02154
G1 X72.468 Y50.309 E0.02052
G1 X73.174 Y50.410 E0.02236
G1 X73.791 Y50.724 E0.02169
G1 X74.276 Y51.209 E0.02154
G1 X74.588 Y51.822 E0.02154
G1 X74.696 Y52.500 E0.02154
G1 X74.588 Y53.178 E0.02154
G1 X74.276 Y53.791 E0.02154
G1 X73.791 Y54.276 E0.02154
G1 X73.178 Y54.588 E0.02154
G1 X72.559 Y54.686 E0.01966
M204 S1000
G1 X72.500 Y54.314 F10800.000
M204 S20
G1 F1800
G1 X71.938 Y54.225 E0.01786
G1 X71.413 Y53.947 E0.01862
G1 X71.033 Y53.566 E0.01687
G1 X70.775 Y53.061 E0.01779
G1 X70.686 Y52.500 E0.01779
G1 X70.775 Y51.939 E0.01779
G1 X71.033 Y51.434 E0.01779
G1 X71.434 Y51.033 E0.01779
G1 X71.939 Y50.775 E0.01779
G1 X72.471 Y50.691 E0.01687
G1 X73.059 Y50.774 E0.01862
G1 X73.566 Y51.033 E0.01785
G1 X73.967 Y51.434 E0.01779
G1 X74.225 Y51.939 E0.01779
G1 X74.314 Y52.500 E0.01779
G1 X74.225 Y53.061 E0.01779
G1 X73.967 Y53.566 E0.01779
G1 X73.566 Y53.967 E0.01779
G1 X73.061 Y54.225 E0.01779
G1 X72.560 Y54.304 E0.01590
M204 S1000
G1 X72.300 Y54.660 F10800.000
G1 F8640
G1 X71.938 Y54.225 E-0.14474
G1 X71.413 Y53.947 E-0.13711
G1 X71.033 Y53.566 E-0.12427
G1 X70.775 Y53.061 E-0.13103
G1 X70.686 Y52.500 E-0.13104
G1 X70.748 Y52.107 E-0.09181
G1 E-0.04000 F2100.00000
G1 Z0.800 F10800.000
G1 X84.688 Y55.563
G1 Z0.200
G1 E0.80000 F2100.00000
M204 S20
G1 F1800
G1 X100.312 Y55.563 E0.48988
G1 X100.312 Y154.437 E3.10013
G1 X84.688 Y154.437 E0.48988
G1 X84.688 Y55.623 E3.09825
M204 S1000
G1 X85.065 Y55.940 F10800.000
M204 S20
G1 F1800
G1 X99.935 Y55.940 E0.46624
G1 X99.935 Y154.060 E3.07648
G1 X85.065 Y154.060 E0.46624
G1 X85.065 Y56.000 E3.07460
M204 S1000
G1 X85.045 Y55.541 F10800.000
G1 F8640
G1 X88.356 Y55.987 E-0.76000
G1 E-0.04000 F2100.00000
G1 Z0.800 F10800.000
G1 X100.938 Y55.563
G1 Z0.200
G1 E0.80000 F2100.00000
M204 S20
G1 F1800
G1 X116.562 Y55.563 E0.48988
G1 X116.562 Y154.437 E3.10013
G1 X100.938 Y154.437 E0.48988
G1 X100.938 Y55.623 E3.09825
M204 S1000
G1 X101.315 Y55.940 F10800.000
M204 S20
G1 F1800
G1 X116.185 Y55.940 E0.46624
G1 X116.185 Y154.060 E3.07648
G1 X101.315 Y154.060 E0.46624
G1 X101.315 Y56.000 E3.07460
M204 S1000
G1 X101.295 Y55.541 F10800.000
G1 F8640
G1 X104.606 Y55.987 E-0.76000
G1 E-0.04000 F2100.00000
G1 Z0.800 F10800.000
G1 X117.188 Y55.563
G1 Z0.200
G1 E0.80000 F2100.00000
M204 S20
G1 F1800
G1 X132.812 Y55.563 E0.48988
G1 X132.812 Y154.437 E3.10013
G1 X117.188 Y154.437 E0.48988
G1 X117.188 Y55.623 E3.09825
M204 S1000
G1 X117.565 Y55.940 F10800.000
M204 S20
G1 F1800
G1 X132.435 Y55.940 E0.46624
G1 X132.435 Y154.060 E3.07648
M73 Q3 S68
M73 P3 R67
G1 X117.565 Y154.060 E0.46624
G1 X117.565 Y56.000 E3.07460
M204 S1000
G1 X117.545 Y55.541 F10800.000
G1 F8640
G1 X120.856 Y55.987 E-0.76000
G1 E-0.04000 F2100.00000
G1 Z0.800 F10800.000
G1 X133.438 Y55.563
G1 Z0.200
G1 E0.80000 F2100.00000
M204 S20
G1 F1800
G1 X149.062 Y55.563 E0.48988
G1 X149.062 Y154.437 E3.10013
G1 X133.438 Y154.437 E0.48988
G1 X133.438 Y55.623 E3.09825
M204 S1000
G1 X133.815 Y55.940 F10800.000
M204 S20
G1 F1800
G1 X148.685 Y55.940 E0.46624
G1 X148.685 Y154.060 E3.07648
G1 X133.815 Y154.060 E0.46624
G1 X133.815 Y56.000 E3.07460
M204 S1000
G1 X133.795 Y55.541 F10800.000
G1 F8640
G1 X137.106 Y55.987 E-0.76000
G1 E-0.04000 F2100.00000
G1 Z0.800 F10800.000
G1 X149.688 Y55.563
G1 Z0.200
G1 E0.80000 F2100.00000
M204 S20
G1 F1800
G1 X165.312 Y55.563 E0.48988
G1 X165.312 Y154.437 E3.10013
G1 X149.688 Y154.437 E0.48988
G1 X149.688 Y55.623 E3.09825
M204 S1000
G1 X150.065 Y55.940 F10800.000
M204 S20
G1 F1800
G1 X164.935 Y55.940 E0.46624
G1 X164.935 Y154.060 E3.07648
G1 X150.065 Y154.060 E0.46624
G1 X150.065 Y56.000 E3.07460
M204 S1000
G1 X150.045 Y55.541 F10800.000
G1 F8640
G1 X153.356 Y55.987 E-0.76000
G1 E-0.04000 F2100.00000
G1 Z0.800 F10800.000
G1 X165.938 Y55.563
G1 Z0.200
G1 E0.80000 F2100.00000
M204 S20
G1 F1800
G1 X174.437 Y55.563 E0.26649
G1 X174.437 Y154.437 E3.10013
G1 X165.938 Y154.437 E0.26649
G1 X165.938 Y55.623 E3.09825
M204 S1000
G1 X166.315 Y55.940 F10800.000
M204 S20
G1 F1800
G1 X174.060 Y55.940 E0.24284
G1 X174.060 Y154.060 E3.07648
M73 Q4 S67
M73 P4 R66
G1 X166.315 Y154.060 E0.24284
G1 X166.315 Y56.000 E3.07460
M204 S1000
G1 X166.304 Y55.540 F10800.000
G1 F8640
G1 X169.606 Y55.975 E-0.76000
G1 E-0.04000 F2100.00000
G1 Z0.800 F10800.000
G1 X175.411 Y53.178
G1 Z0.200
G1 E0.80000 F2100.00000
M204 S20
G1 F1800
G1 X175.304 Y52.500 E0.02153
G1 X175.411 Y51.822 E0.02153
G1 X175.723 Y51.209 E0.02155
G1 X176.209 Y50.724 E0.02154
G1 X176.821 Y50.412 E0.02153
G1 X177.468 Y50.309 E0.02054
G1 X178.175 Y50.410 E0.02238
G1 X178.791 Y50.724 E0.02169
G1 X179.277 Y51.209 E0.02154
G1 X179.589 Y51.822 E0.02155
G1 X179.696 Y52.500 E0.02153
G1 X179.588 Y53.183 E0.02168
G1 X179.254 Y53.814 E0.02237
G1 X178.791 Y54.276 E0.02052
G1 X178.179 Y54.588 E0.02153
G1 X177.500 Y54.696 E0.02155
G1 X176.821 Y54.588 E0.02155
G1 X176.209 Y54.276 E0.02153
G1 X175.723 Y53.791 E0.02154
G1 X175.438 Y53.232 E0.01967
M204 S1000
G1 X175.774 Y53.060 F10800.000
M204 S20
G1 F1800
G1 X175.686 Y52.500 E0.01779
G1 X175.774 Y51.940 E0.01779
G1 X176.032 Y51.434 E0.01780
G1 X176.434 Y51.033 E0.01780
G1 X176.939 Y50.775 E0.01779
G1 X177.471 Y50.691 E0.01689
G1 X178.059 Y50.774 E0.01863
G1 X178.566 Y51.033 E0.01784
G1 X178.968 Y51.434 E0.01780
G1 X179.226 Y51.940 E0.01780
G1 X179.314 Y52.500 E0.01779
G1 X179.225 Y53.062 E0.01784
G1 X178.947 Y53.587 E0.01862
G1 X178.566 Y53.967 E0.01688
G1 X178.061 Y54.225 E0.01779
G1 X177.500 Y54.314 E0.01781
G1 X176.939 Y54.225 E0.01781
G1 X176.434 Y53.967 E0.01779
G1 X176.032 Y53.566 E0.01780
G1 X175.802 Y53.114 E0.01591
M204 S1000
G1 X175.383 Y52.977 F10800.000
G1 F8640
G1 X175.686 Y52.500 E-0.14425
G1 X175.774 Y51.940 E-0.13099
G1 X176.032 Y51.434 E-0.13107
G1 X176.434 Y51.033 E-0.13106
G1 X176.939 Y50.775 E-0.13100
G1 X177.331 Y50.713 E-0.09163
G1 E-0.04000 F2100.00000
G1 Z0.800 F10800.000
G1 X177.468 Y155.309
G1 Z0.200
G1 E0.80000 F2100.00000
M204 S20
G1 F1800
G1 X178.174 Y155.409 E0.02236
G1 X178.791 Y155.723 E0.02170
G1 X179.277 Y156.209 E0.02154
G1 X179.589 Y156.821 E0.02155
G1 X179.696 Y157.500 E0.02154
G1 X179.589 Y158.179 E0.02154
G1 X179.277 Y158.791 E0.02154
G1 X178.791 Y159.277 E0.02154
G1 X178.179 Y159.589 E0.02154
G1 X177.500 Y159.696 E0.02154
G1 X176.821 Y159.589 E0.02154
G1 X176.209 Y159.277 E0.02154
G1 X175.723 Y158.791 E0.02154
G1 X175.411 Y158.179 E0.02155
G1 X175.304 Y157.500 E0.02154
G1 X175.411 Y156.821 E0.02154
G1 X175.723 Y156.209 E0.02154
G1 X176.209 Y155.723 E0.02154
G1 X176.821 Y155.411 E0.02154
G1 X177.409 Y155.319 E0.01865
M204 S1000
G1 X177.467 Y155.691 F10800.000
M204 S20
G1 F1800
G1 X178.059 Y155.774 E0.01874
G1 X178.567 Y156.032 E0.01785
G1 X178.968 Y156.434 E0.01780
G1 X179.226 Y156.939 E0.01779
G1 X179.314 Y157.500 E0.01780
G1 X179.226 Y158.061 E0.01780
G1 X178.968 Y158.566 E0.01779
G1 X178.566 Y158.968 E0.01780
G1 X178.061 Y159.226 E0.01779
G1 X177.500 Y159.314 E0.01780
G1 X176.939 Y159.226 E0.01780
G1 X176.434 Y158.968 E0.01779
G1 X176.032 Y158.567 E0.01780
G1 X175.774 Y158.061 E0.01779
G1 X175.686 Y157.500 E0.01780
G1 X175.774 Y156.939 E0.01780
G1 X176.032 Y156.434 E0.01779
G1 X176.434 Y156.032 E0.01780
G1 X176.939 Y155.774 E0.01779
G1 X177.408 Y155.701 E0.01489
M204 S1000
G1 X177.663 Y155.342 F10800.000
G1 F8640
G1 X178.059 Y155.774 E-0.15129
G1 X178.567 Y156.032 E-0.13145
G1 X178.968 Y156.434 E-0.13107
G1 X179.226 Y156.939 E-0.13104
G1 X179.314 Y157.500 E-0.13109
G1 X179.257 Y157.860 E-0.08406
G1 E-0.04000 F2100.00000
G1 Z0.800 F10800.000
G1 X184.093 Y161.330
G1 Z0.200
G1 E0.80000 F2100.00000
M204 S20
G1 F1800
G1 X183.482 Y162.530 E0.04223
G1 X182.530 Y163.482 E0.04221
G1 X181.330 Y164.093 E0.04223
G1 X179.946 Y164.313 E0.04394
G1 X70.054 Y164.313 E3.44558
G1 X68.670 Y164.093 E0.04394
G1 X67.470 Y163.482 E0.04222
G1 X66.518 Y162.530 E0.04222
G1 X65.906 Y161.330 E0.04223
G1 X65.687 Y159.946 E0.04394
G1 X65.687 Y50.054 E3.44558
G1 X65.906 Y48.670 E0.04394
G1 X66.518 Y47.470 E0.04223
G1 X67.470 Y46.518 E0.04222
G1 X68.670 Y45.906 E0.04223
G1 X70.054 Y45.687 E0.04394
G1 X180.015 Y45.698 E3.44776
G1 X181.330 Y45.906 E0.04173
G1 X182.530 Y46.518 E0.04223
G1 X183.482 Y47.470 E0.04222
G1 X184.093 Y48.670 E0.04222
G1 X184.313 Y50.054 E0.04394
G1 X184.313 Y159.946 E3.44558
G1 X184.103 Y161.271 E0.04206
M204 S1000
G1 F8640
G1 X183.482 Y162.530 E-0.32419
G1 X182.530 Y163.482 E-0.31088
G1 X182.048 Y163.728 E-0.12493
G1 E-0.04000 F2100.00000
G1 Z0.800 F10800.000
G1 X183.791 Y162.755
G1 Z0.200
G1 E0.80000 F2100.00000
M204 S20
G1 F1800
G1 X182.755 Y163.791 E0.04596
G1 X181.448 Y164.457 E0.04597
G1 X179.976 Y164.690 E0.04674
G1 X70.024 Y164.690 E3.44744
G1 X68.552 Y164.457 E0.04675
G1 X67.246 Y163.791 E0.04597
G1 X66.209 Y162.755 E0.04597
G1 X65.543 Y161.448 E0.04597
G1 X65.310 Y159.976 E0.04674
G1 X65.310 Y50.024 E3.44744
G1 X65.543 Y48.552 E0.04674
G1 X66.209 Y47.246 E0.04597
G1 X67.246 Y46.209 E0.04597
G1 X68.552 Y45.543 E0.04597
G1 X70.024 Y45.310 E0.04674
G1 X180.045 Y45.321 E3.44962
G1 X181.448 Y45.543 E0.04454
G1 X182.755 Y46.209 E0.04597
G1 X183.791 Y47.246 E0.04597
G1 X184.457 Y48.552 E0.04597
G1 X184.690 Y50.024 E0.04675
G1 X184.690 Y159.976 E3.44744
G1 X184.457 Y161.448 E0.04674
G1 X183.818 Y162.701 E0.04409
M204 S1000
G1 X183.393 Y162.713 F10800.000
G1 F8640
G1 X182.755 Y163.791 E-0.35167
G1 X181.448 Y164.457 E-0.33856
G1 X181.150 Y164.504 E-0.06977
G1 E-0.04000 F2100.00000
G1 Z0.800 F10800.000
G1 X180.160 Y164.165
G1 Z0.200
G1 E0.80000 F2100.00000
M204 S20
G1 F1800
G1 X170.715 Y154.720 E0.41937
G1 X170.181 Y154.720 E0.01677
G1 X179.491 Y164.030 E0.41340
G1 X178.957 Y164.030 E0.01677
G1 X169.647 Y154.720 E0.41340
G1 X169.113 Y154.720 E0.01677
G1 X178.423 Y164.030 E0.41340
G1 X177.889 Y164.030 E0.01677
G1 X168.579 Y154.720 E0.41340
G1 X168.045 Y154.720 E0.01677
G1 X177.355 Y164.030 E0.41340
G1 X176.821 Y164.030 E0.01677
G1 X167.511 Y154.720 E0.41340
G1 X166.977 Y154.720 E0.01677
G1 X176.287 Y164.030 E0.41340
G1 X175.753 Y164.030 E0.01677
G1 X166.443 Y154.720 E0.41340
