; generated by PrusaSlicer 2.1.0 on 2019-10-06 at 19:36:57 UTC

; 

; external perimeters extrusion width = 0.60mm
; perimeters extrusion width = 0.50mm
; infill extrusion width = 0.50mm
; solid infill extrusion width = 0.50mm
; top infill extrusion width = 0.45mm
; first layer extrusion width = 0.42mm

M73 P0 R164
M73 Q0 S166
M201 X1000 Y1000 Z1000 E5000 ; sets maximum accelerations, mm/sec^2
M203 X200 Y200 Z12 E120 ; sets maximum feedrates, mm/sec
M204 P1250 R1250 T1250 ; sets acceleration (P, T) and retract acceleration (R), mm/sec^2
M205 X8.00 Y8.00 Z0.40 E1.50 ; sets the jerk limits, mm/sec
M205 S0 T0 ; sets the minimum extruding and travel feed rate, mm/sec
M107
M862.3 P "MK3S" ; printer model check
M862.1 P0.4 ; nozzle diameter check
M115 U3.8.0 ; tell printer latest fw version
G90 ; use absolute coordinates
M83 ; extruder relative mode
M104 S140 ; set extruder to warm-up temp
M140 S85 ; set bed temp
M190 S85 ; wait for bed temp
G28 W ; home all without mesh bed level
G80 ; mesh bed leveling
M104 S240 ; set extruder temp
M109 S240 ; wait for extruder temp
G4 S5 ; wait 5 seconds for temperature to stabilize
G1 Y-3.0 F1000.0 ; go outside print area
G92 E0.0
G1 X60.0 E9.0 F1000.0 ; intro line
M73 Q0 S166
M73 P0 R164
G1 X100.0 E12.5 F1000.0 ; intro line
G92 E0.0
M221 S95
G21 ; set units to millimeters
G90 ; use absolute coordinates
M83 ; use relative distances for extrusion
M900 K45 ; Filament gcode
;BEFORE_LAYER_CHANGE
G92 E0.0
;0.2


G1 E-1.40000 F2100.00000
G1 Z0.200 F10800.000
;AFTER_LAYER_CHANGE
;0.2
G1 Z0.400
G1 X50.902 Y36.934
G1 Z0.200
G1 E1.40000 F2100.00000
M204 S1000
G1 F600
G1 X51.814 Y35.707 E0.04792
G1 X53.034 Y34.325 E0.05780
G1 X55.408 Y32.051 E0.10309
G1 X56.882 Y30.943 E0.05781
G1 X58.760 Y29.823 E0.06858
G1 X61.459 Y28.509 E0.09411
G1 X63.555 Y27.780 E0.06958
G1 X65.513 Y27.342 E0.06290
G1 X68.906 Y26.895 E0.10732
G1 X180.010 Y26.857 E3.48357
G1 X182.116 Y26.983 E0.06616
G1 X184.724 Y27.383 E0.08271
G1 X186.436 Y27.774 E0.05507
G1 X188.049 Y28.310 E0.05332
G1 X189.638 Y29.007 E0.05438
G1 X192.354 Y30.450 E0.09642
G1 X193.745 Y31.384 E0.05256
G1 X195.203 Y32.588 E0.05926
G1 X197.103 Y34.466 E0.08377
G1 X198.192 Y35.703 E0.05169
G1 X199.152 Y37.029 E0.05132
G1 X200.174 Y38.754 E0.06287
G1 X201.268 Y40.949 E0.07689
G1 X202.031 Y42.918 E0.06623
G1 X202.529 Y44.821 E0.06166
G1 X202.996 Y47.706 E0.09165
G1 X203.142 Y49.981 E0.07149
G1 X203.131 Y160.602 E3.46841
G1 X202.993 Y162.317 E0.05397
G1 X202.615 Y164.729 E0.07654
G1 X202.281 Y166.234 E0.04835
G1 X201.861 Y167.579 E0.04417
G1 X201.226 Y169.149 E0.05309
G1 X199.990 Y171.592 E0.08586
G1 X199.126 Y173.025 E0.05247
G1 X198.186 Y174.292 E0.04947
G1 X197.233 Y175.397 E0.04575
G1 X195.729 Y176.913 E0.06694
G1 X194.125 Y178.329 E0.06709
G1 X192.083 Y179.710 E0.07729
G1 X189.656 Y180.983 E0.08593
G1 X187.700 Y181.822 E0.06673
G1 X185.654 Y182.426 E0.06690
G1 X182.499 Y182.969 E0.10036
G1 X180.439 Y183.137 E0.06480
G1 X69.369 Y183.130 E3.48254
G1 X67.644 Y182.988 E0.05426
G1 X65.148 Y182.593 E0.07925
G1 X63.592 Y182.234 E0.05004
G1 X62.160 Y181.767 E0.04724
G1 X60.616 Y181.116 E0.05253
G1 X58.330 Y179.947 E0.08052
G1 X56.935 Y179.099 E0.05117
G1 X55.709 Y178.187 E0.04792
G1 X54.602 Y177.232 E0.04585
G1 X53.104 Y175.746 E0.06613
G1 X51.680 Y174.136 E0.06739
G1 X50.291 Y172.086 E0.07764
G1 X49.025 Y169.673 E0.08545
G1 X48.180 Y167.704 E0.06717
G1 X47.574 Y165.658 E0.06693
G1 X47.030 Y162.497 E0.10057
G1 X46.864 Y160.438 E0.06476
G1 X46.870 Y49.369 E3.48249
M73 Q0 S165
M73 P0 R163
G1 X47.011 Y47.653 E0.05398
G1 X47.405 Y45.160 E0.07913
G1 X47.764 Y43.600 E0.05019
G1 X48.235 Y42.155 E0.04767
G1 X48.885 Y40.614 E0.05244
G1 X50.053 Y38.329 E0.08048
G1 X50.871 Y36.985 E0.04930
G1 X51.193 Y37.182 F10800.000
G1 F600
G1 X52.124 Y35.925 E0.04904
G1 X53.307 Y34.585 E0.05604
G1 X55.655 Y32.337 E0.10193
G1 X57.096 Y31.254 E0.05651
G1 X58.939 Y30.154 E0.06730
G1 X61.608 Y28.855 E0.09306
G1 X63.660 Y28.142 E0.06812
G1 X65.579 Y27.713 E0.06164
G1 X68.944 Y27.270 E0.10641
G1 X180.010 Y27.234 E3.48240
G1 X182.080 Y27.359 E0.06504
G1 X184.660 Y27.755 E0.08185
G1 X186.344 Y28.140 E0.05415
G1 X187.919 Y28.664 E0.05205
G1 X189.482 Y29.351 E0.05354
G1 X192.169 Y30.779 E0.09541
G1 X193.528 Y31.692 E0.05132
G1 X194.963 Y32.879 E0.05839
G1 X196.840 Y34.737 E0.08280
G1 X197.903 Y35.946 E0.05049
G1 X198.840 Y37.240 E0.05010
G1 X199.846 Y38.942 E0.06198
G1 X200.924 Y41.102 E0.07569
G1 X201.674 Y43.042 E0.06520
G1 X202.163 Y44.910 E0.06056
G1 X202.625 Y47.778 E0.09107
G1 X202.765 Y49.977 E0.06908
G1 X202.755 Y160.585 E3.46803
G1 X202.618 Y162.279 E0.05330
G1 X202.245 Y164.656 E0.07543
G1 X201.917 Y166.136 E0.04755
G1 X201.507 Y167.451 E0.04317
G1 X200.882 Y168.996 E0.05226
G1 X199.657 Y171.416 E0.08505
G1 X198.807 Y172.825 E0.05159
G1 X197.883 Y174.068 E0.04857
G1 X196.956 Y175.141 E0.04443
G1 X195.463 Y176.646 E0.06648
G1 X193.884 Y178.038 E0.06601
G1 X191.877 Y179.394 E0.07594
G1 X189.478 Y180.651 E0.08493
G1 X187.561 Y181.471 E0.06537
G1 X185.558 Y182.061 E0.06546
G1 X182.444 Y182.596 E0.09906
G1 X180.420 Y182.760 E0.06369
G1 X69.396 Y182.754 E3.48107
G1 X67.692 Y182.614 E0.05359
G1 X65.222 Y182.223 E0.07843
G1 X63.693 Y181.871 E0.04919
G1 X62.279 Y181.409 E0.04664
G1 X60.769 Y180.771 E0.05140
G1 X58.498 Y179.609 E0.07997
G1 X57.136 Y178.780 E0.05000
G1 X55.925 Y177.877 E0.04735
G1 X54.851 Y176.949 E0.04453
G1 X53.364 Y175.473 E0.06568
G1 X51.964 Y173.887 E0.06634
G1 X50.608 Y171.880 E0.07595
G1 X49.357 Y169.495 E0.08444
G1 X48.530 Y167.565 E0.06582
G1 X47.939 Y165.562 E0.06548
G1 X47.403 Y162.442 E0.09927
G1 X47.240 Y160.418 E0.06366
G1 X47.246 Y49.386 E3.48133
G1 X47.386 Y47.692 E0.05331
G1 X47.775 Y45.234 E0.07800
G1 X48.127 Y43.700 E0.04935
G1 X48.590 Y42.283 E0.04676
G1 X49.230 Y40.766 E0.05161
G1 X50.391 Y38.497 E0.07992
G1 X51.162 Y37.233 E0.04643
G1 F8640
G1 X52.124 Y35.925 E-0.37495
G1 X53.307 Y34.585 E-0.41267
G1 X55.004 Y32.961 E-0.54238
G1 E-0.07000 F2100.00000
G1 Z0.400 F10800.000
G1 X56.456 Y32.175
G1 Z0.200
G1 E1.40000 F2100.00000
G1 F600
G1 X58.359 Y30.904 E0.07175
M73 Q1 S164
M73 P1 R162
G1 X60.655 Y29.704 E0.08124
G1 X62.473 Y28.918 E0.06208
G1 X64.342 Y28.350 E0.06125
G1 X67.384 Y27.809 E0.09690
G1 X69.019 Y27.643 E0.05153
G1 X180.010 Y27.611 E3.48002
G1 X182.035 Y27.733 E0.06361
G1 X184.588 Y28.125 E0.08099
G1 X186.243 Y28.503 E0.05323
G1 X187.788 Y29.018 E0.05108
G1 X189.318 Y29.690 E0.05238
G1 X191.977 Y31.103 E0.09440
G1 X193.310 Y32.000 E0.05039
G1 X194.723 Y33.171 E0.05752
G1 X196.571 Y35.000 E0.08154
G1 X197.615 Y36.189 E0.04960
G1 X198.534 Y37.460 E0.04919
G1 X199.523 Y39.138 E0.06108
G1 X200.583 Y41.265 E0.07449
G1 X201.321 Y43.174 E0.06418
G1 X201.798 Y45.010 E0.05947
G1 X202.257 Y47.878 E0.09108
G1 X202.388 Y49.982 E0.06610
G1 X202.377 Y160.597 E3.46824
G1 X202.238 Y162.279 E0.05293
G1 X201.845 Y164.744 E0.07826
G1 X201.484 Y166.289 E0.04975
G1 X200.999 Y167.742 E0.04803
G1 X200.380 Y169.174 E0.04891
G1 X199.172 Y171.508 E0.08241
G1 X198.302 Y172.894 E0.05131
G1 X197.292 Y174.192 E0.05156
G1 X195.052 Y176.520 E0.10129
G1 X193.491 Y177.865 E0.06461
G1 X191.580 Y179.131 E0.07187
G1 X189.153 Y180.390 E0.08575
G1 X187.322 Y181.156 E0.06220
G1 X185.378 Y181.716 E0.06343
G1 X182.342 Y182.230 E0.09657
G1 X180.332 Y182.385 E0.06319
G1 X69.384 Y182.376 E3.47871
G1 X67.712 Y182.237 E0.05261
G1 X65.230 Y181.841 E0.07881
G1 X63.701 Y181.481 E0.04923
G1 X62.254 Y180.998 E0.04784
G1 X60.826 Y180.380 E0.04877
G1 X58.491 Y179.172 E0.08243
G1 X57.107 Y178.303 E0.05125
G1 X55.808 Y177.290 E0.05165
G1 X53.490 Y175.062 E0.10080
G1 X52.136 Y173.493 E0.06498
G1 X50.870 Y171.583 E0.07186
G1 X49.618 Y169.169 E0.08526
G1 X48.849 Y167.335 E0.06237
G1 X48.285 Y165.382 E0.06373
G1 X47.771 Y162.349 E0.09646
G1 X47.615 Y160.341 E0.06315
G1 X47.624 Y49.374 E3.47927
G1 X47.763 Y47.721 E0.05203
G1 X48.157 Y45.242 E0.07869
G1 X48.517 Y43.708 E0.04942
G1 X49.004 Y42.248 E0.04826
G1 X49.621 Y40.823 E0.04866
G1 X50.828 Y38.490 E0.08238
G1 X51.698 Y37.107 E0.05124
G1 X52.709 Y35.809 E0.05157
G1 X54.930 Y33.497 E0.10052
G1 X56.411 Y32.214 E0.06143
G1 F8640
G1 X58.359 Y30.904 E-0.54214
G1 X60.655 Y29.704 E-0.59824
G1 X61.409 Y29.378 E-0.18962
G1 E-0.07000 F2100.00000
G1 Z0.400 F10800.000
G1 X87.142 Y44.213
G1 Z0.200
G1 E1.40000 F2100.00000
G1 F600
G1 X162.875 Y44.213 E2.37457
M73 Q1 S163
M73 P1 R160
G1 X162.804 Y45.011 E0.02513
G1 X162.820 Y45.114 E0.00326
G1 X162.860 Y45.208 E0.00321
G1 X162.946 Y45.318 E0.00437
G1 X184.686 Y67.058 E0.96397
G1 X184.777 Y67.131 E0.00368
G1 X184.874 Y67.177 E0.00335
G1 X184.973 Y67.196 E0.00317
G1 X185.787 Y67.141 E0.02557
G1 X185.787 Y142.875 E2.37457
G1 X184.989 Y142.804 E0.02512
G1 X184.886 Y142.820 E0.00327
G1 X184.792 Y142.860 E0.00320
G1 X184.682 Y142.946 E0.00437
G1 X162.942 Y164.686 E0.96397
G1 X162.869 Y164.777 E0.00368
G1 X162.823 Y164.874 E0.00335
G1 X162.804 Y164.973 E0.00317
G1 X162.859 Y165.787 E0.02557
G1 X87.125 Y165.787 E2.37458
G1 X87.196 Y164.989 E0.02513
G1 X87.180 Y164.886 E0.00327
G1 X87.140 Y164.792 E0.00320
G1 X87.054 Y164.682 E0.00437
G1 X65.315 Y142.943 E0.96396
G1 X65.223 Y142.869 E0.00369
G1 X65.126 Y142.823 E0.00335
G1 X65.027 Y142.804 E0.00318
G1 X64.213 Y142.858 E0.02557
G1 X64.213 Y67.125 E2.37457
G1 X65.011 Y67.196 E0.02513
G1 X65.114 Y67.180 E0.00326
G1 X65.208 Y67.140 E0.00321
G1 X65.318 Y67.054 E0.00438
G1 X87.057 Y45.315 E0.96396
G1 X87.131 Y45.223 E0.00369
G1 X87.177 Y45.126 E0.00335
G1 X87.196 Y45.027 E0.00318
G1 X87.146 Y44.273 E0.02369
G1 X87.544 Y44.590 F10800.000
G1 F600
G1 X162.463 Y44.590 E2.34901
G1 X162.424 Y45.024 E0.01367
G1 X162.455 Y45.220 E0.00621
G1 X162.533 Y45.401 E0.00619
G1 X162.663 Y45.568 E0.00661
G1 X184.433 Y67.339 E0.96536
G1 X184.576 Y67.453 E0.00573
G1 X184.756 Y67.538 E0.00625
G1 X184.950 Y67.575 E0.00618
G1 X185.410 Y67.544 E0.01446
G1 X185.410 Y142.463 E2.34901
G1 X184.976 Y142.424 E0.01366
G1 X184.780 Y142.455 E0.00623
G1 X184.599 Y142.533 E0.00619
G1 X184.432 Y142.663 E0.00661
G1 X162.661 Y164.433 E0.96536
G1 X162.547 Y164.576 E0.00573
G1 X162.462 Y164.756 E0.00625
G1 X162.425 Y164.950 E0.00618
G1 X162.456 Y165.410 E0.01446
G1 X87.537 Y165.410 E2.34901
M73 Q2 S162
M73 P2 R159
G1 X87.576 Y164.976 E0.01366
G1 X87.545 Y164.780 E0.00623
G1 X87.467 Y164.599 E0.00619
G1 X87.337 Y164.432 E0.00661
G1 X65.567 Y142.661 E0.96535
G1 X65.424 Y142.547 E0.00574
G1 X65.244 Y142.462 E0.00625
G1 X65.050 Y142.425 E0.00619
G1 X64.590 Y142.456 E0.01445
G1 X64.590 Y67.537 E2.34901
G1 X65.024 Y67.576 E0.01367
G1 X65.220 Y67.545 E0.00621
G1 X65.401 Y67.467 E0.00619
G1 X65.568 Y67.337 E0.00661
G1 X87.339 Y45.567 E0.96535
G1 X87.453 Y45.424 E0.00574
G1 X87.538 Y45.244 E0.00625
G1 X87.575 Y45.050 E0.00619
G1 X87.548 Y44.650 E0.01257
G1 X87.546 Y44.190 F10800.000
G1 F8640
G1 X93.308 Y44.645 E-1.33000
G1 E-0.07000 F2100.00000
G1 Z0.400 F10800.000
G1 X74.194 Y51.269
G1 Z0.200
G1 E1.40000 F2100.00000
G1 F600
G1 X74.492 Y51.853 E0.02055
G1 X74.594 Y52.500 E0.02055
G1 X74.492 Y53.147 E0.02055
G1 X74.194 Y53.731 E0.02054
G1 X73.731 Y54.194 E0.02055
G1 X73.147 Y54.492 E0.02054
G1 X72.500 Y54.594 E0.02055
G1 X71.853 Y54.492 E0.02055
G1 X71.269 Y54.194 E0.02055
G1 X70.806 Y53.731 E0.02055
G1 X70.508 Y53.147 E0.02054
G1 X70.406 Y52.500 E0.02055
G1 X70.508 Y51.853 E0.02055
G1 X70.806 Y51.269 E0.02055
G1 X71.269 Y50.806 E0.02055
G1 X71.853 Y50.508 E0.02055
G1 X72.500 Y50.406 E0.02055
G1 X73.147 Y50.508 E0.02055
G1 X73.731 Y50.806 E0.02054
G1 X74.152 Y51.227 E0.01866
G1 X73.885 Y51.493 F10800.000
G1 F600
G1 X74.129 Y51.971 E0.01681
G1 X74.213 Y52.500 E0.01680
G1 X74.129 Y53.029 E0.01680
G1 X73.886 Y53.507 E0.01680
G1 X73.507 Y53.886 E0.01680
G1 X73.029 Y54.129 E0.01680
G1 X72.500 Y54.213 E0.01680
G1 X71.971 Y54.129 E0.01680
G1 X71.493 Y53.886 E0.01680
G1 X71.114 Y53.507 E0.01680
G1 X70.871 Y53.029 E0.01680
G1 X70.787 Y52.500 E0.01680
G1 X70.871 Y51.971 E0.01680
G1 X71.114 Y51.493 E0.01680
G1 X71.493 Y51.114 E0.01680
G1 X71.971 Y50.871 E0.01680
G1 X72.500 Y50.787 E0.01680
G1 X73.029 Y50.871 E0.01680
G1 X73.507 Y51.114 E0.01680
G1 X73.843 Y51.451 E0.01491
G1 X74.283 Y51.451 F10800.000
G1 F8640
G1 X74.129 Y51.971 E-0.13703
G1 X74.213 Y52.500 E-0.12372
G1 X74.129 Y53.029 E-0.12372
G1 X73.886 Y53.507 E-0.12372
G1 X73.507 Y53.886 E-0.12373
G1 X73.029 Y54.129 E-0.12372
G1 X72.500 Y54.213 E-0.12372
G1 X71.971 Y54.129 E-0.12372
G1 X71.493 Y53.886 E-0.12372
G1 X71.114 Y53.507 E-0.12372
G1 X70.958 Y53.200 E-0.07947
G1 E-0.07000 F2100.00000
G1 Z0.400 F10800.000
G1 X72.500 Y155.406
G1 Z0.200
G1 E1.40000 F2100.00000
G1 F600
G1 X73.147 Y155.508 E0.02053
G1 X73.731 Y155.805 E0.02055
G1 X74.194 Y156.269 E0.02055
G1 X74.492 Y156.852 E0.02054
G1 X74.594 Y157.500 E0.02056
G1 X74.492 Y158.148 E0.02056
G1 X74.194 Y158.731 E0.02054
G1 X73.731 Y159.195 E0.02055
G1 X73.147 Y159.492 E0.02055
G1 X72.500 Y159.594 E0.02053
G1 X71.853 Y159.492 E0.02053
G1 X71.269 Y159.195 E0.02056
G1 X70.806 Y158.731 E0.02055
G1 X70.508 Y158.148 E0.02054
G1 X70.406 Y157.500 E0.02056
G1 X70.508 Y156.852 E0.02056
G1 X70.806 Y156.269 E0.02054
G1 X71.269 Y155.805 E0.02055
G1 X71.853 Y155.508 E0.02056
G1 X72.441 Y155.415 E0.01865
G1 X72.499 Y155.788 F10800.000
G1 F600
G1 X73.029 Y155.871 E0.01681
G1 X73.507 Y156.114 E0.01680
G1 X73.886 Y156.493 E0.01680
G1 X74.129 Y156.970 E0.01680
G1 X74.213 Y157.500 E0.01681
G1 X74.129 Y158.030 E0.01682
G1 X73.886 Y158.507 E0.01680
G1 X73.507 Y158.886 E0.01680
G1 X73.029 Y159.129 E0.01680
G1 X72.500 Y159.213 E0.01680
G1 X71.971 Y159.129 E0.01679
G1 X71.493 Y158.886 E0.01680
G1 X71.114 Y158.507 E0.01680
G1 X70.871 Y158.030 E0.01680
G1 X70.787 Y157.500 E0.01682
G1 X70.871 Y156.970 E0.01681
G1 X71.114 Y156.493 E0.01680
G1 X71.493 Y156.114 E0.01680
G1 X71.971 Y155.871 E0.01680
G1 X72.440 Y155.797 E0.01489
G1 X72.699 Y155.441 F10800.000
G1 F8640
G1 X73.029 Y155.871 E-0.13707
G1 X73.507 Y156.114 E-0.12374
G1 X73.886 Y156.493 E-0.12375
G1 X74.129 Y156.970 E-0.12369
G1 X74.213 Y157.500 E-0.12383
G1 X74.129 Y158.030 E-0.12383
G1 X73.886 Y158.507 E-0.12369
G1 X73.507 Y158.886 E-0.12375
G1 X73.029 Y159.129 E-0.12374
G1 X72.500 Y159.213 E-0.12368
G1 X72.161 Y159.159 E-0.07922
G1 E-0.07000 F2100.00000
G1 Z0.400 F10800.000
G1 X175.406 Y157.500
G1 Z0.200
G1 E1.40000 F2100.00000
G1 F600
G1 X175.508 Y156.853 E0.02055
G1 X175.805 Y156.269 E0.02055
G1 X176.269 Y155.805 E0.02055
G1 X176.853 Y155.508 E0.02055
G1 X177.500 Y155.406 E0.02055
G1 X178.147 Y155.508 E0.02055
G1 X178.731 Y155.805 E0.02055
G1 X179.195 Y156.269 E0.02055
G1 X179.492 Y156.853 E0.02055
G1 X179.594 Y157.500 E0.02055
G1 X179.492 Y158.147 E0.02055
G1 X179.195 Y158.731 E0.02055
G1 X178.731 Y159.195 E0.02055
G1 X178.147 Y159.492 E0.02055
G1 X177.500 Y159.594 E0.02055
G1 X176.853 Y159.492 E0.02055
G1 X176.269 Y159.195 E0.02055
G1 X175.805 Y158.731 E0.02055
G1 X175.508 Y158.147 E0.02055
G1 X175.415 Y157.559 E0.01867
G1 X175.788 Y157.501 F10800.000
G1 F600
G1 X175.871 Y156.970 E0.01683
G1 X176.114 Y156.493 E0.01680
G1 X176.493 Y156.114 E0.01681
G1 X176.970 Y155.871 E0.01680
G1 X177.500 Y155.787 E0.01681
G1 X178.030 Y155.871 E0.01681
G1 X178.507 Y156.114 E0.01680
G1 X178.886 Y156.493 E0.01681
G1 X179.129 Y156.970 E0.01680
G1 X179.213 Y157.500 E0.01681
G1 X179.129 Y158.030 E0.01681
G1 X178.886 Y158.507 E0.01680
G1 X178.507 Y158.886 E0.01681
G1 X178.030 Y159.129 E0.01680
G1 X177.500 Y159.213 E0.01681
G1 X176.970 Y159.129 E0.01681
G1 X176.493 Y158.886 E0.01680
G1 X176.114 Y158.507 E0.01681
G1 X175.871 Y158.030 E0.01680
G1 X175.797 Y157.560 E0.01491
G1 X175.441 Y157.301 F10800.000
G1 F8640
G1 X175.871 Y156.970 E-0.13719
G1 X176.114 Y156.493 E-0.12372
G1 X176.493 Y156.114 E-0.12377
G1 X176.970 Y155.871 E-0.12372
G1 X177.500 Y155.787 E-0.12379
G1 X178.030 Y155.871 E-0.12379
G1 X178.507 Y156.114 E-0.12371
G1 X178.886 Y156.493 E-0.12377
G1 X179.129 Y156.970 E-0.12372
G1 X179.213 Y157.500 E-0.12379
G1 X179.159 Y157.838 E-0.07904
G1 E-0.07000 F2100.00000
G1 Z0.400 F10800.000
G1 X177.500 Y54.594
G1 Z0.200
G1 E1.40000 F2100.00000
G1 F600
G1 X176.852 Y54.492 E0.02056
G1 X176.269 Y54.194 E0.02054
G1 X175.805 Y53.731 E0.02055
G1 X175.508 Y53.147 E0.02055
G1 X175.406 Y52.500 E0.02053
