; generated by Slic3r Prusa Edition 1.41.1 on 2018-11-16 at 20:23:48

; 

; external perimeters extrusion width = 0.45mm
; perimeters extrusion width = 0.45mm
; infill extrusion width = 0.45mm
; solid infill extrusion width = 0.45mm
; top infill extrusion width = 0.40mm
; support material extrusion width = 0.35mm
; first layer extrusion width = 0.42mm

M73 P0 R242
M73 Q0 S245
M201 X1000 Y1000 Z1000 E5000 ; sets maximum accelerations, mm/sec^2
M203 X200 Y200 Z12 E120 ; sets maximum feedrates, mm/sec
M204 P1250 R1250 T1250 ; sets acceleration (P, T) and retract acceleration (R), mm/sec^2
M205 X8.00 Y8.00 Z0.40 E1.50 ; sets the jerk limits, mm/sec
M205 S0 T0 ; sets the minimum extruding and travel feed rate, mm/sec
M107
M115 U3.4.0 ; tell printer latest fw version
M83  ; extruder relative mode
M104 S140 ; set extruder to warm-up temp
M140 S80 ; set bed temp
M190 S80 ; wait for bed temp
G28 W ; home all without mesh bed level
G80 ; mesh bed leveling
M104 S245 ; set extruder temp
M109 S245 ; wait for extruder temp
G1 Y-3.0 F1000.0 ; go outside print area
G92 E0.0
G1 X60.0 E9.0  F1000.0 ; intro line
M73 Q0 S245
M73 P0 R242
G1 X100.0 E12.5  F1000.0 ; intro line
G92 E0.0
M221 S95
M900 K45; Filament gcode
G21 ; set units to millimeters
G90 ; use absolute coordinates
M83 ; use relative distances for extrusion
;BEFORE_LAYER_CHANGE
G92 E0.0
;0.3


G1 E-0.80000 F2100.00000
G1 Z0.600 F10800.000
;AFTER_LAYER_CHANGE
;0.3
G1 X60.464 Y43.165
G1 Z0.300
G1 E0.80000 F2100.00000
M204 S20
G1 F1800
G1 X61.182 Y42.312 E0.04947
G1 X62.402 Y41.095 E0.07643
G1 X63.098 Y40.513 E0.04026
G1 X63.878 Y40.022 E0.04084
G1 X65.469 Y39.210 E0.07923
G1 X66.745 Y38.734 E0.06044
G1 X69.265 Y38.311 E0.11333
G1 X80.324 Y37.562 E0.49163
G1 X158.822 Y37.554 E3.48179
G1 X173.266 Y37.720 E0.64070
G1 X180.812 Y38.318 E0.33575
G1 X183.412 Y38.775 E0.11706
G1 X184.513 Y39.201 E0.05239
G1 X186.665 Y40.346 E0.10812
G1 X187.552 Y41.051 E0.05025
G1 X188.851 Y42.345 E0.08133
G1 X189.440 Y43.033 E0.04015
G1 X189.983 Y43.892 E0.04510
G1 X190.863 Y45.626 E0.08626
G1 X191.302 Y46.885 E0.05913
G1 X191.663 Y49.029 E0.09644
G1 X191.733 Y49.982 E0.04238
G1 X191.733 Y160.042 E4.88170
G1 X191.669 Y160.929 E0.03943
G1 X190.997 Y165.683 E0.21294
G1 X190.705 Y166.603 E0.04285
G1 X190.227 Y167.437 E0.04262
G1 X187.343 Y170.529 E0.18756
G1 X186.439 Y171.122 E0.04795
G1 X185.426 Y171.484 E0.04772
G1 X184.671 Y171.589 E0.03379
G1 X168.141 Y172.445 E0.73420
G1 X82.588 Y172.444 E3.79465
G1 X68.988 Y171.657 E0.60426
G1 X67.173 Y171.363 E0.08153
G1 X66.030 Y171.034 E0.05278
G1 X63.963 Y170.023 E0.10207
G1 X63.164 Y169.536 E0.04150
G1 X62.402 Y168.906 E0.04383
G1 X61.049 Y167.549 E0.08502
G1 X60.517 Y166.907 E0.03694
G1 X59.983 Y166.045 E0.04498
G1 X59.150 Y164.403 E0.08170
G1 X58.743 Y163.286 E0.05270
G1 X58.344 Y161.017 E0.10221
G1 X58.269 Y160.115 E0.04012
G1 X58.267 Y49.916 E4.88788
G1 X58.594 Y47.402 E0.11246
G1 X58.817 Y46.455 E0.04315
G1 X59.228 Y45.432 E0.04888
G1 X60.435 Y43.218 E0.11185
M204 S1000
G1 X60.746 Y43.387 F10800.000
M204 S20
G1 F1800
G1 X61.435 Y42.562 E0.04768
G1 X62.642 Y41.357 E0.07564
G1 X63.306 Y40.801 E0.03843
G1 X64.054 Y40.331 E0.03918
G1 X65.627 Y39.528 E0.07834
G1 X66.853 Y39.073 E0.05799
G1 X69.298 Y38.665 E0.10995
G1 X80.351 Y37.916 E0.49137
G1 X158.822 Y37.910 E3.48058
G1 X173.245 Y38.075 E0.63978
G1 X180.775 Y38.672 E0.33502
G1 X183.294 Y39.112 E0.11344
G1 X184.360 Y39.522 E0.05067
G1 X186.468 Y40.643 E0.10589
G1 X187.318 Y41.320 E0.04820
G1 X188.594 Y42.591 E0.07990
G1 X189.156 Y43.247 E0.03830
G1 X189.674 Y44.067 E0.04302
G1 X190.539 Y45.774 E0.08490
G1 X190.963 Y46.996 E0.05735
G1 X191.311 Y49.081 E0.09378
G1 X191.378 Y49.986 E0.04023
G1 X191.378 Y160.035 E4.88121
G1 X190.652 Y165.598 E0.24880
G1 X190.382 Y166.453 E0.03979
G1 X189.936 Y167.232 E0.03979
G1 X187.125 Y170.248 E0.18289
G1 X186.284 Y170.803 E0.04469
G1 X185.329 Y171.141 E0.04491
G1 X184.650 Y171.234 E0.03043
G1 X168.128 Y172.089 E0.73379
G1 X82.604 Y172.088 E3.79344
G1 X69.048 Y171.306 E0.60224
G1 X67.253 Y171.017 E0.08066
G1 X66.156 Y170.701 E0.05063
G1 X64.126 Y169.707 E0.10027
G1 X63.367 Y169.244 E0.03941
G1 X62.641 Y168.643 E0.04181
G1 X61.313 Y167.311 E0.08344
G1 X60.809 Y166.704 E0.03500
G1 X60.298 Y165.881 E0.04291
G1 X59.475 Y164.258 E0.08073
G1 X59.085 Y163.186 E0.05061
G1 X58.695 Y160.963 E0.10012
G1 X58.624 Y160.103 E0.03827
G1 X58.623 Y49.924 E4.88695
G1 X58.945 Y47.457 E0.11036
G1 X59.156 Y46.563 E0.04074
G1 X59.546 Y45.592 E0.04642
G1 X60.717 Y43.440 E0.10869
M204 S1000
; PURGING FINISHED
G1 F8640
G1 X61.435 Y42.562 E-0.26179
G1 X62.642 Y41.357 E-0.39379
G1 X62.989 Y41.067 E-0.10442
G1 E-0.04000 F2100.00000
G1 Z0.900 F10800.000
G1 X65.645 Y47.643
G1 Z0.300
G1 E0.80000 F2100.00000
M204 S20
G1 F1800
G1 X65.645 Y70.907 E1.03188
G1 X66.356 Y70.907 E0.03155
G1 X66.356 Y46.869 E1.06619
G1 X66.533 Y46.692 E0.01110
G1 X66.692 Y46.692 E0.00704
G1 X66.692 Y46.533 E0.00704
G1 X67.067 Y46.158 E0.02355
G1 X67.067 Y70.907 E1.09774
G1 X67.779 Y70.907 E0.03155
G1 X67.779 Y45.755 E1.11559
G1 X68.490 Y45.395 E0.03535
G1 X68.490 Y70.907 E1.13155
G1 X69.201 Y70.907 E0.03155
G1 X69.201 Y45.276 E1.13684
G1 X69.912 Y45.164 E0.03194
G1 X69.912 Y70.907 E1.14183
G1 X70.336 Y70.907 E0.01880
G1 X70.336 Y68.621 E0.10138
G1 X70.624 Y68.621 E0.01275
G1 X70.624 Y45.148 E1.04115
G1 X71.335 Y45.148 E0.03155
G1 X71.335 Y68.621 E1.04115
G1 X72.046 Y68.621 E0.03155
G1 X72.046 Y45.148 E1.04115
G1 X72.757 Y45.148 E0.03155
G1 X72.757 Y66.335 E0.93978
G1 X73.469 Y66.335 E0.03155
G1 X73.469 Y45.148 E0.93978
G1 X74.180 Y45.148 E0.03155
G1 X74.180 Y66.335 E0.93978
M73 Q0 S244
M73 P0 R241
G1 X74.891 Y66.335 E0.03155
G1 X74.891 Y45.148 E0.93978
G1 X75.602 Y45.148 E0.03155
G1 X75.602 Y66.335 E0.93978
G1 X75.834 Y66.335 E0.01030
G1 X75.834 Y68.621 E0.10138
G1 X76.314 Y68.621 E0.02125
G1 X76.314 Y45.148 E1.04115
G1 X77.025 Y45.148 E0.03155
G1 X77.025 Y68.621 E1.04115
G1 X77.736 Y68.621 E0.03155
G1 X77.736 Y45.148 E1.04115
G1 X78.447 Y45.148 E0.03155
G1 X78.447 Y70.907 E1.14253
G1 X79.158 Y70.907 E0.03155
G1 X79.158 Y45.148 E1.14253
G1 X79.870 Y45.148 E0.03155
G1 X79.870 Y70.907 E1.14253
G1 X80.581 Y70.907 E0.03155
G1 X80.581 Y45.148 E1.14253
G1 X81.292 Y45.148 E0.03155
G1 X81.292 Y70.907 E1.14253
G1 X82.003 Y70.907 E0.03155
G1 X82.003 Y45.148 E1.14253
G1 X82.715 Y45.148 E0.03155
G1 X82.715 Y73.192 E1.24391
G1 X83.426 Y73.192 E0.03155
G1 X83.426 Y45.148 E1.24391
G1 X84.137 Y45.148 E0.03155
G1 X84.137 Y73.192 E1.24391
G1 X84.848 Y73.192 E0.03155
G1 X84.848 Y45.148 E1.24391
G1 X85.560 Y45.148 E0.03155
G1 X85.560 Y75.638 E1.35239
M204 S1000
G1 X94.806 Y75.638 F10800.000
M204 S20
G1 F1800
G1 X94.806 Y64.977 E0.47287
G1 X94.094 Y64.977 E0.03155
G1 X94.094 Y75.478 E0.46577
G1 X93.383 Y75.478 E0.03155
G1 X93.383 Y64.977 E0.46577
G1 X93.192 Y64.977 E0.00847
G1 X93.192 Y62.691 E0.10138
G1 X92.672 Y62.691 E0.02308
G1 X92.672 Y75.478 E0.56715
G1 X91.961 Y75.478 E0.03155
G1 X91.961 Y62.691 E0.56715
G1 X91.250 Y62.691 E0.03155
G1 X91.250 Y75.478 E0.56715
G1 X90.538 Y75.478 E0.03155
G1 X90.538 Y58.120 E0.76991
G1 X89.827 Y58.120 E0.03155
G1 X89.827 Y75.478 E0.76991
G1 X89.116 Y75.478 E0.03155
G1 X89.116 Y58.120 E0.76991
G1 X88.621 Y58.120 E0.02194
G1 X88.621 Y55.834 E0.10138
G1 X88.405 Y55.834 E0.00960
G1 X88.405 Y75.478 E0.87129
G1 X87.693 Y75.478 E0.03155
G1 X87.693 Y55.834 E0.87129
G1 X86.982 Y55.834 E0.03155
G1 X86.982 Y75.478 E0.87129
G1 X86.271 Y75.478 E0.03155
G1 X86.271 Y45.148 E1.34529
G1 X86.982 Y45.148 E0.03155
G1 X86.982 Y52.622 E0.33151
G1 X87.693 Y52.622 E0.03155
G1 X87.693 Y45.148 E0.33151
G1 X88.405 Y45.148 E0.03155
G1 X88.405 Y52.622 E0.33151
G1 X88.621 Y52.622 E0.00960
G1 X88.621 Y50.336 E0.10138
G1 X89.116 Y50.336 E0.02194
G1 X89.116 Y45.148 E0.23013
G1 X89.827 Y45.148 E0.03155
G1 X89.827 Y50.336 E0.23013
G1 X90.538 Y50.336 E0.03155
G1 X90.538 Y44.988 E0.23723
M204 S1000
G1 F8640
G1 X90.538 Y48.279 E-0.76000
G1 E-0.04000 F2100.00000
G1 Z0.900 F10800.000
G1 X90.538 Y42.612
G1 Z0.300
G1 E0.80000 F2100.00000
M204 S20
G1 F1800
G1 X90.538 Y42.248 E0.01616
G1 X89.827 Y42.248 E0.03155
G1 X89.827 Y42.452 E0.00906
G1 X89.116 Y42.452 E0.03155
G1 X89.116 Y42.248 E0.00906
G1 X88.405 Y42.248 E0.03155
G1 X88.405 Y42.452 E0.00906
G1 X87.693 Y42.452 E0.03155
G1 X87.693 Y42.248 E0.00906
G1 X86.982 Y42.248 E0.03155
G1 X86.982 Y42.452 E0.00906
G1 X86.271 Y42.452 E0.03155
G1 X86.271 Y42.248 E0.00906
G1 X85.560 Y42.248 E0.03155
G1 X85.560 Y42.452 E0.00906
G1 X84.848 Y42.452 E0.03155
G1 X84.848 Y42.248 E0.00906
G1 X84.137 Y42.248 E0.03155
G1 X84.137 Y42.452 E0.00906
G1 X83.426 Y42.452 E0.03155
G1 X83.426 Y42.248 E0.00906
G1 X82.715 Y42.248 E0.03155
G1 X82.715 Y42.452 E0.00906
G1 X82.003 Y42.452 E0.03155
G1 X82.003 Y42.248 E0.00906
G1 X81.292 Y42.248 E0.03155
G1 X81.292 Y42.452 E0.00906
G1 X80.581 Y42.452 E0.03155
G1 X80.581 Y42.088 E0.01616
M204 S1000
G1 F8640
G1 X80.581 Y42.452 E-0.08412
G1 X81.292 Y42.452 E-0.16423
G1 X81.292 Y42.248 E-0.04717
G1 X82.003 Y42.248 E-0.16423
G1 X82.003 Y42.452 E-0.04717
G1 X82.715 Y42.452 E-0.16423
G1 X82.715 Y42.248 E-0.04717
G1 X82.895 Y42.248 E-0.04169
G1 E-0.04000 F2100.00000
G1 Z0.900 F10800.000
G1 X158.817 Y42.088
G1 Z0.300
G1 E0.80000 F2100.00000
M204 S20
G1 F1800
G1 X158.817 Y42.452 E0.01616
G1 X159.528 Y42.452 E0.03155
G1 X159.528 Y42.248 E0.00906
G1 X160.240 Y42.248 E0.03155
G1 X160.240 Y42.452 E0.00906
G1 X160.951 Y42.452 E0.03155
G1 X160.951 Y42.248 E0.00906
G1 X161.662 Y42.248 E0.03155
G1 X161.662 Y42.452 E0.00906
G1 X162.373 Y42.452 E0.03155
G1 X162.373 Y42.248 E0.00906
G1 X163.085 Y42.248 E0.03155
G1 X163.085 Y42.452 E0.00906
G1 X163.796 Y42.452 E0.03155
G1 X163.796 Y42.248 E0.00906
G1 X164.507 Y42.248 E0.03155
G1 X164.507 Y42.452 E0.00906
G1 X165.218 Y42.452 E0.03155
G1 X165.218 Y42.248 E0.00906
G1 X165.930 Y42.248 E0.03155
G1 X165.930 Y42.452 E0.00906
G1 X166.641 Y42.452 E0.03155
G1 X166.641 Y42.248 E0.00906
G1 X167.352 Y42.248 E0.03155
G1 X167.352 Y42.452 E0.00906
G1 X168.063 Y42.452 E0.03155
G1 X168.063 Y42.248 E0.00906
G1 X168.774 Y42.248 E0.03155
G1 X168.774 Y42.452 E0.00906
G1 X169.486 Y42.452 E0.03155
G1 X169.486 Y42.248 E0.00906
G1 X170.197 Y42.248 E0.03155
G1 X170.197 Y42.452 E0.00906
G1 X170.908 Y42.452 E0.03155
G1 X170.908 Y42.248 E0.00906
G1 X171.619 Y42.248 E0.03155
G1 X171.619 Y42.452 E0.00906
G1 X172.331 Y42.452 E0.03155
G1 X172.331 Y42.248 E0.00906
G1 X173.042 Y42.248 E0.03155
G1 X173.042 Y42.612 E0.01616
M204 S1000
G1 F8640
G1 X173.042 Y42.248 E-0.08412
G1 X172.331 Y42.248 E-0.16423
G1 X172.331 Y42.452 E-0.04717
G1 X171.619 Y42.452 E-0.16423
G1 X171.619 Y42.248 E-0.04717
G1 X170.908 Y42.248 E-0.16423
G1 X170.908 Y42.452 E-0.04717
G1 X170.728 Y42.452 E-0.04170
G1 E-0.04000 F2100.00000
G1 Z0.900 F10800.000
G1 X158.817 Y44.988
G1 Z0.300
G1 E0.80000 F2100.00000
M204 S20
G1 F1800
G1 X158.817 Y50.336 E0.23723
G1 X159.528 Y50.336 E0.03155
G1 X159.528 Y45.148 E0.23013
G1 X160.240 Y45.148 E0.03155
G1 X160.240 Y50.336 E0.23013
G1 X160.402 Y50.336 E0.00722
G1 X160.402 Y52.622 E0.10138
G1 X160.951 Y52.622 E0.02433
G1 X160.951 Y45.148 E0.33151
G1 X161.662 Y45.148 E0.03155
G1 X161.662 Y52.622 E0.33151
G1 X162.373 Y52.622 E0.03155
G1 X162.373 Y45.148 E0.33151
G1 X163.085 Y45.148 E0.03155
G1 X163.085 Y54.907 E0.43288
G1 X163.796 Y54.907 E0.03155
G1 X163.796 Y45.148 E0.43288
M73 Q0 S243
M73 P0 R240
G1 X164.507 Y45.148 E0.03155
G1 X164.507 Y55.067 E0.43998
M204 S1000
G1 F8640
G1 X164.507 Y51.776 E-0.76000
G1 E-0.04000 F2100.00000
G1 Z0.900 F10800.000
G1 X153.838 Y73.352
G1 Z0.300
G1 E0.80000 F2100.00000
M204 S20
G1 F1800
G1 X153.838 Y64.977 E0.37149
G1 X154.550 Y64.977 E0.03155
G1 X154.550 Y73.192 E0.36440
G1 X155.261 Y73.192 E0.03155
G1 X155.261 Y64.977 E0.36440
G1 X155.831 Y64.977 E0.02529
G1 X155.831 Y62.691 E0.10138
G1 X155.972 Y62.691 E0.00626
G1 X155.972 Y75.478 E0.56715
G1 X156.683 Y75.478 E0.03155
G1 X156.683 Y62.691 E0.56715
G1 X157.395 Y62.691 E0.03155
G1 X157.395 Y75.478 E0.56715
G1 X158.106 Y75.478 E0.03155
G1 X158.117 Y60.406 E0.66853
G1 X158.817 Y60.406 E0.03107
G1 X158.817 Y75.478 E0.66853
G1 X159.528 Y75.478 E0.03155
G1 X159.528 Y60.406 E0.66853
G1 X160.240 Y60.406 E0.03155
G1 X160.240 Y75.478 E0.66853
G1 X160.951 Y75.478 E0.03155
G1 X160.951 Y58.120 E0.76991
G1 X161.662 Y58.120 E0.03155
G1 X161.662 Y75.478 E0.76991
G1 X162.373 Y75.478 E0.03155
G1 X162.373 Y58.120 E0.76991
G1 X162.688 Y58.120 E0.01395
G1 X162.688 Y55.834 E0.10138
G1 X163.085 Y55.834 E0.01759
G1 X163.085 Y75.478 E0.87129
G1 X163.796 Y75.478 E0.03155
G1 X163.796 Y55.834 E0.87129
G1 X164.507 Y55.834 E0.03155
G1 X164.507 Y75.478 E0.87129
G1 X165.218 Y75.478 E0.03155
G1 X165.218 Y45.148 E1.34529
G1 X165.930 Y45.148 E0.03155
G1 X165.930 Y75.478 E1.34529
G1 X166.332 Y75.478 E0.01786
G1 X166.332 Y73.192 E0.10138
G1 X166.641 Y73.192 E0.01369
G1 X166.641 Y45.148 E1.24391
G1 X167.352 Y45.148 E0.03155
G1 X167.352 Y73.192 E1.24391
G1 X168.063 Y73.192 E0.03155
G1 X168.063 Y45.148 E1.24391
G1 X168.774 Y45.148 E0.03155
G1 X168.774 Y70.907 E1.14253
G1 X169.486 Y70.907 E0.03155
G1 X169.486 Y45.148 E1.14253
G1 X170.197 Y45.148 E0.03155
G1 X170.197 Y70.907 E1.14253
G1 X170.903 Y70.907 E0.03133
G1 X170.908 Y45.148 E1.14253
G1 X171.619 Y45.148 E0.03155
G1 X171.619 Y68.621 E1.04115
G1 X172.331 Y68.621 E0.03155
G1 X172.331 Y45.148 E1.04115
G1 X173.042 Y45.148 E0.03155
G1 X173.042 Y68.621 E1.04115
G1 X173.189 Y68.621 E0.00653
G1 X173.189 Y66.335 E0.10138
G1 X173.753 Y66.335 E0.02502
G1 X173.753 Y45.148 E0.93978
G1 X174.464 Y45.148 E0.03155
G1 X174.464 Y66.335 E0.93978
G1 X175.176 Y66.335 E0.03155
G1 X175.176 Y45.148 E0.93978
G1 X175.887 Y45.148 E0.03155
G1 X175.887 Y66.335 E0.93978
G1 X176.402 Y66.335 E0.02283
G1 X176.402 Y68.621 E0.10138
G1 X176.598 Y68.621 E0.00871
G1 X176.598 Y45.148 E1.04115
G1 X177.309 Y45.148 E0.03155
G1 X177.309 Y68.621 E1.04115
G1 X178.021 Y68.621 E0.03155
G1 X178.021 Y45.148 E1.04115
G1 X178.732 Y45.148 E0.03155
G1 X178.732 Y70.907 E1.14253
G1 X179.443 Y70.907 E0.03155
G1 X179.443 Y45.148 E1.14253
G1 X179.907 Y45.148 E0.02060
G1 X180.154 Y45.174 E0.01101
G1 X180.154 Y70.907 E1.14137
G1 X180.866 Y70.907 E0.03155
G1 X180.866 Y45.287 E1.13637
G1 X181.449 Y45.379 E0.02620
G1 X181.577 Y45.427 E0.00605
G1 X181.577 Y70.907 E1.13015
M73 Q1 S242
M73 P1 R239
G1 X182.288 Y70.907 E0.03155
G1 X182.288 Y45.789 E1.11408
G1 X182.821 Y46.062 E0.02657
G1 X182.999 Y46.224 E0.01068
G1 X182.999 Y70.907 E1.09479
G1 X183.710 Y70.907 E0.03155
G1 X183.710 Y46.936 E1.06324
G1 X183.900 Y47.127 E0.01194
G1 X183.964 Y47.227 E0.00526
G1 X184.422 Y48.126 E0.04476
G1 X184.422 Y71.067 E1.01754
M204 S1000
G1 F8640
G1 X184.422 Y67.775 E-0.76000
G1 E-0.04000 F2100.00000
G1 Z0.900 F10800.000
G1 X153.838 Y144.207
G1 Z0.300
G1 E0.80000 F2100.00000
M204 S20
G1 F1800
G1 X153.838 Y135.831 E0.37149
G1 X154.550 Y135.831 E0.03155
G1 X154.550 Y144.047 E0.36440
G1 X155.261 Y144.047 E0.03155
G1 X155.261 Y135.831 E0.36440
G1 X155.831 Y135.831 E0.02529
G1 X155.831 Y133.545 E0.10138
G1 X155.972 Y133.545 E0.00626
G1 X155.972 Y146.332 E0.56715
G1 X156.683 Y146.332 E0.03155
G1 X156.683 Y133.545 E0.56715
G1 X157.395 Y133.545 E0.03155
G1 X157.395 Y146.332 E0.56715
G1 X158.106 Y146.332 E0.03155
G1 X158.106 Y133.545 E0.56715
G1 X158.817 Y133.545 E0.03155
G1 X158.817 Y148.618 E0.66853
G1 X159.528 Y148.618 E0.03155
G1 X159.528 Y133.545 E0.66853
G1 X160.240 Y133.545 E0.03155
G1 X160.240 Y148.618 E0.66853
G1 X160.402 Y148.618 E0.00722
G1 X160.402 Y153.189 E0.20276
G1 X160.951 Y153.189 E0.02433
G1 X160.951 Y133.545 E0.87129
G1 X161.662 Y133.545 E0.03155
G1 X161.662 Y153.189 E0.87129
G1 X162.373 Y153.189 E0.03155
G1 X162.373 Y133.545 E0.87129
G1 X163.085 Y133.545 E0.03155
G1 X163.085 Y155.475 E0.97266
G1 X163.796 Y155.475 E0.03155
G1 X163.796 Y133.545 E0.97266
G1 X164.047 Y133.545 E0.01112
G1 X164.047 Y135.831 E0.10138
G1 X164.507 Y135.831 E0.02043
G1 X164.507 Y155.635 E0.87838
M204 S1000
G1 F8640
G1 X164.507 Y152.343 E-0.76000
G1 E-0.04000 F2100.00000
G1 Z0.900 F10800.000
G1 X158.817 Y160.813
G1 Z0.300
G1 E0.80000 F2100.00000
M204 S20
G1 F1800
G1 X158.817 Y164.852 E0.17916
G1 X159.528 Y164.852 E0.03155
G1 X159.528 Y160.973 E0.17207
