; generated by Slic3r Prusa Edition 1.41.1 on 2018-11-14 at 21:54:38

; 

; external perimeters extrusion width = 0.45mm
; perimeters extrusion width = 0.45mm
; infill extrusion width = 0.45mm
; solid infill extrusion width = 0.45mm
; top infill extrusion width = 0.40mm
; first layer extrusion width = 0.42mm

M73 P0 R33
M73 Q0 S34
M201 X1000 Y1000 Z1000 E5000 ; sets maximum accelerations, mm/sec^2
M203 X200 Y200 Z12 E120 ; sets maximum feedrates, mm/sec
M204 P1250 R1250 T1250 ; sets acceleration (P, T) and retract acceleration (R), mm/sec^2
M205 X8.00 Y8.00 Z0.40 E1.50 ; sets the jerk limits, mm/sec
M205 S0 T0 ; sets the minimum extruding and travel feed rate, mm/sec
M107
M115 U3.4.0 ; tell printer latest fw version
M83  ; extruder relative mode
M104 S140 ; set extruder to warm-up temp
M140 S80 ; set bed temp
M190 S80 ; wait for bed temp
G28 W ; home all without mesh bed level
G80 ; mesh bed leveling
M104 S245 ; set extruder temp
M109 S245 ; wait for extruder temp
G1 Y-3.0 F1000.0 ; go outside print area
G92 E0.0
G1 X60.0 E9.0  F1000.0 ; intro line
M73 Q0 S34
M73 P0 R33
G1 X100.0 E12.5  F1000.0 ; intro line
G92 E0.0
M221 S95
M900 K45; Filament gcode
G21 ; set units to millimeters
G90 ; use absolute coordinates
M83 ; use relative distances for extrusion
;BEFORE_LAYER_CHANGE
G92 E0.0
;0.3


G1 E-0.80000 F2100.00000
G1 Z0.600 F10800.000
;AFTER_LAYER_CHANGE
;0.3
G1 X72.721 Y52.407
G1 Z0.300
G1 E0.80000 F2100.00000
M204 S20
G1 F1800
G1 X73.376 Y51.704 E0.04262
G1 X74.163 Y51.154 E0.04262
G1 X75.049 Y50.782 E0.04262
G1 X114.105 Y40.681 E1.78932
G1 X114.978 Y40.592 E0.03890
G1 X135.005 Y40.592 E0.88831
G1 X136.119 Y40.732 E0.04980
G1 X174.968 Y50.787 E1.77991
G1 X175.948 Y51.217 E0.04749
G1 X176.801 Y51.865 E0.04749
G1 X177.477 Y52.695 E0.04749
G1 X177.940 Y53.660 E0.04749
G1 X178.122 Y54.378 E0.03286
G1 X178.183 Y55.117 E0.03286
G1 X178.183 Y162.886 E4.78006
G1 X177.993 Y164.404 E0.06789
G1 X177.669 Y165.392 E0.04609
G1 X177.192 Y166.321 E0.04631
G1 X176.804 Y166.889 E0.03053
G1 X175.947 Y167.781 E0.05486
G1 X175.387 Y168.233 E0.03193
G1 X173.680 Y169.085 E0.08461
G1 X171.805 Y169.406 E0.08436
G1 X78.324 Y169.408 E4.14636
G1 X76.815 Y169.217 E0.06746
G1 X75.833 Y168.893 E0.04586
G1 X74.904 Y168.417 E0.04629
G1 X74.336 Y168.028 E0.03053
G1 X73.444 Y167.172 E0.05487
G1 X72.988 Y166.607 E0.03216
G1 X72.136 Y164.894 E0.08485
G1 X71.819 Y163.014 E0.08459
G1 X71.817 Y55.109 E4.78609
G1 X71.923 Y54.149 E0.04285
G1 X72.232 Y53.228 E0.04308
G1 X72.691 Y52.459 E0.03972
M204 S1000
G1 X72.995 Y52.641 F10800.000
M204 S20
G1 F1800
G1 X73.615 Y51.967 E0.04060
G1 X74.343 Y51.461 E0.03935
G1 X75.162 Y51.120 E0.03935
G1 X114.185 Y41.027 E1.78781
G1 X114.982 Y40.947 E0.03556
G1 X135.005 Y40.947 E0.88810
G1 X136.034 Y41.077 E0.04602
G1 X174.852 Y51.124 E1.77848
G1 X175.758 Y51.518 E0.04380
G1 X176.549 Y52.117 E0.04402
G1 X177.177 Y52.885 E0.04402
G1 X177.604 Y53.776 E0.04380
G1 X177.771 Y54.436 E0.03020
G1 X177.828 Y55.114 E0.03020
G1 X177.828 Y162.885 E4.78015
G1 X177.645 Y164.330 E0.06462
G1 X177.345 Y165.245 E0.04268
G1 X176.529 Y166.662 E0.07255
G1 X175.706 Y167.519 E0.05269
G1 X175.189 Y167.938 E0.02953
G1 X173.568 Y168.747 E0.08036
G1 X171.787 Y169.051 E0.08013
G1 X78.330 Y169.053 E4.14527
G1 X76.889 Y168.869 E0.06443
G1 X75.980 Y168.570 E0.04246
G1 X74.562 Y167.754 E0.07253
G1 X73.705 Y166.931 E0.05270
G1 X73.283 Y166.409 E0.02976
G1 X72.476 Y164.787 E0.08037
G1 X72.174 Y163.001 E0.08035
G1 X72.172 Y55.110 E4.78549
G1 X72.271 Y54.223 E0.03957
G1 X72.557 Y53.373 E0.03979
G1 X72.964 Y52.692 E0.03518
M204 S1000
; PURGING FINISHED
G1 F8640
G1 X73.615 Y51.967 E-0.22492
G1 X74.343 Y51.461 E-0.20483
G1 X75.162 Y51.120 E-0.20483
G1 X75.688 Y50.984 E-0.12542
G1 E-0.04000 F2100.00000
G1 Z0.900 F10800.000
G1 X77.684 Y66.709
G1 Z0.300
G1 E0.80000 F2100.00000
M204 S20
G1 F1800
G1 X172.316 Y66.709 E4.19735
G1 X172.316 Y162.771 E4.26078
G1 X172.210 Y163.433 E0.02976
G1 X171.546 Y163.541 E0.02984
G1 X78.454 Y163.541 E4.12908
G1 X77.790 Y163.433 E0.02983
G1 X77.684 Y162.771 E0.02975
G1 X77.684 Y66.769 E4.25812
M204 S1000
G1 X78.040 Y67.065 F10800.000
M204 S20
G1 F1800
G1 X171.960 Y67.065 E4.16580
G1 X171.960 Y162.743 E4.24376
G1 X171.899 Y163.123 E0.01710
G1 X171.517 Y163.185 E0.01716
G1 X78.483 Y163.185 E4.12655
M73 Q3 S33
M73 P3 R32
G1 X78.101 Y163.123 E0.01716
G1 X78.040 Y162.743 E0.01710
G1 X78.040 Y67.125 E4.24110
M204 S1000
G1 X78.040 Y66.665 F10800.000
G1 F8640
G1 X81.331 Y67.123 E-0.76000
G1 E-0.04000 F2100.00000
G1 Z0.900 F10800.000
G1 X134.334 Y55.791
G1 Z0.300
G1 E0.80000 F2100.00000
M204 S20
G1 F1800
G1 X172.984 Y55.791 E1.71431
G1 X172.984 Y162.823 E4.74738
G1 X172.911 Y163.285 E0.02076
G1 X172.723 Y163.655 E0.01841
G1 X172.430 Y163.948 E0.01838
G1 X172.060 Y164.136 E0.01841
G1 X171.598 Y164.209 E0.02076
G1 X78.402 Y164.209 E4.13365
G1 X77.940 Y164.136 E0.02076
G1 X77.570 Y163.948 E0.01841
G1 X77.277 Y163.655 E0.01838
G1 X77.089 Y163.285 E0.01841
G1 X77.016 Y162.823 E0.02076
G1 X77.016 Y55.791 E4.74738
G1 X115.666 Y55.791 E1.71431
G1 X115.666 Y45.791 E0.44355
G1 X134.334 Y45.791 E0.82805
G1 X134.334 Y55.731 E0.44089
M204 S1000
G1 X134.690 Y55.435 F10800.000
M204 S20
G1 F1800
G1 X173.340 Y55.435 E1.71431
G1 X173.340 Y162.851 E4.76440
G1 X173.254 Y163.396 E0.02450
G1 X173.014 Y163.866 E0.02341
G1 X172.641 Y164.239 E0.02338
G1 X172.171 Y164.479 E0.02340
G1 X171.626 Y164.565 E0.02449
G1 X78.374 Y164.565 E4.13614
G1 X77.829 Y164.479 E0.02450
G1 X77.359 Y164.239 E0.02340
G1 X76.986 Y163.866 E0.02338
G1 X76.746 Y163.396 E0.02341
G1 X76.660 Y162.851 E0.02450
G1 X76.660 Y55.435 E4.76440
G1 X115.310 Y55.435 E1.71431
G1 X115.310 Y45.435 E0.44355
G1 X134.690 Y45.435 E0.85960
G1 X134.690 Y55.375 E0.44089
M204 S1000
G1 X134.833 Y55.809 F10800.000
G1 F8640
G1 X137.981 Y55.380 E-0.76000
G1 E-0.04000 F2100.00000
G1 Z0.900 F10800.000
G1 X134.228 Y46.699
G1 Z0.300
G1 E0.80000 F2100.00000
M204 S20
G1 F1800
G1 X133.586 Y46.057 E0.04031
G1 X133.082 Y46.057 E0.02241
G1 X134.068 Y47.043 E0.06194
G1 X134.068 Y47.547 E0.02241
G1 X132.578 Y46.057 E0.09363
G1 X132.074 Y46.057 E0.02241
G1 X134.068 Y48.051 E0.12532
G1 X134.068 Y48.555 E0.02241
G1 X131.570 Y46.057 E0.15700
G1 X131.066 Y46.057 E0.02241
G1 X134.068 Y49.059 E0.18869
G1 X134.068 Y49.563 E0.02241
G1 X130.562 Y46.057 E0.22038
G1 X130.058 Y46.057 E0.02241
G1 X134.068 Y50.067 E0.25207
G1 X134.068 Y50.571 E0.02241
G1 X129.554 Y46.057 E0.28376
G1 X129.050 Y46.057 E0.02241
G1 X134.068 Y51.075 E0.31545
G1 X134.068 Y51.579 E0.02241
G1 X128.546 Y46.057 E0.34713
G1 X128.042 Y46.057 E0.02241
G1 X134.068 Y52.083 E0.37882
G1 X134.068 Y52.587 E0.02241
G1 X127.538 Y46.057 E0.41051
G1 X127.034 Y46.057 E0.02241
G1 X134.068 Y53.091 E0.44220
G1 X134.068 Y53.595 E0.02241
G1 X126.530 Y46.057 E0.47389
G1 X126.026 Y46.057 E0.02241
G1 X134.068 Y54.099 E0.50557
G1 X134.068 Y54.603 E0.02241
G1 X125.522 Y46.057 E0.53726
G1 X125.018 Y46.057 E0.02241
G1 X134.068 Y55.107 E0.56895
G1 X134.068 Y55.611 E0.02241
G1 X124.514 Y46.057 E0.60064
G1 X124.010 Y46.057 E0.02241
G1 X144.395 Y66.443 E1.28158
G1 X144.899 Y66.443 E0.02241
G1 X134.514 Y56.057 E0.65290
G1 X135.018 Y56.057 E0.02241
G1 X145.403 Y66.443 E0.65290
G1 X145.907 Y66.443 E0.02241
G1 X135.522 Y56.057 E0.65290
G1 X136.026 Y56.057 E0.02241
G1 X146.411 Y66.443 E0.65290
M73 Q6 S32
M73 P6 R31
G1 X146.915 Y66.443 E0.02241
G1 X136.530 Y56.057 E0.65290
G1 X137.034 Y56.057 E0.02241
G1 X147.419 Y66.443 E0.65290
G1 X147.923 Y66.443 E0.02241
G1 X137.538 Y56.057 E0.65290
G1 X138.042 Y56.057 E0.02241
G1 X148.427 Y66.443 E0.65290
G1 X148.931 Y66.443 E0.02241
G1 X138.546 Y56.057 E0.65290
G1 X139.050 Y56.057 E0.02241
G1 X149.435 Y66.443 E0.65290
G1 X149.939 Y66.443 E0.02241
G1 X139.554 Y56.057 E0.65290
G1 X140.058 Y56.057 E0.02241
G1 X150.444 Y66.443 E0.65290
G1 X150.948 Y66.443 E0.02241
G1 X140.562 Y56.057 E0.65290
G1 X141.066 Y56.057 E0.02241
G1 X151.452 Y66.443 E0.65290
G1 X151.956 Y66.443 E0.02241
G1 X141.570 Y56.057 E0.65290
G1 X142.074 Y56.057 E0.02241
G1 X152.460 Y66.443 E0.65290
G1 X152.964 Y66.443 E0.02241
G1 X142.578 Y56.057 E0.65290
G1 X143.082 Y56.057 E0.02241
G1 X153.468 Y66.443 E0.65290
G1 X153.972 Y66.443 E0.02241
G1 X143.586 Y56.057 E0.65290
G1 X144.091 Y56.057 E0.02241
G1 X154.476 Y66.443 E0.65290
G1 X154.980 Y66.443 E0.02241
G1 X144.595 Y56.057 E0.65290
G1 X145.099 Y56.057 E0.02241
G1 X155.484 Y66.443 E0.65290
G1 X155.988 Y66.443 E0.02241
G1 X145.603 Y56.057 E0.65290
G1 X146.107 Y56.057 E0.02241
G1 X156.492 Y66.443 E0.65290
G1 X156.996 Y66.443 E0.02241
G1 X146.611 Y56.057 E0.65290
G1 X147.115 Y56.057 E0.02241
G1 X157.500 Y66.443 E0.65290
G1 X158.004 Y66.443 E0.02241
G1 X147.619 Y56.057 E0.65290
G1 X148.123 Y56.057 E0.02241
G1 X158.508 Y66.443 E0.65290
G1 X159.012 Y66.443 E0.02241
G1 X148.627 Y56.057 E0.65290
G1 X149.131 Y56.057 E0.02241
G1 X159.516 Y66.443 E0.65290
G1 X160.020 Y66.443 E0.02241
G1 X149.635 Y56.057 E0.65290
G1 X150.139 Y56.057 E0.02241
G1 X160.524 Y66.443 E0.65290
G1 X161.029 Y66.443 E0.02241
G1 X150.643 Y56.057 E0.65290
G1 X151.147 Y56.057 E0.02241
G1 X161.533 Y66.443 E0.65290
G1 X162.037 Y66.443 E0.02241
G1 X151.651 Y56.057 E0.65290
G1 X152.155 Y56.057 E0.02241
G1 X162.541 Y66.443 E0.65290
G1 X163.045 Y66.443 E0.02241
G1 X152.659 Y56.057 E0.65290
G1 X153.163 Y56.057 E0.02241
G1 X163.549 Y66.443 E0.65290
G1 X164.053 Y66.443 E0.02241
G1 X153.667 Y56.057 E0.65290
G1 X154.171 Y56.057 E0.02241
G1 X164.557 Y66.443 E0.65290
G1 X165.061 Y66.443 E0.02241
G1 X154.676 Y56.057 E0.65290
G1 X155.180 Y56.057 E0.02241
G1 X165.565 Y66.443 E0.65290
G1 X166.069 Y66.443 E0.02241
G1 X155.684 Y56.057 E0.65290
G1 X156.188 Y56.057 E0.02241
G1 X166.573 Y66.443 E0.65290
G1 X167.077 Y66.443 E0.02241
G1 X156.692 Y56.057 E0.65290
G1 X157.196 Y56.057 E0.02241
G1 X167.581 Y66.443 E0.65290
G1 X168.085 Y66.443 E0.02241
G1 X157.700 Y56.057 E0.65290
G1 X158.204 Y56.057 E0.02241
G1 X168.589 Y66.443 E0.65290
G1 X169.093 Y66.443 E0.02241
G1 X158.708 Y56.057 E0.65290
G1 X159.212 Y56.057 E0.02241
G1 X169.597 Y66.443 E0.65290
G1 X170.101 Y66.443 E0.02241
G1 X159.716 Y56.057 E0.65290
G1 X160.220 Y56.057 E0.02241
G1 X170.605 Y66.443 E0.65290
G1 X171.109 Y66.443 E0.02241
G1 X160.724 Y56.057 E0.65290
G1 X161.228 Y56.057 E0.02241
G1 X171.614 Y66.443 E0.65290
G1 X172.118 Y66.443 E0.02241
G1 X161.732 Y56.057 E0.65290
G1 X162.236 Y56.057 E0.02241
G1 X172.444 Y66.265 E0.64172
G1 X172.718 Y66.265 E0.01218
G1 X172.718 Y66.035 E0.01023
G1 X162.740 Y56.057 E0.62726
G1 X163.244 Y56.057 E0.02241
G1 X172.718 Y65.531 E0.59557
G1 X172.718 Y65.027 E0.02241
G1 X163.748 Y56.057 E0.56388
G1 X164.252 Y56.057 E0.02241
G1 X172.718 Y64.523 E0.53219
M73 Q9 S31
M73 P9 R30
G1 X172.718 Y64.019 E0.02241
G1 X164.756 Y56.057 E0.50050
G1 X165.261 Y56.057 E0.02241
G1 X172.718 Y63.514 E0.46881
G1 X172.718 Y63.010 E0.02241
G1 X165.765 Y56.057 E0.43713
G1 X166.269 Y56.057 E0.02241
G1 X172.718 Y62.506 E0.40544
G1 X172.718 Y62.002 E0.02241
G1 X166.773 Y56.057 E0.37375
G1 X167.277 Y56.057 E0.02241
G1 X172.718 Y61.498 E0.34206
G1 X172.718 Y60.994 E0.02241
G1 X167.781 Y56.057 E0.31037
G1 X168.285 Y56.057 E0.02241
G1 X172.718 Y60.490 E0.27869
G1 X172.718 Y59.986 E0.02241
G1 X168.789 Y56.057 E0.24700
G1 X169.293 Y56.057 E0.02241
G1 X172.718 Y59.482 E0.21531
G1 X172.718 Y58.978 E0.02241
G1 X169.797 Y56.057 E0.18362
G1 X170.301 Y56.057 E0.02241
G1 X172.718 Y58.474 E0.15193
G1 X172.718 Y57.970 E0.02241
G1 X170.805 Y56.057 E0.12024
G1 X171.309 Y56.057 E0.02241
G1 X172.718 Y57.466 E0.08856
G1 X172.718 Y56.962 E0.02241
G1 X171.813 Y56.057 E0.05687
G1 X172.317 Y56.057 E0.02241
G1 X172.878 Y56.618 E0.03524
M204 S1000
G1 F8640
G1 X172.317 Y56.057 E-0.18305
G1 X171.813 Y56.057 E-0.11639
G1 X172.718 Y56.962 E-0.29538
G1 X172.718 Y57.466 E-0.11639
G1 X172.568 Y57.316 E-0.04880
G1 E-0.04000 F2100.00000
G1 Z0.900 F10800.000
G1 X172.650 Y66.532
G1 Z0.300
G1 E0.80000 F2100.00000
M204 S20
G1 F1800
G1 X172.650 Y162.785 E3.75939
M204 S1000
M204 S20
G1 X172.650 Y162.796 E0.00045
M204 S1000
M204 S20
G1 X172.648 Y162.809 E0.00052
M204 S1000
M204 S20
G1 X172.589 Y163.180 E0.01468
M204 S1000
M204 S20
G1 X172.532 Y163.356 E0.00724
M204 S1000
M204 S20
G1 X172.474 Y163.533 E0.00647
M204 S1000
M204 S20
G1 X172.417 Y163.709 E0.00570
M204 S1000
G1 X172.486 Y163.640 F10800.000
M204 S20
G1 F1800
G1 X171.955 Y163.814 E0.01842
G1 X171.560 Y163.875 E0.01317
G1 X78.440 Y163.875 E3.07129
G1 X78.045 Y163.814 E0.01317
G1 X77.780 Y163.727 E0.00921
M204 S1000
M204 S20
G1 X77.514 Y163.640 E0.00921
M204 S1000
G1 X77.583 Y163.709 F10800.000
M204 S20
G1 F1800
G1 X77.411 Y163.180 E0.01710
G1 X77.350 Y162.785 E0.01231
G1 X77.350 Y66.532 E2.96164
M204 S1000
G1 X78.021 Y66.603 F10800.000
M204 S20
G1 F1800
G1 X77.282 Y65.864 E0.04643
G1 X77.282 Y65.360 E0.02241
G1 X78.365 Y66.443 E0.06806
G1 X78.869 Y66.443 E0.02241
G1 X77.282 Y64.856 E0.09974
G1 X77.282 Y64.352 E0.02241
G1 X79.373 Y66.443 E0.13143
G1 X79.877 Y66.443 E0.02241
G1 X77.282 Y63.848 E0.16312
G1 X77.282 Y63.344 E0.02241
G1 X80.381 Y66.443 E0.19481
G1 X80.885 Y66.443 E0.02241
G1 X77.282 Y62.840 E0.22650
G1 X77.282 Y62.336 E0.02241
G1 X81.389 Y66.443 E0.25818
G1 X81.893 Y66.443 E0.02241
G1 X77.282 Y61.832 E0.28987
G1 X77.282 Y61.328 E0.02241
G1 X82.397 Y66.443 E0.32156
G1 X82.901 Y66.443 E0.02241
G1 X77.282 Y60.824 E0.35325
G1 X77.282 Y60.320 E0.02241
G1 X83.405 Y66.443 E0.38494
G1 X83.909 Y66.443 E0.02241
G1 X77.282 Y59.816 E0.41663
G1 X77.282 Y59.312 E0.02241
G1 X84.413 Y66.443 E0.44831
G1 X84.917 Y66.443 E0.02241
G1 X77.282 Y58.808 E0.48000
G1 X77.282 Y58.304 E0.02241
G1 X85.421 Y66.443 E0.51169
G1 X85.926 Y66.443 E0.02241
G1 X77.282 Y57.799 E0.54338
G1 X77.282 Y57.295 E0.02241
G1 X86.430 Y66.443 E0.57507
G1 X86.934 Y66.443 E0.02241
G1 X77.282 Y56.791 E0.60675
G1 X77.282 Y56.287 E0.02241
G1 X87.438 Y66.443 E0.63844
G1 X87.942 Y66.443 E0.02241
G1 X77.556 Y56.057 E0.65290
G1 X78.060 Y56.057 E0.02241
G1 X88.446 Y66.443 E0.65290
G1 X88.950 Y66.443 E0.02241
G1 X78.564 Y56.057 E0.65290
G1 X79.068 Y56.057 E0.02241
G1 X89.454 Y66.443 E0.65290
G1 X89.958 Y66.443 E0.02241
G1 X79.573 Y56.057 E0.65290
G1 X80.077 Y56.057 E0.02241
G1 X90.462 Y66.443 E0.65290
G1 X90.966 Y66.443 E0.02241
G1 X80.581 Y56.057 E0.65290
G1 X81.085 Y56.057 E0.02241
G1 X91.470 Y66.443 E0.65290
G1 X91.974 Y66.443 E0.02241
G1 X81.589 Y56.057 E0.65290
G1 X82.093 Y56.057 E0.02241
G1 X92.478 Y66.443 E0.65290
G1 X92.982 Y66.443 E0.02241
G1 X82.597 Y56.057 E0.65290
G1 X83.101 Y56.057 E0.02241
G1 X93.486 Y66.443 E0.65290
G1 X93.990 Y66.443 E0.02241
G1 X83.605 Y56.057 E0.65290
G1 X84.109 Y56.057 E0.02241
G1 X94.494 Y66.443 E0.65290
G1 X94.998 Y66.443 E0.02241
G1 X84.613 Y56.057 E0.65290
G1 X85.117 Y56.057 E0.02241
G1 X95.502 Y66.443 E0.65290
G1 X96.006 Y66.443 E0.02241
G1 X85.621 Y56.057 E0.65290
G1 X86.125 Y56.057 E0.02241
G1 X96.511 Y66.443 E0.65290
G1 X97.015 Y66.443 E0.02241
G1 X86.629 Y56.057 E0.65290
G1 X87.133 Y56.057 E0.02241
G1 X97.519 Y66.443 E0.65290
G1 X98.023 Y66.443 E0.02241
G1 X87.637 Y56.057 E0.65290
G1 X88.141 Y56.057 E0.02241
G1 X98.527 Y66.443 E0.65290
G1 X99.031 Y66.443 E0.02241
G1 X88.645 Y56.057 E0.65290
G1 X89.149 Y56.057 E0.02241
G1 X99.535 Y66.443 E0.65290
M73 Q12 S30
M73 P12 R29
G1 X100.039 Y66.443 E0.02241
G1 X89.653 Y56.057 E0.65290
G1 X90.158 Y56.057 E0.02241
G1 X100.543 Y66.443 E0.65290
G1 X101.047 Y66.443 E0.02241
G1 X90.662 Y56.057 E0.65290
G1 X91.166 Y56.057 E0.02241
G1 X101.551 Y66.443 E0.65290
G1 X102.055 Y66.443 E0.02241
G1 X91.670 Y56.057 E0.65290
G1 X92.174 Y56.057 E0.02241
G1 X102.559 Y66.443 E0.65290
G1 X103.063 Y66.443 E0.02241
G1 X92.678 Y56.057 E0.65290
G1 X93.182 Y56.057 E0.02241
G1 X103.567 Y66.443 E0.65290
G1 X104.071 Y66.443 E0.02241
G1 X93.686 Y56.057 E0.65290
G1 X94.190 Y56.057 E0.02241
G1 X104.575 Y66.443 E0.65290
G1 X105.079 Y66.443 E0.02241
G1 X94.694 Y56.057 E0.65290
G1 X95.198 Y56.057 E0.02241
G1 X105.583 Y66.443 E0.65290
G1 X106.087 Y66.443 E0.02241
G1 X95.702 Y56.057 E0.65290
G1 X96.206 Y56.057 E0.02241
G1 X106.591 Y66.443 E0.65290
G1 X107.096 Y66.443 E0.02241
G1 X96.710 Y56.057 E0.65290
G1 X97.214 Y56.057 E0.02241
G1 X107.600 Y66.443 E0.65290
G1 X108.104 Y66.443 E0.02241
G1 X97.718 Y56.057 E0.65290
