; generated by Slic3r Prusa Edition 1.41.1 on 2018-11-18 at 22:38:59

; 

; external perimeters extrusion width = 0.45mm
; perimeters extrusion width = 0.45mm
; infill extrusion width = 0.45mm
; solid infill extrusion width = 0.45mm
; top infill extrusion width = 0.40mm
; support material extrusion width = 0.35mm
; first layer extrusion width = 0.42mm

M73 P0 R21
M73 Q0 S21
M201 X1000 Y1000 Z1000 E5000 ; sets maximum accelerations, mm/sec^2
M203 X200 Y200 Z12 E120 ; sets maximum feedrates, mm/sec
M204 P1250 R1250 T1250 ; sets acceleration (P, T) and retract acceleration (R), mm/sec^2
M205 X8.00 Y8.00 Z0.40 E1.50 ; sets the jerk limits, mm/sec
M205 S0 T0 ; sets the minimum extruding and travel feed rate, mm/sec
M107
M115 U3.4.0 ; tell printer latest fw version
M83  ; extruder relative mode
M104 S140 ; set extruder to warm-up temp
M140 S80 ; set bed temp
M190 S80 ; wait for bed temp
G28 W ; home all without mesh bed level
G80 ; mesh bed leveling
M104 S245 ; set extruder temp
M109 S245 ; wait for extruder temp
G1 Y-3.0 F1000.0 ; go outside print area
G92 E0.0
G1 X60.0 E9.0  F1000.0 ; intro line
M73 Q0 S21
M73 P0 R21
G1 X100.0 E12.5  F1000.0 ; intro line
G92 E0.0
M221 S95
M900 K45; Filament gcode
G21 ; set units to millimeters
G90 ; use absolute coordinates
M83 ; use relative distances for extrusion
;BEFORE_LAYER_CHANGE
G92 E0.0
;0.2


G1 E-0.80000 F2100.00000
G1 Z0.600 F10800.000
;AFTER_LAYER_CHANGE
;0.2
G1 X92.198 Y91.396
G1 Z0.200
G1 E0.80000 F2100.00000
M204 S20
G1 F1800
G1 X93.268 Y90.776 E0.03878
G1 X94.105 Y90.523 E0.02743
G1 X94.976 Y90.434 E0.02743
G1 X155.005 Y90.434 E1.88218
G1 X155.861 Y90.516 E0.02694
G1 X156.690 Y90.759 E0.02710
G1 X157.455 Y91.151 E0.02694
G1 X158.133 Y91.679 E0.02694
G1 X158.699 Y92.324 E0.02694
G1 X159.135 Y93.065 E0.02694
G1 X159.425 Y93.874 E0.02694
G1 X159.558 Y94.728 E0.02710
G1 X159.536 Y115.521 E0.65197
G1 X159.239 Y116.695 E0.03796
G1 X158.642 Y117.754 E0.03812
G1 X157.786 Y118.617 E0.03812
G1 X156.732 Y119.224 E0.03812
G1 X155.895 Y119.477 E0.02743
G1 X155.024 Y119.566 E0.02743
G1 X94.826 Y119.562 E1.88747
G1 X93.548 Y119.328 E0.04074
G1 X92.383 Y118.741 E0.04091
G1 X91.435 Y117.852 E0.04074
G1 X90.774 Y116.727 E0.04091
G1 X90.527 Y115.915 E0.02661
G1 X90.435 Y115.066 E0.02677
G1 X90.455 Y94.563 E0.64288
G1 X90.738 Y93.364 E0.03861
G1 X91.333 Y92.280 E0.03878
G1 X92.156 Y91.438 E0.03690
M204 S1000
G1 X92.424 Y91.702 F10800.000
M204 S20
G1 F1800
G1 X93.435 Y91.115 E0.03665
G1 X94.190 Y90.891 E0.02469
G1 X94.979 Y90.812 E0.02485
G1 X155.005 Y90.811 E1.88209
G1 X155.789 Y90.886 E0.02469
G1 X156.550 Y91.109 E0.02485
G1 X157.255 Y91.470 E0.02485
G1 X157.880 Y91.958 E0.02485
G1 X158.398 Y92.551 E0.02469
G1 X158.799 Y93.235 E0.02485
G1 X159.063 Y93.983 E0.02485
G1 X159.182 Y94.766 E0.02485
G1 X159.164 Y115.449 E0.64850
G1 X158.895 Y116.540 E0.03525
G1 X158.342 Y117.525 E0.03540
G1 X157.546 Y118.326 E0.03540
G1 X156.565 Y118.885 E0.03540
G1 X155.810 Y119.109 E0.02469
G1 X155.021 Y119.188 E0.02485
G1 X94.853 Y119.186 E1.88653
G1 X93.668 Y118.971 E0.03776
G1 X92.598 Y118.431 E0.03760
G1 X91.721 Y117.606 E0.03776
G1 X91.115 Y116.565 E0.03776
G1 X90.894 Y115.825 E0.02422
G1 X90.812 Y115.057 E0.02422
G1 X90.829 Y94.621 E0.64074
G1 X91.087 Y93.507 E0.03587
G1 X91.637 Y92.503 E0.03587
G1 X92.382 Y91.745 E0.03334
M204 S1000
; PURGING FINISHED
G1 F8640
G1 X93.435 Y91.115 E-0.28330
G1 X94.190 Y90.891 E-0.18186
G1 X94.979 Y90.812 E-0.18302
G1 X95.463 Y90.812 E-0.11182
G1 E-0.04000 F2100.00000
G1 Z0.800 F10800.000
G1 X142.880 Y104.456
G1 Z0.200
G1 E0.80000 F2100.00000
M204 S20
G1 F1800
G1 X142.965 Y104.194 E0.00862
G1 X143.082 Y103.946 E0.00862
G1 X143.230 Y103.714 E0.00862
G1 X143.405 Y103.502 E0.00862
G1 X143.605 Y103.314 E0.00862
G1 X143.827 Y103.152 E0.00861
G1 X144.068 Y103.020 E0.00862
G1 X144.324 Y102.919 E0.00862
G1 X144.590 Y102.850 E0.00861
G1 X144.863 Y102.816 E0.00862
G1 X145.137 Y102.816 E0.00862
G1 X145.410 Y102.850 E0.00862
G1 X145.676 Y102.919 E0.00861
G1 X145.932 Y103.020 E0.00862
G1 X146.173 Y103.152 E0.00862
G1 X146.395 Y103.314 E0.00861
G1 X146.595 Y103.502 E0.00862
G1 X146.770 Y103.714 E0.00862
G1 X146.919 Y103.947 E0.00867
G1 X147.046 Y104.223 E0.00953
G1 X147.170 Y104.708 E0.01569
G1 X147.188 Y105.000 E0.00918
G1 X147.171 Y105.274 E0.00862
G1 X147.120 Y105.544 E0.00862
G1 X147.035 Y105.806 E0.00862
G1 X146.918 Y106.054 E0.00862
G1 X146.770 Y106.286 E0.00862
G1 X146.595 Y106.498 E0.00862
G1 X146.395 Y106.686 E0.00862
G1 X146.173 Y106.848 E0.00861
G1 X145.932 Y106.980 E0.00862
G1 X145.676 Y107.081 E0.00862
G1 X145.410 Y107.150 E0.00861
G1 X145.137 Y107.184 E0.00862
G1 X144.863 Y107.184 E0.00862
G1 X144.590 Y107.150 E0.00862
G1 X144.324 Y107.081 E0.00861
G1 X144.068 Y106.980 E0.00862
G1 X143.827 Y106.848 E0.00862
G1 X143.605 Y106.686 E0.00861
G1 X143.405 Y106.498 E0.00862
G1 X143.230 Y106.286 E0.00862
G1 X143.081 Y106.053 E0.00867
G1 X142.954 Y105.777 E0.00953
G1 X142.830 Y105.292 E0.01569
G1 X142.812 Y105.000 E0.00918
G1 X142.829 Y104.726 E0.00862
G1 X142.869 Y104.515 E0.00674
M204 S1000
G1 X143.239 Y104.585 F10800.000
M204 S20
G1 F1800
G1 X143.316 Y104.333 E0.00826
G1 X143.413 Y104.128 E0.00713
G1 X143.535 Y103.936 E0.00713
G1 X143.680 Y103.761 E0.00713
G1 X143.846 Y103.605 E0.00713
G1 X144.030 Y103.471 E0.00713
G1 X144.229 Y103.362 E0.00713
G1 X144.441 Y103.278 E0.00713
G1 X144.661 Y103.221 E0.00713
G1 X144.886 Y103.193 E0.00713
G1 X145.114 Y103.193 E0.00713
G1 X145.339 Y103.221 E0.00713
G1 X145.559 Y103.278 E0.00713
G1 X145.771 Y103.362 E0.00713
G1 X145.970 Y103.471 E0.00713
G1 X146.154 Y103.605 E0.00713
G1 X146.320 Y103.761 E0.00713
G1 X146.465 Y103.936 E0.00713
G1 X146.587 Y104.128 E0.00715
G1 X146.690 Y104.350 E0.00766
G1 X146.796 Y104.767 E0.01349
G1 X146.811 Y105.000 E0.00733
G1 X146.796 Y105.227 E0.00713
G1 X146.754 Y105.450 E0.00713
G1 X146.684 Y105.667 E0.00713
G1 X146.587 Y105.872 E0.00713
G1 X146.465 Y106.064 E0.00713
G1 X146.320 Y106.239 E0.00713
G1 X146.154 Y106.395 E0.00713
G1 X145.970 Y106.529 E0.00713
G1 X145.771 Y106.638 E0.00713
G1 X145.559 Y106.722 E0.00713
G1 X145.339 Y106.779 E0.00713
G1 X145.114 Y106.807 E0.00713
G1 X144.886 Y106.807 E0.00713
G1 X144.661 Y106.779 E0.00713
G1 X144.441 Y106.722 E0.00713
G1 X144.229 Y106.638 E0.00713
G1 X144.030 Y106.529 E0.00713
G1 X143.846 Y106.395 E0.00713
G1 X143.680 Y106.239 E0.00713
G1 X143.535 Y106.064 E0.00713
G1 X143.413 Y105.872 E0.00715
G1 X143.310 Y105.650 E0.00766
G1 X143.204 Y105.233 E0.01349
G1 X143.189 Y105.000 E0.00733
G1 X143.228 Y104.644 E0.01122
M204 S1000
G1 X143.045 Y104.408 F10800.000
G1 F8640
G1 X143.316 Y104.333 E-0.07461
G1 X143.413 Y104.128 E-0.05251
G1 X143.535 Y103.936 E-0.05250
G1 X143.680 Y103.761 E-0.05249
G1 X143.846 Y103.605 E-0.05253
G1 X144.030 Y103.471 E-0.05249
G1 X144.229 Y103.362 E-0.05249
G1 X144.441 Y103.278 E-0.05252
G1 X144.661 Y103.221 E-0.05249
G1 X144.886 Y103.193 E-0.05251
G1 X145.114 Y103.193 E-0.05251
G1 X145.339 Y103.221 E-0.05251
G1 X145.559 Y103.278 E-0.05249
G1 X145.771 Y103.362 E-0.05252
G1 X145.782 Y103.368 E-0.00284
G1 E-0.04000 F2100.00000
G1 Z0.800 F10800.000
G1 X127.168 Y105.305
G1 Z0.200
G1 E0.80000 F2100.00000
M204 S20
G1 F1800
G1 X127.042 Y105.789 E0.01569
G1 X126.918 Y106.054 E0.00918
G1 X126.770 Y106.286 E0.00862
G1 X126.595 Y106.498 E0.00862
G1 X126.395 Y106.686 E0.00862
G1 X126.173 Y106.848 E0.00862
G1 X125.932 Y106.980 E0.00862
G1 X125.676 Y107.081 E0.00862
G1 X125.410 Y107.150 E0.00862
G1 X125.137 Y107.184 E0.00862
G1 X124.863 Y107.184 E0.00862
G1 X124.590 Y107.150 E0.00862
G1 X124.324 Y107.081 E0.00862
G1 X124.068 Y106.980 E0.00862
G1 X123.827 Y106.848 E0.00862
G1 X123.605 Y106.686 E0.00862
G1 X123.405 Y106.498 E0.00862
G1 X123.228 Y106.285 E0.00867
G1 X123.067 Y106.027 E0.00953
G1 X122.884 Y105.562 E0.01569
G1 X122.829 Y105.274 E0.00918
G1 X122.811 Y104.998 E0.00867
G1 X122.832 Y104.695 E0.00953
G1 X122.958 Y104.211 E0.01569
G1 X123.082 Y103.946 E0.00918
G1 X123.230 Y103.714 E0.00862
G1 X123.405 Y103.502 E0.00862
G1 X123.605 Y103.314 E0.00862
G1 X123.827 Y103.152 E0.00862
G1 X124.068 Y103.020 E0.00862
G1 X124.324 Y102.919 E0.00862
G1 X124.590 Y102.850 E0.00862
G1 X124.863 Y102.816 E0.00862
G1 X125.137 Y102.816 E0.00862
G1 X125.410 Y102.850 E0.00862
G1 X125.676 Y102.919 E0.00862
G1 X125.932 Y103.020 E0.00862
G1 X126.173 Y103.152 E0.00862
G1 X126.395 Y103.314 E0.00862
G1 X126.595 Y103.502 E0.00862
G1 X126.772 Y103.715 E0.00867
G1 X126.933 Y103.973 E0.00953
G1 X127.116 Y104.438 E0.01569
G1 X127.171 Y104.726 E0.00918
G1 X127.189 Y105.002 E0.00867
G1 X127.172 Y105.245 E0.00765
M204 S1000
G1 X126.796 Y105.219 F10800.000
M204 S20
G1 F1800
G1 X126.686 Y105.661 E0.01426
G1 X126.587 Y105.872 E0.00733
G1 X126.465 Y106.064 E0.00713
G1 X126.320 Y106.239 E0.00713
G1 X126.154 Y106.395 E0.00713
G1 X125.970 Y106.529 E0.00713
G1 X125.771 Y106.638 E0.00713
G1 X125.560 Y106.722 E0.00713
G1 X125.339 Y106.779 E0.00713
G1 X125.114 Y106.807 E0.00713
G1 X124.886 Y106.807 E0.00713
G1 X124.661 Y106.779 E0.00713
G1 X124.440 Y106.722 E0.00713
G1 X124.229 Y106.638 E0.00713
G1 X124.030 Y106.529 E0.00713
G1 X123.846 Y106.395 E0.00713
G1 X123.680 Y106.239 E0.00713
G1 X123.535 Y106.064 E0.00715
G1 X123.405 Y105.857 E0.00766
G1 X123.247 Y105.457 E0.01349
G1 X123.204 Y105.227 E0.00733
G1 X123.189 Y104.999 E0.00715
G1 X123.206 Y104.756 E0.00766
G1 X123.314 Y104.339 E0.01349
G1 X123.413 Y104.128 E0.00733
G1 X123.535 Y103.936 E0.00713
G1 X123.680 Y103.761 E0.00713
G1 X123.846 Y103.605 E0.00713
G1 X124.030 Y103.471 E0.00713
G1 X124.229 Y103.362 E0.00713
G1 X124.440 Y103.278 E0.00713
G1 X124.661 Y103.221 E0.00713
G1 X124.886 Y103.193 E0.00713
G1 X125.114 Y103.193 E0.00713
G1 X125.339 Y103.221 E0.00713
G1 X125.560 Y103.278 E0.00713
G1 X125.771 Y103.362 E0.00713
G1 X125.970 Y103.471 E0.00713
G1 X126.154 Y103.605 E0.00713
G1 X126.320 Y103.761 E0.00713
G1 X126.465 Y103.936 E0.00715
G1 X126.595 Y104.143 E0.00766
G1 X126.753 Y104.543 E0.01349
G1 X126.796 Y104.773 E0.00733
G1 X126.800 Y105.159 E0.01211
M204 S1000
G1 X127.111 Y105.466 F10800.000
G1 F8640
G1 X126.686 Y105.661 E-0.11871
G1 X126.587 Y105.872 E-0.05400
G1 X126.465 Y106.064 E-0.05250
G1 X126.320 Y106.239 E-0.05250
G1 X126.154 Y106.395 E-0.05250
G1 X125.970 Y106.529 E-0.05250
G1 X125.771 Y106.638 E-0.05250
G1 X125.560 Y106.722 E-0.05250
G1 X125.339 Y106.779 E-0.05250
G1 X125.114 Y106.807 E-0.05250
G1 X124.886 Y106.807 E-0.05250
G1 X124.661 Y106.779 E-0.05250
G1 X124.440 Y106.722 E-0.05250
G1 X124.401 Y106.706 E-0.00977
G1 E-0.04000 F2100.00000
G1 Z0.800 F10800.000
G1 X107.170 Y104.708
G1 Z0.200
G1 E0.80000 F2100.00000
M204 S20
G1 F1800
G1 X107.188 Y105.000 E0.00918
G1 X107.171 Y105.274 E0.00862
G1 X107.120 Y105.544 E0.00862
G1 X107.035 Y105.806 E0.00862
G1 X106.918 Y106.054 E0.00862
G1 X106.770 Y106.286 E0.00862
G1 X106.595 Y106.498 E0.00862
G1 X106.395 Y106.686 E0.00862
G1 X106.173 Y106.848 E0.00861
G1 X105.932 Y106.980 E0.00862
G1 X105.676 Y107.081 E0.00862
G1 X105.410 Y107.150 E0.00861
G1 X105.137 Y107.184 E0.00862
G1 X104.863 Y107.184 E0.00862
G1 X104.590 Y107.150 E0.00862
G1 X104.324 Y107.081 E0.00861
G1 X104.068 Y106.980 E0.00862
G1 X103.827 Y106.848 E0.00862
G1 X103.605 Y106.686 E0.00861
G1 X103.405 Y106.498 E0.00862
G1 X103.230 Y106.286 E0.00862
G1 X103.081 Y106.053 E0.00867
G1 X102.954 Y105.777 E0.00953
G1 X102.830 Y105.292 E0.01569
G1 X102.812 Y105.000 E0.00918
G1 X102.829 Y104.726 E0.00862
G1 X102.880 Y104.456 E0.00862
G1 X102.965 Y104.194 E0.00862
G1 X103.082 Y103.946 E0.00862
G1 X103.230 Y103.714 E0.00862
G1 X103.405 Y103.502 E0.00862
G1 X103.605 Y103.314 E0.00862
G1 X103.827 Y103.152 E0.00861
G1 X104.068 Y103.020 E0.00862
G1 X104.324 Y102.919 E0.00862
G1 X104.590 Y102.850 E0.00861
G1 X104.863 Y102.816 E0.00862
G1 X105.137 Y102.816 E0.00862
G1 X105.410 Y102.850 E0.00862
G1 X105.676 Y102.919 E0.00861
G1 X105.932 Y103.020 E0.00862
G1 X106.173 Y103.152 E0.00862
G1 X106.395 Y103.314 E0.00861
G1 X106.595 Y103.502 E0.00862
G1 X106.770 Y103.714 E0.00862
G1 X106.919 Y103.947 E0.00867
G1 X107.046 Y104.223 E0.00953
G1 X107.155 Y104.650 E0.01381
M204 S1000
G1 X106.790 Y104.743 F10800.000
M204 S20
G1 F1800
G1 X106.811 Y105.000 E0.00809
G1 X106.796 Y105.227 E0.00713
G1 X106.754 Y105.450 E0.00713
G1 X106.684 Y105.667 E0.00713
G1 X106.587 Y105.872 E0.00713
G1 X106.465 Y106.064 E0.00713
G1 X106.320 Y106.239 E0.00713
G1 X106.154 Y106.395 E0.00713
G1 X105.970 Y106.529 E0.00713
G1 X105.771 Y106.638 E0.00713
G1 X105.559 Y106.722 E0.00713
G1 X105.339 Y106.779 E0.00713
G1 X105.114 Y106.807 E0.00713
G1 X104.886 Y106.807 E0.00713
G1 X104.661 Y106.779 E0.00713
G1 X104.441 Y106.722 E0.00713
G1 X104.229 Y106.638 E0.00713
G1 X104.030 Y106.529 E0.00713
G1 X103.846 Y106.395 E0.00713
G1 X103.680 Y106.239 E0.00713
G1 X103.535 Y106.064 E0.00713
G1 X103.413 Y105.872 E0.00715
G1 X103.310 Y105.650 E0.00766
G1 X103.204 Y105.233 E0.01349
G1 X103.189 Y105.000 E0.00733
G1 X103.204 Y104.773 E0.00713
G1 X103.246 Y104.550 E0.00713
G1 X103.316 Y104.333 E0.00713
G1 X103.413 Y104.128 E0.00713
G1 X103.535 Y103.936 E0.00713
G1 X103.680 Y103.761 E0.00713
G1 X103.846 Y103.605 E0.00713
G1 X104.030 Y103.471 E0.00713
G1 X104.229 Y103.362 E0.00713
G1 X104.441 Y103.278 E0.00713
G1 X104.661 Y103.221 E0.00713
G1 X104.886 Y103.193 E0.00713
G1 X105.114 Y103.193 E0.00713
G1 X105.339 Y103.221 E0.00713
G1 X105.559 Y103.278 E0.00713
G1 X105.771 Y103.362 E0.00713
G1 X105.970 Y103.471 E0.00713
G1 X106.154 Y103.605 E0.00713
G1 X106.320 Y103.761 E0.00713
G1 X106.465 Y103.936 E0.00713
G1 X106.587 Y104.128 E0.00715
G1 X106.690 Y104.350 E0.00766
G1 X106.775 Y104.685 E0.01083
M204 S1000
G1 X107.031 Y104.835 F10800.000
G1 F8640
G1 X106.811 Y105.000 E-0.07328
G1 X106.796 Y105.227 E-0.05250
G1 X106.754 Y105.450 E-0.05251
G1 X106.684 Y105.667 E-0.05250
G1 X106.587 Y105.872 E-0.05251
G1 X106.465 Y106.064 E-0.05250
G1 X106.320 Y106.239 E-0.05249
G1 X106.154 Y106.395 E-0.05253
G1 X105.970 Y106.529 E-0.05249
G1 X105.771 Y106.638 E-0.05249
G1 X105.559 Y106.722 E-0.05252
G1 X105.339 Y106.779 E-0.05249
G1 X105.114 Y106.807 E-0.05251
G1 X104.886 Y106.807 E-0.05251
G1 X104.868 Y106.805 E-0.00418
G1 E-0.04000 F2100.00000
G1 Z0.800 F10800.000
G1 X95.687 Y95.687
G1 Z0.200
G1 E0.80000 F2100.00000
M204 S20
G1 F1800
G1 X154.313 Y95.687 E1.83817
G1 X154.313 Y114.313 E0.58400
G1 X95.687 Y114.313 E1.83817
G1 X95.687 Y95.747 E0.58212
M204 S1000
G1 X95.310 Y95.310 F10800.000
M204 S20
G1 F1800
G1 X154.690 Y95.310 E1.86182
G1 X154.690 Y114.690 E0.60765
G1 X95.310 Y114.690 E1.86182
G1 X95.310 Y95.370 E0.60577
M204 S1000
G1 X95.708 Y95.352 F10800.000
G1 F8640
G1 X98.601 Y95.367 E-0.76000
G1 E-0.04000 F2100.00000
G1 Z0.800 F10800.000
G1 X98.984 Y95.800
G1 Z0.200
G1 E0.80000 F2100.00000
M204 S20
G1 F1800
G1 X105.878 Y102.694 E0.30604
G1 X105.463 Y102.572 E0.01358
G1 X105.187 Y102.537 E0.00874
G1 X98.620 Y95.970 E0.29152
G1 X98.086 Y95.970 E0.01676
G1 X104.671 Y102.555 E0.29232
G1 X104.233 Y102.651 E0.01408
G1 X97.552 Y95.970 E0.29656
G1 X97.018 Y95.970 E0.01676
G1 X103.860 Y102.812 E0.30371
G1 X103.532 Y103.017 E0.01216
G1 X96.484 Y95.970 E0.31284
G1 X95.970 Y95.970 E0.01615
G1 X95.970 Y95.989 E0.00061
G1 X103.245 Y103.264 E0.32293
G1 X102.998 Y103.551 E0.01188
G1 X95.970 Y96.523 E0.31197
G1 X95.970 Y97.057 E0.01676
G1 X102.798 Y103.885 E0.30311
G1 X102.702 Y104.090 E0.00711
G1 X102.645 Y104.266 E0.00580
G1 X95.970 Y97.591 E0.29630
G1 X95.970 Y98.125 E0.01676
G1 X102.547 Y104.702 E0.29196
G1 X102.528 Y105.000 E0.00938
G1 X102.543 Y105.231 E0.00728
G1 X95.970 Y98.659 E0.29177
G1 X95.970 Y99.192 E0.01676
G1 X102.717 Y105.940 E0.29952
M204 S1000
G1 F8640
G1 X100.390 Y103.612 E-0.76000
G1 E-0.04000 F2100.00000
G1 Z0.800 F10800.000
G1 X104.057 Y107.280
G1 Z0.200
G1 E0.80000 F2100.00000
M204 S20
G1 F1800
G1 X110.808 Y114.030 E0.29964
G1 X111.341 Y114.030 E0.01676
G1 X104.769 Y107.457 E0.29177
G1 X105.155 Y107.467 E0.01214
G1 X105.294 Y107.449 E0.00441
G1 X111.875 Y114.030 E0.29212
G1 X112.409 Y114.030 E0.01676
G1 X105.737 Y107.358 E0.29619
G1 X106.115 Y107.202 E0.01284
G1 X112.943 Y114.030 E0.30309
G1 X113.477 Y114.030 E0.01676
G1 X106.446 Y106.999 E0.31211
G1 X106.735 Y106.755 E0.01189
