; generated by Slic3r Prusa Edition 1.41.1 on 2018-11-18 at 18:21:22

; 

; external perimeters extrusion width = 0.45mm
; perimeters extrusion width = 0.45mm
; infill extrusion width = 0.45mm
; solid infill extrusion width = 0.45mm
; top infill extrusion width = 0.40mm
; support material extrusion width = 0.35mm
; first layer extrusion width = 0.42mm

M73 P0 R57
M73 Q0 S58
M201 X1000 Y1000 Z1000 E5000 ; sets maximum accelerations, mm/sec^2
M203 X200 Y200 Z12 E120 ; sets maximum feedrates, mm/sec
M204 P1250 R1250 T1250 ; sets acceleration (P, T) and retract acceleration (R), mm/sec^2
M205 X8.00 Y8.00 Z0.40 E1.50 ; sets the jerk limits, mm/sec
M205 S0 T0 ; sets the minimum extruding and travel feed rate, mm/sec
M107
M115 U3.4.0 ; tell printer latest fw version
M83  ; extruder relative mode
M104 S140 ; set extruder to warm-up temp
M140 S80 ; set bed temp
M190 S80 ; wait for bed temp
G28 W ; home all without mesh bed level
G80 ; mesh bed leveling
M104 S245 ; set extruder temp
M109 S245 ; wait for extruder temp
G1 Y-3.0 F1000.0 ; go outside print area
G92 E0.0
G1 X60.0 E9.0  F1000.0 ; intro line
M73 Q0 S57
M73 P0 R57
G1 X100.0 E12.5  F1000.0 ; intro line
G92 E0.0
M221 S95
M900 K45; Filament gcode
G21 ; set units to millimeters
G90 ; use absolute coordinates
M83 ; use relative distances for extrusion
;BEFORE_LAYER_CHANGE
G92 E0.0
;0.2


G1 E-0.80000 F2100.00000
G1 Z0.600 F10800.000
;AFTER_LAYER_CHANGE
;0.2
G1 X91.381 Y79.217
G1 Z0.200
G1 E0.80000 F2100.00000
M204 S20
G1 F1800
G1 X92.058 Y78.509 E0.03073
G1 X92.691 Y78.061 E0.02430
G1 X93.396 Y77.726 E0.02447
G1 X94.147 Y77.515 E0.02447
G1 X94.923 Y77.435 E0.02447
G1 X155.005 Y77.434 E1.88383
G1 X155.861 Y77.516 E0.02694
G1 X156.690 Y77.759 E0.02710
G1 X157.459 Y78.153 E0.02710
G1 X158.140 Y78.686 E0.02710
G1 X158.706 Y79.333 E0.02694
G1 X159.142 Y80.079 E0.02710
G1 X159.430 Y80.894 E0.02710
G1 X159.559 Y81.749 E0.02710
G1 X159.563 Y128.148 E1.45480
G1 X159.433 Y129.093 E0.02990
G1 X159.109 Y129.990 E0.02990
G1 X158.606 Y130.800 E0.02990
G1 X157.942 Y131.491 E0.03007
G1 X157.309 Y131.939 E0.02430
G1 X156.604 Y132.274 E0.02447
G1 X155.853 Y132.485 E0.02447
G1 X155.077 Y132.565 E0.02447
G1 X94.963 Y132.565 E1.88483
G1 X93.984 Y132.451 E0.03089
G1 X93.058 Y132.132 E0.03073
G1 X92.221 Y131.622 E0.03073
G1 X91.509 Y130.942 E0.03089
G1 X91.064 Y130.313 E0.02414
G1 X90.729 Y129.614 E0.02430
G1 X90.518 Y128.869 E0.02430
G1 X90.435 Y128.098 E0.02430
G1 X90.435 Y81.952 E1.44686
G1 X90.550 Y80.979 E0.03073
G1 X90.870 Y80.053 E0.03073
G1 X91.350 Y79.268 E0.02885
M204 S1000
G1 X91.670 Y79.464 F10800.000
M204 S20
G1 F1800
G1 X92.312 Y78.788 E0.02924
G1 X92.895 Y78.379 E0.02233
G1 X93.539 Y78.075 E0.02233
G1 X94.225 Y77.884 E0.02233
G1 X94.933 Y77.812 E0.02233
G1 X155.005 Y77.811 E1.88352
G1 X155.794 Y77.887 E0.02485
G1 X156.555 Y78.111 E0.02485
G1 X157.264 Y78.476 E0.02501
G1 X157.887 Y78.965 E0.02485
G1 X158.407 Y79.564 E0.02485
G1 X158.807 Y80.254 E0.02501
G1 X159.069 Y81.007 E0.02501
G1 X159.183 Y81.792 E0.02485
G1 X159.187 Y128.126 E1.45280
G1 X159.068 Y128.997 E0.02753
G1 X158.769 Y129.827 E0.02769
G1 X158.302 Y130.577 E0.02769
G1 X157.688 Y131.212 E0.02769
G1 X157.105 Y131.621 E0.02233
G1 X156.461 Y131.925 E0.02233
G1 X155.775 Y132.116 E0.02233
G1 X155.067 Y132.188 E0.02233
G1 X94.970 Y132.188 E1.88431
G1 X94.072 Y132.085 E0.02832
G1 X93.214 Y131.789 E0.02848
G1 X92.443 Y131.317 E0.02832
G1 X91.788 Y130.688 E0.02848
G1 X91.382 Y130.110 E0.02217
G1 X91.076 Y129.466 E0.02233
G1 X90.886 Y128.785 E0.02217
G1 X90.812 Y128.082 E0.02217
G1 X90.812 Y81.960 E1.44614
G1 X90.918 Y81.063 E0.02832
G1 X91.214 Y80.209 E0.02832
G1 X91.639 Y79.516 E0.02550
M204 S1000
; PURGING FINISHED
G1 F8640
G1 X92.312 Y78.788 E-0.22888
G1 X92.895 Y78.379 E-0.16442
G1 X93.539 Y78.075 E-0.16442
G1 X94.225 Y77.884 E-0.16442
G1 X94.388 Y77.867 E-0.03787
G1 E-0.04000 F2100.00000
G1 Z0.800 F10800.000
G1 X142.912 Y91.321
G1 Z0.200
G1 E0.80000 F2100.00000
M204 S20
G1 F1800
G1 X143.224 Y90.709 E0.02154
G1 X143.709 Y90.224 E0.02154
G1 X144.322 Y89.912 E0.02154
G1 X145.000 Y89.804 E0.02154
G1 X145.678 Y89.912 E0.02154
G1 X146.291 Y90.224 E0.02154
G1 X146.776 Y90.709 E0.02154
G1 X147.088 Y91.321 E0.02154
G1 X147.196 Y92.000 E0.02154
G1 X147.088 Y92.679 E0.02154
G1 X146.776 Y93.291 E0.02154
G1 X146.291 Y93.776 E0.02154
G1 X145.678 Y94.088 E0.02154
G1 X145.000 Y94.196 E0.02154
G1 X144.322 Y94.088 E0.02154
G1 X143.709 Y93.776 E0.02154
G1 X143.224 Y93.291 E0.02154
G1 X142.912 Y92.679 E0.02154
G1 X142.804 Y92.000 E0.02154
G1 X142.902 Y91.381 E0.01966
M204 S1000
G1 X143.275 Y91.440 F10800.000
M204 S20
G1 F1800
G1 X143.533 Y90.934 E0.01780
G1 X143.934 Y90.533 E0.01779
G1 X144.440 Y90.275 E0.01780
G1 X145.000 Y90.186 E0.01779
G1 X145.560 Y90.275 E0.01779
G1 X146.066 Y90.533 E0.01780
G1 X146.467 Y90.934 E0.01779
G1 X146.725 Y91.439 E0.01779
G1 X146.814 Y92.000 E0.01779
G1 X146.725 Y92.561 E0.01779
G1 X146.467 Y93.066 E0.01779
G1 X146.066 Y93.467 E0.01779
G1 X145.560 Y93.725 E0.01780
G1 X145.000 Y93.814 E0.01779
G1 X144.440 Y93.725 E0.01779
G1 X143.934 Y93.467 E0.01780
G1 X143.533 Y93.066 E0.01779
G1 X143.275 Y92.561 E0.01779
G1 X143.186 Y92.000 E0.01779
G1 X143.265 Y91.499 E0.01590
M204 S1000
G1 X143.007 Y91.142 F10800.000
G1 F8640
G1 X143.533 Y90.934 E-0.14434
G1 X143.934 Y90.533 E-0.13103
G1 X144.440 Y90.275 E-0.13105
G1 X145.000 Y90.186 E-0.13103
G1 X145.560 Y90.275 E-0.13103
G1 X145.914 Y90.455 E-0.09152
G1 E-0.04000 F2100.00000
G1 Z0.800 F10800.000
G1 X126.908 Y92.242
G1 Z0.200
G1 E0.80000 F2100.00000
M204 S20
G1 F1800
G1 X126.789 Y92.703 E0.01492
G1 X126.610 Y93.043 E0.01204
G1 X126.407 Y93.307 E0.01043
G1 X126.210 Y93.492 E0.00848
G1 X125.835 Y93.730 E0.01394
G1 X125.576 Y93.833 E0.00872
G1 X125.126 Y93.919 E0.01438
G1 X124.742 Y93.901 E0.01204
G1 X124.413 Y93.829 E0.01057
G1 X124.142 Y93.717 E0.00920
G1 X123.777 Y93.484 E0.01356
G1 X123.511 Y93.209 E0.01200
G1 X123.312 Y92.919 E0.01102
G1 X123.143 Y92.492 E0.01442
G1 X123.090 Y92.195 E0.00944
G1 X123.092 Y91.758 E0.01372
G1 X123.211 Y91.297 E0.01492
G1 X123.390 Y90.957 E0.01204
G1 X123.593 Y90.693 E0.01043
G1 X123.790 Y90.508 E0.00848
G1 X124.165 Y90.270 E0.01394
G1 X124.424 Y90.167 E0.00872
G1 X124.874 Y90.081 E0.01438
G1 X125.258 Y90.099 E0.01204
G1 X125.587 Y90.171 E0.01057
G1 X125.858 Y90.283 E0.00920
G1 X126.223 Y90.516 E0.01356
G1 X126.489 Y90.791 E0.01200
G1 X126.688 Y91.081 E0.01102
G1 X126.857 Y91.508 E0.01442
G1 X126.910 Y91.805 E0.00944
G1 X126.908 Y92.182 E0.01184
M204 S1000
G1 X126.531 Y92.181 F10800.000
M204 S20
G1 F1800
G1 X126.435 Y92.566 E0.01246
G1 X126.291 Y92.838 E0.00965
G1 X126.127 Y93.053 E0.00847
G1 X125.978 Y93.193 E0.00640
G1 X125.663 Y93.393 E0.01171
G1 X125.470 Y93.469 E0.00649
G1 X125.099 Y93.540 E0.01186
G1 X124.791 Y93.525 E0.00965
G1 X124.526 Y93.468 E0.00852
G1 X124.317 Y93.381 E0.00709
G1 X124.018 Y93.190 E0.01114
G1 X123.804 Y92.969 E0.00963
G1 X123.647 Y92.741 E0.00868
G1 X123.507 Y92.389 E0.01188
G1 X123.468 Y92.163 E0.00718
G1 X123.469 Y91.806 E0.01119
G1 X123.565 Y91.434 E0.01206
G1 X123.709 Y91.162 E0.00965
G1 X123.873 Y90.947 E0.00847
G1 X124.022 Y90.807 E0.00640
G1 X124.337 Y90.607 E0.01171
G1 X124.530 Y90.531 E0.00649
G1 X124.901 Y90.460 E0.01186
G1 X125.209 Y90.475 E0.00965
G1 X125.474 Y90.532 E0.00852
G1 X125.683 Y90.619 E0.00709
G1 X125.982 Y90.810 E0.01114
G1 X126.196 Y91.031 E0.00963
G1 X126.353 Y91.259 E0.00868
G1 X126.493 Y91.611 E0.01188
G1 X126.532 Y91.837 E0.00718
G1 X126.531 Y92.121 E0.00890
M204 S1000
G1 X126.844 Y92.425 F10800.000
G1 F8640
G1 X126.435 Y92.566 E-0.10528
G1 X126.291 Y92.838 E-0.07106
G1 X126.127 Y93.053 E-0.06241
G1 X125.978 Y93.193 E-0.04713
G1 X125.663 Y93.393 E-0.08623
G1 X125.470 Y93.469 E-0.04778
G1 X125.099 Y93.540 E-0.08737
G1 X124.791 Y93.525 E-0.07106
G1 X124.526 Y93.468 E-0.06276
G1 X124.317 Y93.381 E-0.05222
G1 X124.073 Y93.225 E-0.06670
G1 E-0.04000 F2100.00000
G1 Z0.800 F10800.000
G1 X107.196 Y92.000
G1 Z0.200
G1 E0.80000 F2100.00000
M204 S20
G1 F1800
G1 X107.088 Y92.679 E0.02154
G1 X106.776 Y93.291 E0.02154
G1 X106.291 Y93.776 E0.02154
G1 X105.678 Y94.088 E0.02154
G1 X105.000 Y94.196 E0.02154
G1 X104.322 Y94.088 E0.02154
G1 X103.709 Y93.776 E0.02154
G1 X103.224 Y93.291 E0.02154
G1 X102.912 Y92.679 E0.02154
G1 X102.804 Y92.000 E0.02154
G1 X102.912 Y91.321 E0.02154
G1 X103.224 Y90.709 E0.02154
G1 X103.709 Y90.224 E0.02154
G1 X104.322 Y89.912 E0.02154
G1 X104.954 Y89.812 E0.02009
G1 X105.672 Y89.909 E0.02271
G1 X106.291 Y90.224 E0.02175
G1 X106.776 Y90.709 E0.02154
G1 X107.088 Y91.321 E0.02154
G1 X107.186 Y91.941 E0.01966
M204 S1000
G1 X106.814 Y92.000 F10800.000
M204 S20
G1 F1800
G1 X106.725 Y92.561 E0.01780
G1 X106.467 Y93.066 E0.01779
G1 X106.066 Y93.467 E0.01779
G1 X105.560 Y93.725 E0.01780
G1 X105.000 Y93.814 E0.01779
G1 X104.440 Y93.725 E0.01779
G1 X103.934 Y93.467 E0.01780
G1 X103.533 Y93.066 E0.01779
G1 X103.275 Y92.561 E0.01779
G1 X103.186 Y92.000 E0.01779
G1 X103.275 Y91.439 E0.01779
G1 X103.533 Y90.934 E0.01779
G1 X103.934 Y90.533 E0.01779
G1 X104.440 Y90.275 E0.01780
G1 X104.959 Y90.193 E0.01648
G1 X105.558 Y90.274 E0.01897
G1 X106.066 Y90.533 E0.01787
G1 X106.467 Y90.934 E0.01779
G1 X106.725 Y91.439 E0.01779
G1 X106.804 Y91.940 E0.01590
M204 S1000
G1 X107.160 Y92.200 F10800.000
G1 F8640
G1 X106.725 Y92.561 E-0.14434
G1 X106.467 Y93.066 E-0.13104
G1 X106.066 Y93.467 E-0.13103
G1 X105.560 Y93.725 E-0.13105
G1 X105.000 Y93.814 E-0.13103
G1 X104.609 Y93.752 E-0.09151
G1 E-0.04000 F2100.00000
G1 Z0.800 F10800.000
G1 X95.687 Y82.687
G1 Z0.200
G1 E0.80000 F2100.00000
M204 S20
G1 F1800
G1 X154.313 Y82.687 E1.83817
G1 X154.313 Y101.313 E0.58400
G1 X95.687 Y101.313 E1.83817
G1 X95.687 Y82.747 E0.58212
M204 S1000
G1 X95.310 Y82.310 F10800.000
M204 S20
G1 F1800
G1 X154.690 Y82.310 E1.86182
G1 X154.690 Y101.690 E0.60765
G1 X95.310 Y101.690 E1.86182
G1 X95.310 Y82.370 E0.60577
M204 S1000
G1 X95.708 Y82.352 F10800.000
G1 F8640
G1 X98.601 Y82.367 E-0.76000
G1 E-0.04000 F2100.00000
G1 Z0.800 F10800.000
G1 X102.738 Y92.961
G1 Z0.200
G1 E0.80000 F2100.00000
M204 S20
G1 F1800
G1 X95.970 Y86.192 E0.30045
G1 X95.970 Y85.659 E0.01676
G1 X102.557 Y92.246 E0.29240
G1 X102.518 Y92.000 E0.00781
G1 X102.563 Y91.718 E0.00897
G1 X95.970 Y85.125 E0.29266
G1 X95.970 Y84.591 E0.01676
G1 X102.636 Y91.257 E0.29590
G1 X102.810 Y90.898 E0.01254
G1 X95.970 Y84.057 E0.30365
G1 X95.970 Y83.523 E0.01676
G1 X102.991 Y90.544 E0.31165
G1 X103.257 Y90.276 E0.01185
G1 X95.970 Y82.989 E0.32347
G1 X95.970 Y82.970 E0.00061
G1 X96.484 Y82.970 E0.01615
G1 X103.524 Y90.009 E0.31248
G1 X103.872 Y89.824 E0.01238
G1 X97.018 Y82.970 E0.30424
G1 X97.552 Y82.970 E0.01676
G1 X104.225 Y89.643 E0.29624
G1 X104.684 Y89.568 E0.01459
G1 X98.086 Y82.970 E0.29289
G1 X98.620 Y82.970 E0.01676
G1 X105.211 Y89.561 E0.29257
G1 X105.758 Y89.635 E0.01733
G1 X105.882 Y89.698 E0.00436
G1 X99.154 Y82.970 E0.29866
G1 X99.687 Y82.970 E0.01676
G1 X117.748 Y101.030 E0.80169
G1 X118.281 Y101.030 E0.01676
G1 X100.221 Y82.970 E0.80169
G1 X100.755 Y82.970 E0.01676
G1 X118.815 Y101.030 E0.80169
M73 Q1 S56
M73 P1 R56
G1 X119.349 Y101.030 E0.01676
G1 X101.289 Y82.970 E0.80169
G1 X101.823 Y82.970 E0.01676
G1 X119.883 Y101.030 E0.80169
G1 X120.417 Y101.030 E0.01676
G1 X102.357 Y82.970 E0.80169
G1 X102.890 Y82.970 E0.01676
G1 X120.951 Y101.030 E0.80169
G1 X121.485 Y101.030 E0.01676
G1 X103.424 Y82.970 E0.80169
G1 X103.958 Y82.970 E0.01676
G1 X122.018 Y101.030 E0.80169
G1 X122.552 Y101.030 E0.01676
G1 X104.492 Y82.970 E0.80169
G1 X105.026 Y82.970 E0.01676
G1 X123.086 Y101.030 E0.80169
G1 X123.620 Y101.030 E0.01676
G1 X105.560 Y82.970 E0.80169
G1 X106.094 Y82.970 E0.01676
G1 X124.154 Y101.030 E0.80169
G1 X124.688 Y101.030 E0.01676
G1 X106.627 Y82.970 E0.80169
G1 X107.161 Y82.970 E0.01676
G1 X125.222 Y101.030 E0.80169
G1 X125.755 Y101.030 E0.01676
G1 X107.695 Y82.970 E0.80169
G1 X108.229 Y82.970 E0.01676
G1 X126.289 Y101.030 E0.80169
G1 X126.823 Y101.030 E0.01676
G1 X108.763 Y82.970 E0.80169
G1 X109.297 Y82.970 E0.01676
G1 X127.357 Y101.030 E0.80169
G1 X127.891 Y101.030 E0.01676
G1 X109.831 Y82.970 E0.80169
G1 X110.364 Y82.970 E0.01676
G1 X128.425 Y101.030 E0.80169
G1 X128.959 Y101.030 E0.01676
G1 X110.898 Y82.970 E0.80169
G1 X111.432 Y82.970 E0.01676
G1 X129.492 Y101.030 E0.80169
G1 X130.026 Y101.030 E0.01676
G1 X111.966 Y82.970 E0.80169
G1 X112.500 Y82.970 E0.01676
G1 X130.730 Y101.200 E0.80923
M204 S1000
G1 F8640
G1 X128.402 Y98.872 E-0.76000
G1 E-0.04000 F2100.00000
G1 Z0.800 F10800.000
G1 X117.383 Y101.200
G1 Z0.200
G1 E0.80000 F2100.00000
M204 S20
G1 F1800
G1 X107.302 Y91.118 E0.44751
G1 X107.360 Y91.233 E0.00403
G1 X107.450 Y91.801 E0.01804
G1 X116.680 Y101.030 E0.40970
G1 X116.146 Y101.030 E0.01676
G1 X107.432 Y92.316 E0.38682
G1 X107.357 Y92.775 E0.01459
G1 X115.612 Y101.030 E0.36646
G1 X115.078 Y101.030 E0.01676
G1 X107.176 Y93.128 E0.35077
G1 X106.991 Y93.476 E0.01238
G1 X114.545 Y101.030 E0.33532
G1 X114.011 Y101.030 E0.01676
G1 X106.724 Y93.743 E0.32347
G1 X106.456 Y94.009 E0.01185
G1 X113.477 Y101.030 E0.31165
G1 X112.943 Y101.030 E0.01676
G1 X106.102 Y94.190 E0.30365
G1 X105.743 Y94.364 E0.01254
G1 X112.409 Y101.030 E0.29590
G1 X111.875 Y101.030 E0.01676
G1 X105.282 Y94.437 E0.29266
G1 X105.000 Y94.482 E0.00897
G1 X104.754 Y94.443 E0.00781
G1 X111.341 Y101.030 E0.29240
G1 X110.808 Y101.030 E0.01676
G1 X104.039 Y94.262 E0.30045
M204 S1000
G1 F8640
G1 X106.366 Y96.589 E-0.76000
G1 E-0.04000 F2100.00000
G1 Z0.800 F10800.000
G1 X110.443 Y101.200
G1 Z0.200
G1 E0.80000 F2100.00000
M204 S20
G1 F1800
G1 X95.970 Y86.726 E0.64248
G1 X95.970 Y87.260 E0.01676
G1 X109.740 Y101.030 E0.61125
G1 X109.206 Y101.030 E0.01676
G1 X95.970 Y87.794 E0.58755
G1 X95.970 Y88.328 E0.01676
G1 X108.672 Y101.030 E0.56385
G1 X108.138 Y101.030 E0.01676
G1 X95.970 Y88.862 E0.54016
G1 X95.970 Y89.396 E0.01676
G1 X107.604 Y101.030 E0.51646
G1 X107.071 Y101.030 E0.01676
G1 X95.970 Y89.929 E0.49276
G1 X95.970 Y90.463 E0.01676
G1 X106.537 Y101.030 E0.46906
G1 X106.003 Y101.030 E0.01676
G1 X95.970 Y90.997 E0.44537
G1 X95.970 Y91.531 E0.01676
G1 X105.469 Y101.030 E0.42167
G1 X104.935 Y101.030 E0.01676
G1 X95.970 Y92.065 E0.39797
M73 Q3 S55
M73 P3 R55
G1 X95.970 Y92.599 E0.01676
G1 X104.401 Y101.030 E0.37427
G1 X103.867 Y101.030 E0.01676
G1 X95.970 Y93.133 E0.35058
G1 X95.970 Y93.666 E0.01676
G1 X103.334 Y101.030 E0.32688
G1 X102.800 Y101.030 E0.01676
G1 X95.970 Y94.200 E0.30318
G1 X95.970 Y94.734 E0.01676
G1 X102.266 Y101.030 E0.27948
G1 X101.732 Y101.030 E0.01676
G1 X95.970 Y95.268 E0.25578
G1 X95.970 Y95.802 E0.01676
G1 X101.198 Y101.030 E0.23209
G1 X100.664 Y101.030 E0.01676
G1 X95.970 Y96.336 E0.20839
G1 X95.970 Y96.869 E0.01676
G1 X100.131 Y101.030 E0.18469
G1 X99.597 Y101.030 E0.01676
G1 X95.970 Y97.403 E0.16099
G1 X95.970 Y97.937 E0.01676
G1 X99.063 Y101.030 E0.13730
G1 X98.529 Y101.030 E0.01676
G1 X95.970 Y98.471 E0.11360
G1 X95.970 Y99.005 E0.01676
G1 X97.995 Y101.030 E0.08990
G1 X97.461 Y101.030 E0.01676
G1 X95.970 Y99.539 E0.06620
G1 X95.970 Y100.073 E0.01676
G1 X96.927 Y101.030 E0.04251
G1 X96.394 Y101.030 E0.01676
G1 X95.800 Y100.437 E0.02634
M204 S1000
G1 F8640
G1 X96.394 Y101.030 E-0.19377
G1 X96.927 Y101.030 E-0.12327
G1 X95.970 Y100.073 E-0.31269
G1 X95.970 Y99.539 E-0.12327
G1 X95.991 Y99.560 E-0.00701
G1 E-0.04000 F2100.00000
G1 Z0.800 F10800.000
G1 X118.202 Y82.800
G1 Z0.200
G1 E0.80000 F2100.00000
M204 S20
G1 F1800
G1 X125.217 Y89.814 E0.31136
G1 X124.854 Y89.797 E0.01139
G1 X124.696 Y89.828 E0.00506
G1 X117.838 Y82.970 E0.30442
G1 X117.304 Y82.970 E0.01676
G1 X124.262 Y89.927 E0.30885
G1 X124.036 Y90.017 E0.00762
G1 X123.902 Y90.102 E0.00498
G1 X116.771 Y82.970 E0.31658
G1 X116.237 Y82.970 E0.01676
G1 X123.582 Y90.315 E0.32606
G1 X123.319 Y90.586 E0.01185
G1 X115.703 Y82.970 E0.33807
G1 X115.169 Y82.970 E0.01676
G1 X123.100 Y90.901 E0.35206
G1 X122.945 Y91.194 E0.01041
G1 X122.928 Y91.262 E0.00221
G1 X114.635 Y82.970 E0.36810
G1 X114.101 Y82.970 E0.01676
G1 X122.818 Y91.687 E0.38695
G1 X122.808 Y92.210 E0.01642
G1 X113.568 Y82.970 E0.41016
G1 X113.034 Y82.970 E0.01676
G1 X131.094 Y101.030 E0.80169
G1 X131.628 Y101.030 E0.01676
