; generated by Slic3r Prusa Edition 1.41.1 on 2018-11-18 at 14:53:13

; 

; external perimeters extrusion width = 0.45mm
; perimeters extrusion width = 0.45mm
; infill extrusion width = 0.45mm
; solid infill extrusion width = 0.45mm
; top infill extrusion width = 0.40mm
; first layer extrusion width = 0.42mm

M73 P0 R33
M73 Q0 S33
M201 X1000 Y1000 Z1000 E5000 ; sets maximum accelerations, mm/sec^2
M203 X200 Y200 Z12 E120 ; sets maximum feedrates, mm/sec
M204 P1250 R1250 T1250 ; sets acceleration (P, T) and retract acceleration (R), mm/sec^2
M205 X8.00 Y8.00 Z0.40 E1.50 ; sets the jerk limits, mm/sec
M205 S0 T0 ; sets the minimum extruding and travel feed rate, mm/sec
M107
M115 U3.4.0 ; tell printer latest fw version
M83  ; extruder relative mode
M104 S140 ; set extruder to warm-up temp
M140 S80 ; set bed temp
M190 S80 ; wait for bed temp
G28 W ; home all without mesh bed level
G80 ; mesh bed leveling
M104 S245 ; set extruder temp
M109 S245 ; wait for extruder temp
G1 Y-3.0 F1000.0 ; go outside print area
G92 E0.0
G1 X60.0 E9.0  F1000.0 ; intro line
M73 Q0 S33
M73 P0 R33
G1 X100.0 E12.5  F1000.0 ; intro line
G92 E0.0
M221 S95
M900 K45; Filament gcode
G21 ; set units to millimeters
G90 ; use absolute coordinates
M83 ; use relative distances for extrusion
;BEFORE_LAYER_CHANGE
G92 E0.0
;0.2


G1 E-0.80000 F2100.00000
G1 Z0.600 F10800.000
;AFTER_LAYER_CHANGE
;0.2
G1 X92.198 Y91.396
G1 Z0.200
G1 E0.80000 F2100.00000
M204 S20
G1 F1800
G1 X93.268 Y90.776 E0.03878
G1 X94.105 Y90.523 E0.02743
G1 X94.976 Y90.434 E0.02743
G1 X155.005 Y90.434 E1.88218
G1 X155.861 Y90.516 E0.02694
G1 X156.690 Y90.759 E0.02710
G1 X157.455 Y91.151 E0.02694
G1 X158.133 Y91.679 E0.02694
G1 X158.699 Y92.324 E0.02694
G1 X159.135 Y93.065 E0.02694
G1 X159.425 Y93.874 E0.02694
G1 X159.558 Y94.728 E0.02710
G1 X159.536 Y115.521 E0.65197
G1 X159.239 Y116.695 E0.03796
G1 X158.642 Y117.754 E0.03812
G1 X157.786 Y118.617 E0.03812
G1 X156.732 Y119.224 E0.03812
G1 X155.895 Y119.477 E0.02743
G1 X155.024 Y119.566 E0.02743
G1 X94.826 Y119.562 E1.88747
G1 X93.548 Y119.328 E0.04074
G1 X92.383 Y118.741 E0.04091
G1 X91.435 Y117.852 E0.04074
G1 X90.774 Y116.727 E0.04091
G1 X90.527 Y115.915 E0.02661
G1 X90.435 Y115.066 E0.02677
G1 X90.455 Y94.563 E0.64288
G1 X90.738 Y93.364 E0.03861
G1 X91.333 Y92.280 E0.03878
G1 X92.156 Y91.438 E0.03690
M204 S1000
G1 X92.424 Y91.702 F10800.000
M204 S20
G1 F1800
G1 X93.435 Y91.115 E0.03665
G1 X94.190 Y90.891 E0.02469
G1 X94.979 Y90.812 E0.02485
G1 X155.005 Y90.811 E1.88209
G1 X155.789 Y90.886 E0.02469
G1 X156.550 Y91.109 E0.02485
G1 X157.255 Y91.470 E0.02485
G1 X157.880 Y91.958 E0.02485
G1 X158.398 Y92.551 E0.02469
G1 X158.799 Y93.235 E0.02485
G1 X159.063 Y93.983 E0.02485
G1 X159.182 Y94.766 E0.02485
G1 X159.164 Y115.449 E0.64850
G1 X158.895 Y116.540 E0.03525
G1 X158.342 Y117.525 E0.03540
G1 X157.546 Y118.326 E0.03540
G1 X156.565 Y118.885 E0.03540
G1 X155.810 Y119.109 E0.02469
G1 X155.021 Y119.188 E0.02485
G1 X94.853 Y119.186 E1.88653
G1 X93.668 Y118.971 E0.03776
G1 X92.598 Y118.431 E0.03760
G1 X91.721 Y117.606 E0.03776
G1 X91.115 Y116.565 E0.03776
G1 X90.894 Y115.825 E0.02422
G1 X90.812 Y115.057 E0.02422
G1 X90.829 Y94.621 E0.64074
G1 X91.087 Y93.507 E0.03587
G1 X91.637 Y92.503 E0.03587
G1 X92.382 Y91.745 E0.03334
M204 S1000
; PURGING FINISHED
G1 F8640
G1 X93.435 Y91.115 E-0.28330
G1 X94.190 Y90.891 E-0.18186
G1 X94.979 Y90.812 E-0.18302
G1 X95.463 Y90.812 E-0.11182
G1 E-0.04000 F2100.00000
G1 Z0.800 F10800.000
G1 X142.912 Y104.321
G1 Z0.200
G1 E0.80000 F2100.00000
M204 S20
G1 F1800
G1 X143.224 Y103.709 E0.02154
G1 X143.709 Y103.224 E0.02154
G1 X144.322 Y102.912 E0.02154
G1 X145.000 Y102.804 E0.02154
G1 X145.678 Y102.912 E0.02154
G1 X146.291 Y103.224 E0.02154
G1 X146.776 Y103.709 E0.02154
G1 X147.088 Y104.321 E0.02154
G1 X147.196 Y105.000 E0.02154
G1 X147.088 Y105.679 E0.02154
G1 X146.776 Y106.291 E0.02154
G1 X146.291 Y106.776 E0.02154
G1 X145.678 Y107.088 E0.02154
G1 X145.000 Y107.196 E0.02154
G1 X144.322 Y107.088 E0.02154
G1 X143.709 Y106.776 E0.02154
G1 X143.224 Y106.291 E0.02154
G1 X142.912 Y105.679 E0.02154
G1 X142.804 Y105.000 E0.02154
G1 X142.902 Y104.381 E0.01966
M204 S1000
G1 X143.275 Y104.440 F10800.000
M204 S20
G1 F1800
G1 X143.533 Y103.934 E0.01780
G1 X143.934 Y103.533 E0.01779
G1 X144.440 Y103.275 E0.01780
G1 X145.000 Y103.186 E0.01779
G1 X145.560 Y103.275 E0.01779
G1 X146.066 Y103.533 E0.01780
G1 X146.467 Y103.934 E0.01779
G1 X146.725 Y104.439 E0.01779
G1 X146.814 Y105.000 E0.01779
G1 X146.725 Y105.561 E0.01779
G1 X146.467 Y106.066 E0.01779
G1 X146.066 Y106.467 E0.01779
G1 X145.560 Y106.725 E0.01780
G1 X145.000 Y106.814 E0.01779
G1 X144.440 Y106.725 E0.01779
G1 X143.934 Y106.467 E0.01780
G1 X143.533 Y106.066 E0.01779
G1 X143.275 Y105.561 E0.01779
G1 X143.186 Y105.000 E0.01779
G1 X143.265 Y104.499 E0.01590
M204 S1000
G1 X143.007 Y104.142 F10800.000
G1 F8640
G1 X143.533 Y103.934 E-0.14434
G1 X143.934 Y103.533 E-0.13103
G1 X144.440 Y103.275 E-0.13105
G1 X145.000 Y103.186 E-0.13103
G1 X145.560 Y103.275 E-0.13103
G1 X145.914 Y103.455 E-0.09152
G1 E-0.04000 F2100.00000
G1 Z0.800 F10800.000
G1 X126.908 Y105.242
G1 Z0.200
G1 E0.80000 F2100.00000
M204 S20
G1 F1800
G1 X126.789 Y105.703 E0.01492
G1 X126.610 Y106.043 E0.01204
G1 X126.407 Y106.307 E0.01043
G1 X126.210 Y106.492 E0.00848
G1 X125.835 Y106.730 E0.01394
G1 X125.576 Y106.833 E0.00872
G1 X125.126 Y106.919 E0.01438
G1 X124.742 Y106.901 E0.01204
G1 X124.413 Y106.829 E0.01057
G1 X124.142 Y106.717 E0.00920
G1 X123.777 Y106.484 E0.01356
G1 X123.511 Y106.209 E0.01200
G1 X123.312 Y105.919 E0.01102
G1 X123.143 Y105.492 E0.01442
G1 X123.090 Y105.195 E0.00944
G1 X123.092 Y104.758 E0.01372
G1 X123.211 Y104.297 E0.01492
G1 X123.390 Y103.957 E0.01204
G1 X123.593 Y103.693 E0.01043
G1 X123.790 Y103.508 E0.00848
G1 X124.165 Y103.270 E0.01394
G1 X124.424 Y103.167 E0.00872
G1 X124.874 Y103.081 E0.01438
G1 X125.258 Y103.099 E0.01204
G1 X125.587 Y103.171 E0.01057
G1 X125.858 Y103.283 E0.00920
G1 X126.223 Y103.516 E0.01356
G1 X126.489 Y103.791 E0.01200
G1 X126.688 Y104.081 E0.01102
G1 X126.857 Y104.508 E0.01442
G1 X126.910 Y104.805 E0.00944
G1 X126.908 Y105.182 E0.01184
M204 S1000
G1 X126.531 Y105.181 F10800.000
M204 S20
G1 F1800
G1 X126.435 Y105.566 E0.01246
G1 X126.291 Y105.838 E0.00965
G1 X126.127 Y106.053 E0.00847
G1 X125.978 Y106.193 E0.00640
G1 X125.663 Y106.393 E0.01171
G1 X125.470 Y106.469 E0.00649
G1 X125.099 Y106.540 E0.01186
G1 X124.791 Y106.525 E0.00965
G1 X124.526 Y106.468 E0.00852
G1 X124.317 Y106.381 E0.00709
G1 X124.018 Y106.190 E0.01114
G1 X123.804 Y105.969 E0.00963
G1 X123.647 Y105.741 E0.00868
G1 X123.507 Y105.389 E0.01188
G1 X123.468 Y105.163 E0.00718
G1 X123.469 Y104.806 E0.01119
G1 X123.565 Y104.434 E0.01206
G1 X123.709 Y104.162 E0.00965
G1 X123.873 Y103.947 E0.00847
G1 X124.022 Y103.807 E0.00640
G1 X124.337 Y103.607 E0.01171
G1 X124.530 Y103.531 E0.00649
G1 X124.901 Y103.460 E0.01186
G1 X125.209 Y103.475 E0.00965
G1 X125.474 Y103.532 E0.00852
G1 X125.683 Y103.619 E0.00709
G1 X125.982 Y103.810 E0.01114
G1 X126.196 Y104.031 E0.00963
G1 X126.353 Y104.259 E0.00868
G1 X126.493 Y104.611 E0.01188
G1 X126.532 Y104.837 E0.00718
G1 X126.531 Y105.121 E0.00890
M204 S1000
G1 X126.844 Y105.425 F10800.000
G1 F8640
G1 X126.435 Y105.566 E-0.10528
G1 X126.291 Y105.838 E-0.07106
G1 X126.127 Y106.053 E-0.06241
G1 X125.978 Y106.193 E-0.04713
G1 X125.663 Y106.393 E-0.08623
G1 X125.470 Y106.469 E-0.04778
G1 X125.099 Y106.540 E-0.08737
G1 X124.791 Y106.525 E-0.07106
G1 X124.526 Y106.468 E-0.06276
G1 X124.317 Y106.381 E-0.05222
G1 X124.073 Y106.225 E-0.06670
G1 E-0.04000 F2100.00000
G1 Z0.800 F10800.000
G1 X107.196 Y105.000
G1 Z0.200
G1 E0.80000 F2100.00000
M204 S20
G1 F1800
G1 X107.088 Y105.679 E0.02154
G1 X106.776 Y106.291 E0.02154
G1 X106.291 Y106.776 E0.02154
G1 X105.678 Y107.088 E0.02154
G1 X105.000 Y107.196 E0.02154
G1 X104.322 Y107.088 E0.02154
G1 X103.709 Y106.776 E0.02154
G1 X103.224 Y106.291 E0.02154
G1 X102.912 Y105.679 E0.02154
G1 X102.804 Y105.000 E0.02154
G1 X102.912 Y104.321 E0.02154
G1 X103.224 Y103.709 E0.02154
G1 X103.709 Y103.224 E0.02154
G1 X104.322 Y102.912 E0.02154
G1 X104.954 Y102.812 E0.02009
G1 X105.672 Y102.909 E0.02271
G1 X106.291 Y103.224 E0.02175
G1 X106.776 Y103.709 E0.02154
G1 X107.088 Y104.321 E0.02154
G1 X107.186 Y104.941 E0.01966
M204 S1000
G1 X106.814 Y105.000 F10800.000
M204 S20
G1 F1800
G1 X106.725 Y105.561 E0.01780
G1 X106.467 Y106.066 E0.01779
G1 X106.066 Y106.467 E0.01779
G1 X105.560 Y106.725 E0.01780
G1 X105.000 Y106.814 E0.01779
G1 X104.440 Y106.725 E0.01779
G1 X103.934 Y106.467 E0.01780
G1 X103.533 Y106.066 E0.01779
G1 X103.275 Y105.561 E0.01779
G1 X103.186 Y105.000 E0.01779
G1 X103.275 Y104.439 E0.01779
G1 X103.533 Y103.934 E0.01779
G1 X103.934 Y103.533 E0.01779
G1 X104.440 Y103.275 E0.01780
G1 X104.959 Y103.193 E0.01648
G1 X105.558 Y103.274 E0.01897
G1 X106.066 Y103.533 E0.01787
G1 X106.467 Y103.934 E0.01779
G1 X106.725 Y104.439 E0.01779
G1 X106.804 Y104.940 E0.01590
M204 S1000
G1 X107.160 Y105.200 F10800.000
G1 F8640
G1 X106.725 Y105.561 E-0.14434
G1 X106.467 Y106.066 E-0.13104
G1 X106.066 Y106.467 E-0.13103
G1 X105.560 Y106.725 E-0.13105
G1 X105.000 Y106.814 E-0.13103
G1 X104.609 Y106.752 E-0.09151
G1 E-0.04000 F2100.00000
G1 Z0.800 F10800.000
G1 X95.687 Y95.687
G1 Z0.200
G1 E0.80000 F2100.00000
M204 S20
G1 F1800
G1 X154.313 Y95.687 E1.83817
G1 X154.313 Y114.313 E0.58400
G1 X95.687 Y114.313 E1.83817
G1 X95.687 Y95.747 E0.58212
M204 S1000
G1 X95.310 Y95.310 F10800.000
M204 S20
G1 F1800
G1 X154.690 Y95.310 E1.86182
G1 X154.690 Y114.690 E0.60765
G1 X95.310 Y114.690 E1.86182
G1 X95.310 Y95.370 E0.60577
M204 S1000
G1 X95.708 Y95.352 F10800.000
G1 F8640
G1 X98.601 Y95.367 E-0.76000
G1 E-0.04000 F2100.00000
G1 Z0.800 F10800.000
G1 X102.738 Y105.961
G1 Z0.200
G1 E0.80000 F2100.00000
M204 S20
G1 F1800
G1 X95.970 Y99.192 E0.30045
G1 X95.970 Y98.659 E0.01676
G1 X102.557 Y105.246 E0.29240
G1 X102.518 Y105.000 E0.00781
G1 X102.563 Y104.718 E0.00897
G1 X95.970 Y98.125 E0.29266
G1 X95.970 Y97.591 E0.01676
G1 X102.636 Y104.257 E0.29590
G1 X102.810 Y103.898 E0.01254
G1 X95.970 Y97.057 E0.30365
G1 X95.970 Y96.523 E0.01676
G1 X102.991 Y103.544 E0.31165
G1 X103.257 Y103.276 E0.01185
G1 X95.970 Y95.989 E0.32347
G1 X95.970 Y95.970 E0.00061
G1 X96.484 Y95.970 E0.01615
G1 X103.524 Y103.009 E0.31248
G1 X103.872 Y102.824 E0.01238
G1 X97.018 Y95.970 E0.30424
G1 X97.552 Y95.970 E0.01676
G1 X104.225 Y102.643 E0.29624
G1 X104.684 Y102.568 E0.01459
G1 X98.086 Y95.970 E0.29289
G1 X98.620 Y95.970 E0.01676
G1 X105.211 Y102.561 E0.29257
G1 X105.758 Y102.635 E0.01733
G1 X105.882 Y102.698 E0.00436
G1 X99.154 Y95.970 E0.29866
G1 X99.687 Y95.970 E0.01676
G1 X117.748 Y114.030 E0.80169
G1 X118.281 Y114.030 E0.01676
G1 X100.221 Y95.970 E0.80169
G1 X100.755 Y95.970 E0.01676
G1 X118.815 Y114.030 E0.80169
G1 X119.349 Y114.030 E0.01676
G1 X101.289 Y95.970 E0.80169
G1 X101.823 Y95.970 E0.01676
G1 X119.883 Y114.030 E0.80169
M73 Q3 S32
M73 P3 R32
G1 X120.417 Y114.030 E0.01676
G1 X102.357 Y95.970 E0.80169
G1 X102.890 Y95.970 E0.01676
G1 X120.951 Y114.030 E0.80169
G1 X121.485 Y114.030 E0.01676
G1 X103.424 Y95.970 E0.80169
G1 X103.958 Y95.970 E0.01676
G1 X122.018 Y114.030 E0.80169
G1 X122.552 Y114.030 E0.01676
G1 X104.492 Y95.970 E0.80169
G1 X105.026 Y95.970 E0.01676
G1 X123.086 Y114.030 E0.80169
G1 X123.620 Y114.030 E0.01676
G1 X105.560 Y95.970 E0.80169
G1 X106.094 Y95.970 E0.01676
G1 X124.154 Y114.030 E0.80169
G1 X124.688 Y114.030 E0.01676
G1 X106.627 Y95.970 E0.80169
G1 X107.161 Y95.970 E0.01676
G1 X125.222 Y114.030 E0.80169
G1 X125.755 Y114.030 E0.01676
G1 X107.695 Y95.970 E0.80169
G1 X108.229 Y95.970 E0.01676
G1 X126.289 Y114.030 E0.80169
G1 X126.823 Y114.030 E0.01676
G1 X108.763 Y95.970 E0.80169
G1 X109.297 Y95.970 E0.01676
G1 X127.357 Y114.030 E0.80169
G1 X127.891 Y114.030 E0.01676
G1 X109.831 Y95.970 E0.80169
G1 X110.364 Y95.970 E0.01676
G1 X128.425 Y114.030 E0.80169
G1 X128.959 Y114.030 E0.01676
G1 X110.898 Y95.970 E0.80169
G1 X111.432 Y95.970 E0.01676
G1 X129.492 Y114.030 E0.80169
G1 X130.026 Y114.030 E0.01676
G1 X111.966 Y95.970 E0.80169
G1 X112.500 Y95.970 E0.01676
G1 X130.730 Y114.200 E0.80923
M204 S1000
G1 F8640
G1 X128.402 Y111.872 E-0.76000
G1 E-0.04000 F2100.00000
G1 Z0.800 F10800.000
G1 X117.383 Y114.200
G1 Z0.200
G1 E0.80000 F2100.00000
M204 S20
G1 F1800
G1 X107.302 Y104.118 E0.44751
G1 X107.360 Y104.233 E0.00403
G1 X107.450 Y104.801 E0.01804
G1 X116.680 Y114.030 E0.40970
G1 X116.146 Y114.030 E0.01676
G1 X107.432 Y105.316 E0.38682
G1 X107.357 Y105.775 E0.01459
G1 X115.612 Y114.030 E0.36646
G1 X115.078 Y114.030 E0.01676
G1 X107.176 Y106.128 E0.35077
G1 X106.991 Y106.476 E0.01238
G1 X114.545 Y114.030 E0.33532
G1 X114.011 Y114.030 E0.01676
G1 X106.724 Y106.743 E0.32347
G1 X106.456 Y107.009 E0.01185
G1 X113.477 Y114.030 E0.31165
G1 X112.943 Y114.030 E0.01676
G1 X106.102 Y107.190 E0.30365
G1 X105.743 Y107.364 E0.01254
G1 X112.409 Y114.030 E0.29590
G1 X111.875 Y114.030 E0.01676
G1 X105.282 Y107.437 E0.29266
G1 X105.000 Y107.482 E0.00897
G1 X104.754 Y107.443 E0.00781
G1 X111.341 Y114.030 E0.29240
G1 X110.808 Y114.030 E0.01676
G1 X104.039 Y107.262 E0.30045
M204 S1000
G1 F8640
G1 X106.366 Y109.589 E-0.76000
G1 E-0.04000 F2100.00000
G1 Z0.800 F10800.000
G1 X110.443 Y114.200
G1 Z0.200
G1 E0.80000 F2100.00000
M204 S20
G1 F1800
G1 X95.970 Y99.726 E0.64248
G1 X95.970 Y100.260 E0.01676
G1 X109.740 Y114.030 E0.61125
G1 X109.206 Y114.030 E0.01676
G1 X95.970 Y100.794 E0.58755
G1 X95.970 Y101.328 E0.01676
G1 X108.672 Y114.030 E0.56385
G1 X108.138 Y114.030 E0.01676
G1 X95.970 Y101.862 E0.54016
G1 X95.970 Y102.396 E0.01676
G1 X107.604 Y114.030 E0.51646
G1 X107.071 Y114.030 E0.01676
G1 X95.970 Y102.929 E0.49276
G1 X95.970 Y103.463 E0.01676
G1 X106.537 Y114.030 E0.46906
G1 X106.003 Y114.030 E0.01676
G1 X95.970 Y103.997 E0.44537
G1 X95.970 Y104.531 E0.01676
G1 X105.469 Y114.030 E0.42167
G1 X104.935 Y114.030 E0.01676
G1 X95.970 Y105.065 E0.39797
G1 X95.970 Y105.599 E0.01676
G1 X104.401 Y114.030 E0.37427
G1 X103.867 Y114.030 E0.01676
G1 X95.970 Y106.133 E0.35058
G1 X95.970 Y106.666 E0.01676
G1 X103.334 Y114.030 E0.32688
M73 Q6 S31
M73 P6 R31
G1 X102.800 Y114.030 E0.01676
G1 X95.970 Y107.200 E0.30318
G1 X95.970 Y107.734 E0.01676
G1 X102.266 Y114.030 E0.27948
G1 X101.732 Y114.030 E0.01676
G1 X95.970 Y108.268 E0.25578
G1 X95.970 Y108.802 E0.01676
G1 X101.198 Y114.030 E0.23209
G1 X100.664 Y114.030 E0.01676
G1 X95.970 Y109.336 E0.20839
G1 X95.970 Y109.869 E0.01676
G1 X100.131 Y114.030 E0.18469
G1 X99.597 Y114.030 E0.01676
G1 X95.970 Y110.403 E0.16099
G1 X95.970 Y110.937 E0.01676
G1 X99.063 Y114.030 E0.13730
G1 X98.529 Y114.030 E0.01676
G1 X95.970 Y111.471 E0.11360
G1 X95.970 Y112.005 E0.01676
G1 X97.995 Y114.030 E0.08990
G1 X97.461 Y114.030 E0.01676
G1 X95.970 Y112.539 E0.06620
G1 X95.970 Y113.073 E0.01676
G1 X96.927 Y114.030 E0.04251
G1 X96.394 Y114.030 E0.01676
G1 X95.800 Y113.437 E0.02634
M204 S1000
G1 F8640
G1 X96.394 Y114.030 E-0.19377
G1 X96.927 Y114.030 E-0.12327
G1 X95.970 Y113.073 E-0.31269
G1 X95.970 Y112.539 E-0.12327
G1 X95.991 Y112.560 E-0.00701
G1 E-0.04000 F2100.00000
G1 Z0.800 F10800.000
G1 X118.202 Y95.800
G1 Z0.200
G1 E0.80000 F2100.00000
M204 S20
G1 F1800
G1 X125.217 Y102.814 E0.31136
G1 X124.854 Y102.797 E0.01139
G1 X124.696 Y102.828 E0.00506
G1 X117.838 Y95.970 E0.30442
G1 X117.304 Y95.970 E0.01676
G1 X124.262 Y102.927 E0.30885
G1 X124.036 Y103.017 E0.00762
G1 X123.902 Y103.102 E0.00498
G1 X116.771 Y95.970 E0.31658
G1 X116.237 Y95.970 E0.01676
G1 X123.582 Y103.315 E0.32606
G1 X123.319 Y103.586 E0.01185
G1 X115.703 Y95.970 E0.33807
G1 X115.169 Y95.970 E0.01676
G1 X123.100 Y103.901 E0.35206
G1 X122.945 Y104.194 E0.01041
G1 X122.928 Y104.262 E0.00221
G1 X114.635 Y95.970 E0.36810
G1 X114.101 Y95.970 E0.01676
G1 X122.818 Y104.687 E0.38695
G1 X122.808 Y105.210 E0.01642
G1 X113.568 Y95.970 E0.41016
G1 X113.034 Y95.970 E0.01676
G1 X131.094 Y114.030 E0.80169
G1 X131.628 Y114.030 E0.01676
G1 X124.783 Y107.186 E0.30383
G1 X125.146 Y107.203 E0.01139
G1 X125.304 Y107.172 E0.00505
G1 X132.162 Y114.030 E0.30442
G1 X132.695 Y114.030 E0.01676
G1 X125.738 Y107.073 E0.30884
